; GCODE generated by Laserweb
; Laser Min: 0%
; Laser Max: 100%
; Black Speed: 200mm/min
; White Speed: 800mm/min
; Resolution (mm per pixel): 0.12699999999999187mm
; Laser Spot Size: NaNmm
; Laser Feedrate: 2000mm/min
; X Offset: 200mm
; Y Offset: 0mm 

G1 F1000
; Start GCode
G92
G90
G1Z0
M3S0

G0 Y44.450
G0 X200.000 S0
G1 X213.335 S348
S0
G1 X213.462 S340
S0
G1 X213.589 S352
S0
G1 X213.716 S364
S0
G1 X213.843 S344
S0
G1 X213.970 S348
S0
G1 X214.097 S297
S0
G1 X214.224 S619
S0
G1 X214.351 S513
S0
G1 X214.478 S309
S0
G1 X214.605 S368
S0
G1 X214.732 S340
S0
G1 X214.859 S348
S0
G1 X214.986 S340
S0
G1 X215.240 S352
S0
G1 X215.621 S348
S0
G1 X215.875 S356
S0
G1 X216.002 S348
S0
G1 X216.129 S333
S0
G1 X216.256 S317
S0
G1 X216.383 S446
S0
G1 X216.510 S674
S0
G1 X216.637 S564
S0
G1 X216.764 S565
S0
G1 X216.891 S643
S0
G1 X217.018 S714
S0
G1 X217.145 S706
S0
G1 X217.272 S760
S0
G1 X217.399 S612
S0
G1 X217.526 S274
S0
G1 X217.653 S361
S0
G1 X217.780 S358
S0
G1 X217.907 S349
S0
G1 X218.034 S342
S0
G1 X218.161 S345
S0
G1 X218.288 S353
S0
G1 X218.415 S360
S0
G1 X218.542 S364
S0
G1 X218.669 S348
S0
G1 X218.796 S356
S0
G1 X218.923 S360
S0
G1 X219.050 S313
S0
G1 X219.177 S360
S0
G1 X219.304 S505
S0
G1 X219.431 S809
S0
G1 X219.558 S745
S0
G1 X219.685 S576
S0
G1 X219.812 S416
S0
G1 X219.939 S294
S0
G1 X220.066 S236
S0
G1 X220.193 S369
S0
G1 X220.320 S317
S0
G1 X220.447 S651
S0
G1 X220.574 S801
S0
G1 X220.701 S764
S0
G1 X220.828 S698
S0
G1 X220.955 S721
S0
G1 X221.082 S699
S0
G1 X221.209 S727
S0
G1 X221.336 S844
S0
G1 X221.463 S460
S0
G1 X221.590 S255
S0
G1 X221.717 S341
S0
G1 X221.844 S373
S0
G1 X221.971 S329
S0
G1 X222.098 S360
S0
G1 X222.225 S325
S0
G1 X222.352 S344
S0
G1 X222.479 S348
S0
G1 X222.606 S364
S0
G1 X222.733 S368
S0
G1 X222.860 S348
S0
G1 X222.987 S340
S0
G1 X223.114 S348
S0
G1 X223.241 S356
S0
G1 X223.368 S352
S0
G1 X223.495 S340
S0
G1 X223.622 S356
S0
G1 X223.749 S352
S0
G1 X223.876 S381
S0
G1 X224.003 S345
S0
G1 X224.130 S337
S0
G1 X224.257 S381
S0
G1 X224.384 S298
S0
G1 X224.511 S310
S0
G1 X224.638 S887
S0
G1 X224.765 S999
S0
G1 X224.892 S988
S0
G1 X225.019 S997
S0
G1 X225.146 S938
S0
G1 X225.273 S362
S0
G1 X225.400 S313
S0
G1 X225.527 S348
S0
G1 X225.654 S352
S0
G1 X225.781 S368
S0
G1 X225.908 S384
S0
G1 X226.035 S337
S0
G1 X226.162 S325
S0
G1 X226.289 S372
S0
G1 X226.543 S344
S0
G1 X226.670 S361
S0
G1 X226.797 S325
S0
G1 X226.924 S357
S0
G1 X227.051 S346
S0
G1 X227.178 S370
S0
G1 X227.305 S199
S0
G1 X227.432 S545
S0
G1 X227.559 S968
S0
G1 X227.686 S906
S0
G1 X227.813 S873
S0
G1 X227.940 S988
S0
G1 X228.067 S671
S0
G1 X228.194 S221
S0
G1 X228.321 S365
S0
G1 X228.448 S342
S0
G1 X228.575 S364
S0
G1 X228.702 S352
S0
G1 X229.083 S348
S0
G1 X229.210 S352
S0
G1 X229.464 S356
S0
G1 X229.591 S352
S0
G1 X229.718 S232
S0
G1 X229.845 S521
S0
G1 X229.972 S954
S0
G1 X230.099 S811
S0
G1 X230.226 S844
S0
G1 X230.353 S886
S0
G1 X230.480 S314
S0
G1 X230.607 S527
S0
G1 X230.734 S935
S0
G1 X230.861 S867
S0
G1 X230.988 S845
S0
G1 X231.115 S372
S0
G1 X231.242 S295
S0
G1 X231.369 S368
S0
G1 X232.512 S348
S0
G1 X232.639 S344
S0
G1 X232.766 S348
S0
G1 X232.893 S352
S0
G1 X233.020 S305
S0
G1 X233.147 S505
S0
G1 X233.274 S458
S0
G1 X233.401 S317
S0
G1 X233.528 S352
S0
G1 X234.544 S348
S0
G1 X234.671 S358
S0
G1 X234.798 S336
S0
G1 X234.925 S354
S0
G1 X235.052 S350
S0
G1 X235.179 S290
S0
G1 X235.306 S530
S0
G1 X235.433 S585
S0
G1 X235.560 S263
S0
G1 X236.576 S352
S0
G1 X250.038 S348
S0
G0 Y44.323
G0 X250.038 S0
G1 X236.576 S344
S0
G1 X235.560 S348
S0
G1 X235.433 S247
S0
G1 X235.306 S511
S0
G1 X235.179 S507
S0
G1 X235.052 S271
S0
G1 X234.925 S354
S0
G1 X234.798 S362
S0
G1 X234.671 S344
S0
G1 X234.544 S346
S0
G1 X233.528 S344
S0
G1 X233.401 S356
S0
G1 X233.274 S325
S0
G1 X233.147 S419
S0
G1 X233.020 S470
S0
G1 X232.893 S305
S0
G1 X232.766 S340
S0
G1 X232.639 S348
S0
G1 X232.512 S352
S0
G1 X231.496 S344
S0
G1 X231.115 S360
S0
G1 X230.988 S252
S0
G1 X230.861 S654
S0
G1 X230.734 S918
S0
G1 X230.607 S880
S0
G1 X230.480 S766
S0
G1 X230.353 S299
S0
G1 X230.226 S765
S0
G1 X230.099 S898
S0
G1 X229.972 S824
S0
G1 X229.845 S943
S0
G1 X229.718 S620
S0
G1 X229.591 S240
S0
G1 X229.464 S356
S0
G1 X229.337 S340
S0
G1 X229.210 S337
S0
G1 X229.083 S329
S0
G1 X228.956 S344
S0
G1 X228.829 S364
S0
G1 X228.702 S344
S0
G1 X228.575 S325
S0
G1 X228.448 S333
S0
G1 X228.321 S357
S0
G1 X228.194 S353
S0
G1 X228.067 S355
S0
G1 X227.940 S228
S0
G1 X227.813 S741
S0
G1 X227.686 S982
S0
G1 X227.559 S860
S0
G1 X227.432 S968
S0
G1 X227.305 S866
S0
G1 X227.178 S322
S0
G1 X227.051 S297
S0
G1 X226.924 S373
S0
G1 X226.797 S334
S0
G1 X226.670 S348
S0
G1 X226.543 S369
S0
G1 X226.416 S364
S0
G1 X226.289 S352
S0
G1 X226.035 S356
S0
G1 X225.908 S348
S0
G1 X225.781 S329
S0
G1 X225.654 S325
S0
G1 X225.527 S352
S0
G1 X225.400 S356
S0
G1 X225.273 S338
S0
G1 X225.146 S240
S0
G1 X225.019 S522
S0
G1 X224.892 S997
S0
G1 X224.765 S988
S0
G1 X224.638 S998
S0
G1 X224.511 S424
S0
G1 X224.384 S216
S0
G1 X224.257 S381
S0
G1 X224.130 S322
S0
G1 X224.003 S353
S0
G1 X223.876 S345
S0
G1 X223.749 S326
S0
G1 X223.622 S344
S0
G1 X223.495 S332
S0
G1 X223.368 S348
S0
G1 X223.241 S340
S0
G1 X223.114 S344
S0
G1 X222.860 S348
S0
G1 X222.733 S344
S0
G1 X222.606 S340
S0
G1 X222.352 S337
S0
G1 X222.225 S354
S0
G1 X222.098 S330
S0
G1 X221.971 S368
S0
G1 X221.844 S372
S0
G1 X221.717 S348
S0
G1 X221.590 S239
S0
G1 X221.463 S360
S0
G1 X221.336 S866
S0
G1 X221.209 S769
S0
G1 X221.082 S726
S0
G1 X220.955 S702
S0
G1 X220.828 S693
S0
G1 X220.701 S768
S0
G1 X220.574 S761
S0
G1 X220.447 S500
S0
G1 X220.320 S244
S0
G1 X220.193 S270
S0
G1 X220.066 S248
S0
G1 X219.939 S478
S0
G1 X219.812 S641
S0
G1 X219.685 S760
S0
G1 X219.558 S824
S0
G1 X219.431 S779
S0
G1 X219.304 S486
S0
G1 X219.177 S282
S0
G1 X219.050 S289
S0
G1 X218.923 S337
S0
G1 X218.796 S360
S0
G1 X218.542 S340
S0
G1 X218.415 S352
S0
G1 X218.288 S337
S0
G1 X218.161 S345
S0
G1 X218.034 S343
S0
G1 X217.907 S346
S0
G1 X217.780 S342
S0
G1 X217.653 S388
S0
G1 X217.526 S244
S0
G1 X217.399 S435
S0
G1 X217.272 S756
S0
G1 X217.145 S650
S0
G1 X217.018 S722
S0
G1 X216.891 S742
S0
G1 X216.764 S644
S0
G1 X216.637 S623
S0
G1 X216.510 S615
S0
G1 X216.383 S613
S0
G1 X216.256 S353
S0
G1 X216.129 S321
S0
G1 X216.002 S333
S0
G1 X215.875 S344
S0
G1 X215.748 S352
S0
G1 X215.621 S348
S0
G1 X215.367 S344
S0
G1 X215.240 S348
S0
G1 X215.113 S340
S0
G1 X214.986 S344
S0
G1 X214.859 S340
S0
G1 X214.732 S352
S0
G1 X214.605 S340
S0
G1 X214.478 S352
S0
G1 X214.351 S278
S0
G1 X214.224 S462
S0
G1 X214.097 S482
S0
G1 X213.970 S258
S0
G1 X213.843 S356
S0
G1 X213.716 S348
S0
G1 X213.589 S352
S0
G1 X213.462 S348
S0
G1 X213.335 S352
S0
G1 X213.208 S360
S0
G1 X200.000 S344
S0
G0 Y44.196
G0 X200.000 S0
G1 X213.208 S348
S0
G1 X213.335 S344
S0
G1 X213.589 S352
S0
G1 X213.716 S344
S0
G1 X213.843 S352
S0
G1 X213.970 S380
S0
G1 X214.097 S278
S0
G1 X214.224 S411
S0
G1 X214.351 S438
S0
G1 X214.478 S278
S0
G1 X214.732 S348
S0
G1 X214.859 S356
S0
G1 X214.986 S344
S0
G1 X215.113 S348
S0
G1 X215.240 S344
S0
G1 X215.748 S348
S0
G1 X215.875 S352
S0
G1 X216.002 S348
S0
G1 X216.129 S344
S0
G1 X216.256 S337
S0
G1 X216.383 S321
S0
G1 X216.510 S572
S0
G1 X216.637 S690
S0
G1 X216.764 S689
S0
G1 X216.891 S605
S0
G1 X217.018 S675
S0
G1 X217.145 S687
S0
G1 X217.272 S578
S0
G1 X217.399 S715
S0
G1 X217.526 S607
S0
G1 X217.653 S270
S0
G1 X217.780 S345
S0
G1 X217.907 S360
S0
G1 X218.034 S331
S0
G1 X218.161 S358
S0
G1 X218.288 S369
S0
G1 X218.415 S348
S0
G1 X218.542 S368
S0
G1 X218.669 S356
S0
G1 X218.796 S333
S0
G1 X218.923 S344
S0
G1 X219.050 S372
S0
G1 X219.177 S360
S0
G1 X219.304 S321
S0
G1 X219.431 S239
S0
G1 X219.558 S505
S0
G1 X219.685 S760
S0
G1 X219.812 S702
S0
G1 X219.939 S740
S0
G1 X220.066 S801
S0
G1 X220.193 S612
S0
G1 X220.320 S376
S0
G1 X220.447 S248
S0
G1 X220.574 S217
S0
G1 X220.701 S357
S0
G1 X220.828 S683
S0
G1 X220.955 S812
S0
G1 X221.082 S742
S0
G1 X221.209 S725
S0
G1 X221.336 S691
S0
G1 X221.463 S769
S0
G1 X221.590 S780
S0
G1 X221.717 S421
S0
G1 X221.844 S232
S0
G1 X221.971 S334
S0
G1 X222.098 S346
S0
G1 X222.225 S336
S0
G1 X222.352 S346
S0
G1 X222.479 S364
S0
G1 X222.733 S360
S0
G1 X222.860 S356
S0
G1 X222.987 S348
S0
G1 X223.114 S340
S0
G1 X223.241 S348
S0
G1 X223.368 S360
S0
G1 X223.495 S352
S0
G1 X223.622 S336
S0
G1 X223.749 S361
S0
G1 X223.876 S341
S0
G1 X224.003 S365
S0
G1 X224.130 S381
S0
G1 X224.257 S337
S0
G1 X224.384 S389
S0
G1 X224.511 S185
S0
G1 X224.638 S542
S0
G1 X224.765 S996
S0
G1 X224.892 S989
S0
G1 X225.019 S981
S0
G1 X225.146 S656
S0
G1 X225.273 S161
S0
G1 X225.400 S368
S0
G1 X225.527 S337
S0
G1 X225.654 S356
S0
G1 X225.781 S364
S0
G1 X225.908 S356
S0
G1 X226.035 S352
S0
G1 X226.162 S356
S0
G1 X226.289 S348
S0
G1 X226.416 S340
S0
G1 X226.543 S319
S0
G1 X226.670 S345
S0
G1 X226.797 S355
S0
G1 X226.924 S351
S0
G1 X227.051 S374
S0
G1 X227.178 S212
S0
G1 X227.305 S580
S0
G1 X227.432 S986
S0
G1 X227.559 S891
S0
G1 X227.686 S978
S0
G1 X227.813 S850
S0
G1 X227.940 S301
S0
G1 X228.067 S263
S0
G1 X228.194 S358
S0
G1 X228.321 S370
S0
G1 X228.448 S347
S0
G1 X228.575 S348
S0
G1 X228.702 S356
S0
G1 X228.829 S348
S0
G1 X228.956 S344
S0
G1 X229.083 S352
S0
G1 X229.464 S360
S0
G1 X229.591 S333
S0
G1 X229.718 S283
S0
G1 X229.845 S784
S0
G1 X229.972 S883
S0
G1 X230.099 S819
S0
G1 X230.226 S939
S0
G1 X230.353 S583
S0
G1 X230.480 S382
S0
G1 X230.607 S956
S0
G1 X230.734 S828
S0
G1 X230.861 S922
S0
G1 X230.988 S487
S0
G1 X231.115 S235
S0
G1 X231.242 S385
S0
G1 X231.369 S330
S0
G1 X231.496 S361
S0
G1 X232.512 S348
S0
G1 X232.639 S356
S0
G1 X232.766 S348
S0
G1 X232.893 S340
S0
G1 X233.020 S333
S0
G1 X233.147 S446
S0
G1 X233.274 S384
S0
G1 X233.401 S340
S0
G1 X233.528 S356
S0
G1 X234.544 S348
S0
G1 X234.671 S346
S0
G1 X234.798 S344
S0
G1 X235.052 S350
S0
G1 X235.179 S278
S0
G1 X235.306 S550
S0
G1 X235.433 S491
S0
G1 X235.560 S322
S0
G1 X236.576 S352
S0
G1 X250.038 S348
S0
G0 Y44.069
G0 X250.038 S0
G1 X235.560 S348
S0
G1 X235.433 S330
S0
G1 X235.306 S413
S0
G1 X235.179 S566
S0
G1 X235.052 S306
S0
G1 X234.925 S342
S0
G1 X234.798 S343
S0
G1 X234.671 S348
S0
G1 X234.544 S354
S0
G1 X233.528 S348
S0
G1 X233.401 S340
S0
G1 X233.274 S344
S0
G1 X233.147 S348
S0
G1 X233.020 S423
S0
G1 X232.893 S368
S0
G1 X232.766 S344
S0
G1 X232.639 S340
S0
G1 X231.496 S348
S0
G1 X231.369 S353
S0
G1 X231.115 S338
S0
G1 X230.988 S310
S0
G1 X230.861 S358
S0
G1 X230.734 S821
S0
G1 X230.607 S836
S0
G1 X230.480 S914
S0
G1 X230.353 S611
S0
G1 X230.226 S482
S0
G1 X230.099 S937
S0
G1 X229.972 S831
S0
G1 X229.845 S827
S0
G1 X229.718 S929
S0
G1 X229.591 S439
S0
G1 X229.464 S274
S0
G1 X229.337 S348
S0
G1 X229.210 S333
S0
G1 X229.083 S352
S0
G1 X228.956 S356
S0
G1 X228.829 S337
S0
G1 X228.702 S352
S0
G1 X228.575 S376
S0
G1 X228.321 S348
S0
G1 X228.194 S337
S0
G1 X228.067 S356
S0
G1 X227.940 S403
S0
G1 X227.813 S225
S0
G1 X227.686 S377
S0
G1 X227.559 S980
S0
G1 X227.432 S928
S0
G1 X227.305 S937
S0
G1 X227.178 S931
S0
G1 X227.051 S321
S0
G1 X226.924 S295
S0
G1 X226.797 S355
S0
G1 X226.670 S339
S0
G1 X226.543 S364
S0
G1 X226.416 S353
S0
G1 X226.289 S344
S0
G1 X226.162 S360
S0
G1 X226.035 S329
S0
G1 X225.908 S340
S0
G1 X225.781 S368
S0
G1 X225.654 S344
S0
G1 X225.527 S333
S0
G1 X225.400 S344
S0
G1 X225.273 S255
S0
G1 X225.146 S431
S0
G1 X224.765 S998
S0
G1 X224.638 S934
S0
G1 X224.511 S831
S0
G1 X224.384 S361
S0
G1 X224.257 S259
S0
G1 X224.130 S357
S0
G1 X224.003 S352
S0
G1 X223.876 S340
S0
G1 X223.749 S360
S0
G1 X223.622 S351
S0
G1 X223.368 S355
S0
G1 X223.241 S344
S0
G1 X222.987 S352
S0
G1 X222.606 S348
S0
G1 X222.479 S337
S0
G1 X222.352 S325
S0
G1 X222.225 S345
S0
G1 X222.098 S385
S0
G1 X221.971 S322
S0
G1 X221.844 S236
S0
G1 X221.717 S462
S0
G1 X221.590 S777
S0
G1 X221.463 S781
S0
G1 X221.336 S660
S0
G1 X221.209 S738
S0
G1 X221.082 S786
S0
G1 X220.955 S794
S0
G1 X220.828 S482
S0
G1 X220.701 S225
S0
G1 X220.574 S239
S0
G1 X220.447 S357
S0
G1 X220.320 S542
S0
G1 X220.193 S773
S0
G1 X220.066 S800
S0
G1 X219.939 S647
S0
G1 X219.812 S709
S0
G1 X219.685 S756
S0
G1 X219.558 S574
S0
G1 X219.431 S249
S0
G1 X219.304 S345
S0
G1 X219.177 S356
S0
G1 X219.050 S364
S0
G1 X218.923 S340
S0
G1 X218.796 S329
S0
G1 X218.669 S360
S0
G1 X218.542 S368
S0
G1 X218.415 S352
S0
G1 X218.288 S348
S0
G1 X218.161 S341
S0
G1 X218.034 S342
S0
G1 X217.907 S319
S0
G1 X217.780 S385
S0
G1 X217.653 S240
S0
G1 X217.526 S432
S0
G1 X217.399 S662
S0
G1 X217.272 S568
S0
G1 X217.145 S613
S0
G1 X217.018 S615
S0
G1 X216.891 S561
S0
G1 X216.764 S581
S0
G1 X216.637 S718
S0
G1 X216.510 S710
S0
G1 X216.383 S517
S0
G1 X216.256 S307
S0
G1 X216.129 S348
S0
G1 X215.875 S352
S0
G1 X215.240 S348
S0
G1 X214.986 S356
S0
G1 X214.859 S344
S0
G1 X214.732 S352
S0
G1 X214.605 S348
S0
G1 X214.478 S356
S0
G1 X214.351 S309
S0
G1 X214.224 S454
S0
G1 X214.097 S431
S0
G1 X213.970 S321
S0
G1 X213.843 S372
S0
G1 X213.716 S340
S0
G1 X213.589 S344
S0
G1 X213.462 S360
S0
G1 X213.335 S352
S0
G1 X213.208 S337
S0
G1 X200.000 S348
S0
G0 Y43.942
G0 X200.000 S0
G1 X213.208 S344
S0
G1 X213.462 S356
S0
G1 X213.589 S360
S0
G1 X213.716 S352
S0
G1 X213.843 S333
S0
G1 X213.970 S344
S0
G1 X214.097 S333
S0
G1 X214.224 S419
S0
G1 X214.351 S454
S0
G1 X214.478 S329
S0
G1 X214.732 S352
S0
G1 X214.859 S348
S0
G1 X214.986 S344
S0
G1 X215.113 S352
S0
G1 X215.240 S356
S0
G1 X215.621 S348
S0
G1 X215.875 S344
S0
G1 X216.002 S348
S0
G1 X216.129 S352
S0
G1 X216.256 S356
S0
G1 X216.383 S303
S0
G1 X216.510 S464
S0
G1 X216.637 S674
S0
G1 X216.764 S707
S0
G1 X216.891 S617
S0
G1 X217.018 S542
S0
G1 X217.145 S583
S0
G1 X217.272 S672
S0
G1 X217.399 S596
S0
G1 X217.526 S703
S0
G1 X217.653 S619
S0
G1 X217.780 S299
S0
G1 X217.907 S342
S0
G1 X218.034 S368
S0
G1 X218.161 S341
S0
G1 X218.288 S338
S0
G1 X218.415 S352
S0
G1 X218.542 S333
S0
G1 X218.669 S348
S0
G1 X218.796 S364
S0
G1 X218.923 S337
S0
G1 X219.050 S333
S0
G1 X219.177 S348
S0
G1 X219.304 S333
S0
G1 X219.431 S377
S0
G1 X219.558 S295
S0
G1 X219.685 S333
S0
G1 X219.812 S660
S0
G1 X219.939 S761
S0
G1 X220.066 S687
S0
G1 X220.193 S709
S0
G1 X220.320 S705
S0
G1 X220.447 S838
S0
G1 X220.574 S671
S0
G1 X220.701 S403
S0
G1 X220.828 S250
S0
G1 X220.955 S234
S0
G1 X221.082 S354
S0
G1 X221.209 S607
S0
G1 X221.336 S784
S0
G1 X221.463 S797
S0
G1 X221.590 S691
S0
G1 X221.717 S738
S0
G1 X221.844 S753
S0
G1 X221.971 S448
S0
G1 X222.098 S236
S0
G1 X222.225 S326
S0
G1 X222.352 S352
S0
G1 X222.479 S356
S0
G1 X222.606 S364
S0
G1 X222.733 S352
S0
G1 X222.860 S329
S0
G1 X222.987 S337
S0
G1 X223.241 S364
S0
G1 X223.368 S340
S0
G1 X223.495 S339
S0
G1 X223.622 S347
S0
G1 X223.749 S337
S0
G1 X223.876 S340
S0
G1 X224.003 S344
S0
G1 X224.130 S357
S0
G1 X224.257 S342
S0
G1 X224.384 S267
S0
G1 X224.511 S664
S0
G1 X224.638 S765
S0
G1 X224.765 S750
S0
G1 X224.892 S997
S0
G1 X225.019 S999
S0
G1 X225.146 S1000
S0
G1 X225.273 S824
S0
G1 X225.400 S208
S0
G1 X225.527 S364
S0
G1 X225.654 S380
S0
G1 X225.781 S329
S0
G1 X225.908 S344
S0
G1 X226.035 S364
S0
G1 X226.162 S337
S0
G1 X226.289 S356
S0
G1 X226.416 S360
S0
G1 X226.543 S335
S0
G1 X226.797 S343
S0
G1 X226.924 S356
S0
G1 X227.051 S228
S0
G1 X227.178 S625
S0
G1 X227.305 S984
S0
G1 X227.432 S894
S0
G1 X227.559 S987
S0
G1 X227.686 S510
S0
G1 X227.813 S211
S0
G1 X227.940 S349
S0
G1 X228.067 S352
S0
G1 X228.194 S333
S0
G1 X228.321 S353
S0
G1 X228.448 S358
S0
G1 X228.575 S344
S0
G1 X229.210 S348
S0
G1 X229.337 S360
S0
G1 X229.464 S380
S0
G1 X229.591 S211
S0
G1 X229.718 S664
S0
G1 X229.845 S937
S0
G1 X229.972 S809
S0
G1 X230.099 S851
S0
G1 X230.226 S808
S0
G1 X230.353 S523
S0
G1 X230.480 S819
S0
G1 X230.607 S851
S0
G1 X230.734 S925
S0
G1 X230.861 S738
S0
G1 X230.988 S271
S0
G1 X231.115 S377
S0
G1 X231.242 S322
S0
G1 X231.369 S377
S0
G1 X231.496 S338
S0
G1 X232.512 S344
S0
G1 X232.639 S348
S0
G1 X232.893 S344
S0
G1 X233.020 S376
S0
G1 X233.147 S391
S0
G1 X233.274 S333
S0
G1 X233.401 S356
S0
G1 X233.528 S337
S0
G1 X234.544 S348
S0
G1 X234.671 S342
S0
G1 X234.798 S352
S0
G1 X234.925 S366
S0
G1 X235.052 S358
S0
G1 X235.179 S365
S0
G1 X235.306 S574
S0
G1 X235.433 S346
S0
G1 X235.560 S345
S0
G1 X236.576 S348
S0
G1 X250.038 S344
S0
G0 Y43.815
G0 X250.038 S0
G1 X236.576 S372
S0
G1 X235.560 S376
S0
G1 X235.433 S400
S0
G1 X235.306 S331
S0
G1 X235.179 S570
S0
G1 X235.052 S427
S0
G1 X234.925 S346
S0
G1 X234.798 S394
S0
G1 X234.671 S372
S0
G1 X234.544 S354
S0
G1 X233.401 S376
S0
G1 X233.274 S391
S0
G1 X233.147 S356
S0
G1 X232.893 S384
S0
G1 X232.766 S368
S0
G1 X232.639 S380
S0
G1 X232.512 S387
S0
G1 X231.496 S372
S0
G1 X231.369 S366
S0
G1 X231.242 S392
S0
G1 X231.115 S369
S0
G1 X230.988 S411
S0
G1 X230.861 S264
S0
G1 X230.734 S674
S0
G1 X230.607 S925
S0
G1 X230.480 S823
S0
G1 X230.353 S910
S0
G1 X230.226 S683
S0
G1 X230.099 S730
S0
G1 X229.972 S894
S0
G1 X229.845 S848
S0
G1 X229.718 S883
S0
G1 X229.591 S875
S0
G1 X229.464 S338
S0
G1 X229.337 S301
S0
G1 X229.210 S391
S0
G1 X229.083 S395
S0
G1 X228.956 S356
S0
G1 X228.829 S372
S0
G1 X228.702 S380
S0
G1 X228.575 S364
S0
G1 X228.448 S376
S0
G1 X228.321 S383
S0
G1 X228.194 S382
S0
G1 X228.067 S360
S0
G1 X227.940 S386
S0
G1 X227.813 S398
S0
G1 X227.686 S361
S0
G1 X227.559 S233
S0
G1 X227.432 S698
S0
G1 X227.305 S976
S0
G1 X227.178 S906
S0
G1 X227.051 S898
S0
G1 X226.924 S305
S0
G1 X226.797 S333
S0
G1 X226.670 S417
S0
G1 X226.543 S381
S0
G1 X226.416 S361
S0
G1 X226.289 S380
S0
G1 X226.162 S356
S0
G1 X226.035 S372
S0
G1 X225.908 S391
S0
G1 X225.781 S364
S0
G1 X225.654 S399
S0
G1 X225.527 S387
S0
G1 X225.400 S211
S0
G1 X225.273 S506
S0
G1 X225.146 S989
S0
G1 X225.019 S998
S0
G1 X224.892 S936
S0
G1 X224.765 S619
S0
G1 X224.638 S793
S0
G1 X224.511 S777
S0
G1 X224.384 S874
S0
G1 X224.257 S436
S0
G1 X224.130 S279
S0
G1 X224.003 S376
S0
G1 X223.876 S407
S0
G1 X223.749 S350
S0
G1 X223.622 S385
S0
G1 X223.495 S361
S0
G1 X223.368 S354
S0
G1 X223.114 S384
S0
G1 X222.987 S368
S0
G1 X222.860 S356
S0
G1 X222.733 S372
S0
G1 X222.606 S399
S0
G1 X222.479 S387
S0
G1 X222.352 S360
S0
G1 X222.225 S353
S0
G1 X222.098 S213
S0
G1 X221.971 S581
S0
G1 X221.844 S832
S0
G1 X221.717 S753
S0
G1 X221.590 S840
S0
G1 X221.463 S839
S0
G1 X221.336 S650
S0
G1 X221.209 S417
S0
G1 X221.082 S299
S0
G1 X220.955 S259
S0
G1 X220.828 S287
S0
G1 X220.701 S564
S0
G1 X220.574 S815
S0
G1 X220.447 S745
S0
G1 X220.320 S717
S0
G1 X220.193 S737
S0
G1 X220.066 S674
S0
G1 X219.939 S731
S0
G1 X219.812 S852
S0
G1 X219.685 S529
S0
G1 X219.558 S297
S0
G1 X219.431 S373
S0
G1 X219.304 S356
S0
G1 X219.177 S391
S0
G1 X219.050 S407
S0
G1 X218.923 S384
S0
G1 X218.796 S360
S0
G1 X218.542 S372
S0
G1 X218.415 S368
S0
G1 X218.288 S380
S0
G1 X218.161 S404
S0
G1 X218.034 S373
S0
G1 X217.907 S381
S0
G1 X217.780 S260
S0
G1 X217.653 S522
S0
G1 X217.526 S754
S0
G1 X217.399 S734
S0
G1 X217.272 S636
S0
G1 X217.145 S605
S0
G1 X217.018 S564
S0
G1 X216.891 S573
S0
G1 X216.764 S631
S0
G1 X216.637 S630
S0
G1 X216.510 S612
S0
G1 X216.383 S435
S0
G1 X216.256 S341
S0
G1 X216.129 S380
S0
G1 X216.002 S376
S0
G1 X215.748 S372
S0
G1 X215.367 S376
S0
G1 X215.113 S372
S0
G1 X214.859 S376
S0
G1 X214.605 S380
S0
G1 X214.478 S368
S0
G1 X214.351 S360
S0
G1 X214.224 S466
S0
G1 X214.097 S395
S0
G1 X213.970 S364
S0
G1 X213.843 S368
S0
G1 X213.716 S372
S0
G1 X213.589 S384
S0
G1 X213.335 S364
S0
G1 X213.208 S384
S0
G1 X200.000 S372
S0
G0 Y43.688
G0 X200.000 S0
G1 X213.208 S348
S0
G1 X213.335 S352
S0
G1 X213.462 S333
S0
G1 X213.589 S337
S0
G1 X213.716 S360
S0
G1 X213.970 S352
S0
G1 X214.097 S356
S0
G1 X214.224 S337
S0
G1 X214.351 S470
S0
G1 X214.478 S364
S0
G1 X214.605 S344
S0
G1 X214.732 S356
S0
G1 X214.859 S352
S0
G1 X214.986 S356
S0
G1 X215.113 S352
S0
G1 X215.367 S344
S0
G1 X215.494 S348
S0
G1 X215.748 S352
S0
G1 X215.875 S348
S0
G1 X216.002 S344
S0
G1 X216.129 S348
S0
G1 X216.256 S352
S0
G1 X216.383 S326
S0
G1 X216.510 S350
S0
G1 X216.637 S549
S0
G1 X216.764 S592
S0
G1 X216.891 S664
S0
G1 X217.018 S662
S0
G1 X217.145 S603
S0
G1 X217.272 S514
S0
G1 X217.399 S573
S0
G1 X217.526 S652
S0
G1 X217.653 S685
S0
G1 X217.780 S662
S0
G1 X217.907 S367
S0
G1 X218.034 S289
S0
G1 X218.161 S330
S0
G1 X218.288 S365
S0
G1 X218.415 S337
S0
G1 X218.542 S352
S0
G1 X218.669 S364
S0
G1 X218.796 S352
S0
G1 X218.923 S337
S0
G1 X219.050 S348
S0
G1 X219.177 S352
S0
G1 X219.304 S340
S0
G1 X219.431 S350
S0
G1 X219.558 S334
S0
G1 X219.685 S313
S0
G1 X219.812 S307
S0
G1 X219.939 S698
S0
G1 X220.066 S713
S0
G1 X220.193 S696
S0
G1 X220.320 S733
S0
G1 X220.447 S707
S0
G1 X220.574 S660
S0
G1 X220.701 S722
S0
G1 X220.828 S780
S0
G1 X220.955 S624
S0
G1 X221.082 S345
S0
G1 X221.209 S228
S0
G1 X221.336 S312
S0
G1 X221.463 S250
S0
G1 X221.590 S470
S0
G1 X221.717 S714
S0
G1 X221.844 S851
S0
G1 X221.971 S808
S0
G1 X222.098 S815
S0
G1 X222.225 S690
S0
G1 X222.352 S223
S0
G1 X222.479 S282
S0
G1 X222.606 S301
S0
G1 X222.733 S337
S0
G1 X222.860 S364
S0
G1 X222.987 S356
S0
G1 X223.241 S337
S0
G1 X223.368 S356
S0
G1 X223.495 S350
S0
G1 X223.622 S354
S0
G1 X223.749 S369
S0
G1 X223.876 S325
S0
G1 X224.003 S360
S0
G1 X224.130 S303
S0
G1 X224.257 S305
S0
G1 X224.384 S678
S0
G1 X224.511 S821
S0
G1 X224.638 S836
S0
G1 X224.765 S679
S0
G1 X224.892 S83
S0
G1 X225.019 S642
S0
G1 X225.146 S1000
S0
G1 X225.273 S995
S0
G1 X225.400 S874
S0
G1 X225.527 S262
S0
G1 X225.654 S286
S0
G1 X225.781 S352
S0
G1 X225.908 S344
S0
G1 X226.035 S333
S0
G1 X226.162 S348
S0
G1 X226.289 S337
S0
G1 X226.416 S348
S0
G1 X226.543 S350
S0
G1 X226.670 S338
S0
G1 X226.797 S326
S0
G1 X226.924 S200
S0
G1 X227.051 S581
S0
G1 X227.178 S974
S0
G1 X227.305 S953
S0
G1 X227.432 S873
S0
G1 X227.559 S287
S0
G1 X227.686 S325
S0
G1 X227.813 S335
S0
G1 X227.940 S393
S0
G1 X228.067 S347
S0
G1 X228.194 S407
S0
G1 X228.321 S305
S0
G1 X228.448 S361
S0
G1 X228.575 S344
S0
G1 X228.702 S348
S0
G1 X228.829 S360
S0
G1 X228.956 S356
S0
G1 X229.083 S344
S0
G1 X229.210 S348
S0
G1 X229.337 S305
S0
G1 X229.464 S219
S0
G1 X229.591 S631
S0
G1 X229.718 S914
S0
G1 X229.845 S820
S0
G1 X229.972 S839
S0
G1 X230.099 S852
S0
G1 X230.226 S750
S0
G1 X230.353 S788
S0
G1 X230.480 S855
S0
G1 X230.607 S807
S0
G1 X230.734 S893
S0
G1 X230.861 S607
S0
G1 X230.988 S252
S0
G1 X231.115 S353
S0
G1 X231.242 S356
S0
G1 X231.369 S337
S0
G1 X231.496 S357
S0
G1 X232.512 S348
S0
G1 X232.639 S364
S0
G1 X232.766 S360
S0
G1 X232.893 S348
S0
G1 X233.020 S344
S0
G1 X233.147 S340
S0
G1 X233.274 S348
S0
G1 X233.401 S368
S0
G1 X234.544 S352
S0
G1 X234.671 S350
S0
G1 X234.798 S340
S0
G1 X234.925 S350
S0
G1 X235.052 S280
S0
G1 X235.179 S463
S0
G1 X235.306 S534
S0
G1 X235.433 S268
S0
G1 X235.560 S341
S0
G1 X236.576 S352
S0
G1 X250.038 S348
S0
G0 Y43.561
G0 X250.038 S0
G1 X235.560 S19
S0
G1 X235.433 S28
S0
G1 X235.306 S8
S0
G1 X235.179 S319
S0
G1 X235.052 S294
S0
G1 X234.925 S6
S0
G1 X234.798 S41
S0
G1 X234.671 S11
S0
G1 X234.544 S25
S0
G1 X233.528 S23
S0
G1 X233.401 S11
S0
G1 X233.147 S35
S0
G1 X232.893 S19
S0
G1 X232.639 S27
S0
G1 X231.496 S19
S0
G1 X231.369 S28
S0
G1 X231.242 S6
S0
G1 X231.115 S39
S0
G1 X230.988 S13
S0
G1 X230.861 S11
S0
G1 X230.734 S416
S0
G1 X230.607 S793
S0
G1 X230.480 S674
S0
G1 X230.353 S692
S0
G1 X230.226 S718
S0
G1 X230.099 S739
S0
G1 X229.972 S687
S0
G1 X229.845 S710
S0
G1 X229.718 S713
S0
G1 X229.591 S768
S0
G1 X229.464 S815
S0
G1 X229.337 S184
S0
G1 X229.210 S50
S0
G1 X229.083 S7
S0
G1 X228.956 S42
S0
G1 X228.829 S31
S0
G1 X228.702 S11
S0
G1 X228.575 S31
S0
G1 X228.448 S35
S0
G1 X228.321 S7
S0
G1 X228.194 S54
S0
G1 X228.067 S8
S0
G1 X227.940 S16
S0
G1 X227.813 S3
S0
G1 X227.686 S36
S0
G1 X227.559 S25
S0
G0 X227.432 S0
G1 X227.305 S290
S0
G1 X227.178 S945
S0
G1 X227.051 S885
S0
G1 X226.924 S890
S0
G1 X226.797 S55
S0
G1 X226.670 S36
S0
G1 X226.543 S28
S0
G1 X226.416 S20
S0
G1 X226.289 S19
S0
G1 X226.162 S38
S0
G1 X226.035 S42
S0
G1 X225.908 S7
S0
G1 X225.781 S62
S0
G0 X225.654 S0
G1 X225.527 S27
S0
G1 X225.400 S474
S0
G1 X225.273 S991
S0
G1 X225.146 S979
S0
G1 X225.019 S986
S0
G1 X224.892 S134
S0
G1 X224.765 S3
S0
G1 X224.638 S145
S0
G1 X224.511 S711
S0
G1 X224.384 S605
S0
G1 X224.257 S741
S0
G1 X224.130 S279
S0
G1 X224.003 S12
S0
G1 X223.749 S27
S0
G1 X223.622 S15
S0
G1 X223.495 S32
S0
G1 X223.368 S28
S0
G1 X223.241 S38
S0
G1 X223.114 S23
S0
G1 X222.987 S31
S0
G1 X222.860 S42
S0
G1 X222.733 S15
S0
G0 X222.606 S0
G1 X222.479 S50
S0
G1 X222.352 S144
S0
G1 X222.225 S635
S0
G1 X222.098 S765
S0
G1 X221.971 S651
S0
G1 X221.844 S490
S0
G1 X221.717 S223
S0
G1 X221.590 S9
S0
G1 X221.463 S5
S0
G1 X221.336 S23
S0
G1 X221.209 S6
S0
G1 X221.082 S146
S0
G1 X220.955 S527
S0
G1 X220.828 S634
S0
G1 X220.701 S511
S0
G1 X220.574 S506
S0
G1 X220.447 S513
S0
G1 X220.320 S510
S0
G1 X220.193 S497
S0
G1 X220.066 S487
S0
G1 X219.939 S586
S0
G1 X219.812 S306
S0
G1 X219.685 S12
S0
G1 X219.558 S51
S0
G1 X219.431 S23
S0
G1 X219.304 S24
S0
G1 X219.177 S19
S0
G1 X219.050 S23
S0
G1 X218.796 S27
S0
G1 X218.288 S23
S0
G1 X218.161 S11
S0
G1 X218.034 S16
S0
G1 X217.907 S4
S0
G1 X217.780 S415
S0
G1 X217.653 S459
S0
G1 X217.526 S285
S0
G1 X217.399 S298
S0
G1 X217.272 S325
S0
G1 X217.145 S314
S0
G1 X217.018 S505
S0
G1 X216.891 S592
S0
G1 X216.764 S559
S0
G1 X216.637 S435
S0
G1 X216.510 S313
S0
G1 X216.383 S28
S0
G1 X216.256 S15
S0
G1 X216.129 S19
S0
G1 X216.002 S15
S0
G1 X215.875 S11
S0
G1 X215.748 S15
S0
G1 X215.621 S23
S0
G1 X215.494 S27
S0
G1 X215.367 S19
S0
G1 X215.240 S15
S0
G1 X215.113 S23
S0
G1 X214.986 S27
S0
G1 X214.859 S23
S0
G1 X214.732 S11
S0
G1 X214.605 S23
S0
G1 X214.478 S27
S0
G1 X214.351 S78
S0
G1 X214.224 S191
S0
G0 X214.097 S0
G1 X213.970 S35
S0
G1 X213.716 S11
S0
G1 X213.589 S35
S0
G1 X213.462 S31
S0
G1 X213.335 S27
S0
G1 X213.208 S35
S0
G1 X200.000 S19
S0
G0 Y43.434
G0 X200.000 S0
G1 X213.208 S2
S0
G1 X213.335 S12
S0
G1 X213.462 S7
S0
G0 X213.589 S0
G1 X213.716 S3
S0
G1 X213.970 S2
S0
G1 X214.097 S5
S0
G1 X214.224 S9
S0
G1 X214.351 S184
S0
G1 X214.478 S208
S0
G1 X214.605 S5
S0
G1 X214.732 S2
S0
G1 X214.859 S3
S0
G1 X214.986 S2
S0
G1 X215.113 S28
S0
G1 X215.240 S4
S0
G1 X215.367 S15
S0
G1 X215.748 S2
S0
G1 X216.002 S5
S0
G1 X216.256 S1
S0
G1 X216.383 S8
S0
G1 X216.510 S15
S0
G1 X216.637 S209
S0
G1 X216.764 S353
S0
G1 X216.891 S435
S0
G1 X217.018 S477
S0
G1 X217.145 S369
S0
G1 X217.272 S341
S0
G1 X217.399 S275
S0
G1 X217.526 S378
S0
G1 X217.653 S357
S0
G1 X217.780 S227
S0
G1 X217.907 S431
S0
G1 X218.034 S303
S0
G1 X218.161 S19
S0
G1 X218.288 S5
S0
G1 X218.415 S7
S0
G1 X218.669 S5
S0
G1 X218.796 S2
S0
G1 X218.923 S5
S0
G1 X219.050 S16
S0
G1 X219.177 S2
S0
G1 X219.304 S5
S0
G1 X219.558 S9
S0
G1 X219.685 S3
S0
G1 X219.812 S2
S0
G1 X219.939 S145
S0
G1 X220.066 S517
S0
G1 X220.193 S450
S0
G1 X220.320 S445
S0
G1 X220.447 S466
S0
G1 X220.574 S470
S0
G1 X220.701 S494
S0
G1 X220.828 S545
S0
G1 X220.955 S542
S0
G1 X221.082 S667
S0
G1 X221.209 S620
S0
G1 X221.336 S134
S0
G1 X221.463 S5
S0
G1 X221.590 S11
S0
G1 X221.717 S3
S0
G1 X221.844 S1
S0
G1 X221.971 S9
S0
G1 X222.098 S168
S0
G1 X222.225 S413
S0
G1 X222.352 S702
S0
G1 X222.479 S834
S0
G1 X222.606 S376
S0
G1 X222.733 S28
S0
G1 X222.987 S14
S0
G1 X223.114 S2
S0
G1 X223.241 S3
S0
G1 X223.368 S7
S0
G1 X223.495 S9
S0
G1 X223.622 S6
S0
G1 X223.749 S20
S0
G1 X223.876 S2
S0
G1 X224.003 S5
S0
G1 X224.130 S60
S0
G1 X224.257 S596
S0
G1 X224.384 S601
S0
G1 X224.511 S745
S0
G1 X224.638 S385
S0
G1 X224.765 S7
S0
G1 X224.892 S1
S0
G1 X225.019 S32
S0
G1 X225.146 S484
S0
G1 X225.273 S989
S0
G1 X225.400 S985
S0
G1 X225.527 S987
S0
G1 X225.654 S102
S0
G1 X225.781 S2
S0
G1 X225.908 S7
S0
G1 X226.035 S20
S0
G1 X226.162 S7
S0
G1 X226.289 S5
S0
G1 X226.416 S10
S0
G1 X226.543 S5
S0
G1 X226.670 S4
S0
G1 X226.797 S3
S0
G1 X226.924 S430
S0
G1 X227.051 S913
S0
G1 X227.178 S922
S0
G1 X227.305 S518
S0
G1 X227.432 S10
S0
G1 X228.448 S2
S0
G1 X228.575 S21
S0
G1 X228.702 S7
S0
G1 X228.829 S13
S0
G1 X228.956 S7
S0
G1 X229.083 S19
S0
G1 X229.210 S5
S0
G1 X229.337 S65
S0
G1 X229.464 S725
S0
G1 X229.591 S776
S0
G1 X229.718 S721
S0
G1 X229.845 S699
S0
G1 X229.972 S694
S0
G1 X230.099 S690
S0
G1 X230.226 S698
S0
G1 X230.353 S693
S0
G1 X230.480 S663
S0
G1 X230.607 S631
S0
G1 X230.734 S797
S0
G1 X230.861 S447
S0
G1 X231.115 S5
S0
G1 X231.242 S4
S0
G1 X231.369 S12
S0
G1 X231.496 S11
S0
G1 X231.623 S2
S0
G1 X231.750 S9
S0
G1 X231.877 S16
S0
G1 X232.004 S12
S0
G1 X232.131 S9
S0
G1 X232.258 S5
S0
G1 X232.639 S2
S0
G1 X232.766 S1
S0
G1 X232.893 S30
S0
G1 X233.020 S6
S0
G1 X233.147 S4
S0
G1 X233.274 S14
S0
G1 X233.401 S2
S0
G1 X233.528 S7
S0
G1 X233.655 S12
S0
G1 X233.782 S24
S0
G1 X233.909 S7
S0
G1 X234.036 S5
S0
G1 X234.163 S7
S0
G1 X234.290 S8
S0
G1 X234.417 S2
S0
G1 X234.544 S7
S0
G1 X234.671 S15
S0
G1 X234.798 S1
S0
G1 X234.925 S8
S0
G1 X235.052 S12
S0
G1 X235.179 S434
S0
G1 X235.306 S200
S0
G1 X235.433 S23
S0
G1 X235.560 S9
S0
G1 X235.687 S5
S0
G1 X235.814 S7
S0
G1 X235.941 S8
S0
G1 X236.068 S1
S0
G1 X236.195 S2
S0
G1 X236.322 S5
S0
G1 X236.576 S9
S0
G1 X250.038 S2
S0
G0 Y43.307
G0 X250.038 S0
G1 X236.576 S2
S0
G1 X236.449 S1
S0
G1 X236.322 S12
S0
G1 X236.195 S5
S0
G1 X236.068 S2
S0
G1 X235.814 S3
S0
G1 X235.560 S1
S0
G1 X235.433 S44
S0
G1 X235.306 S4
S0
G1 X235.179 S247
S0
G1 X235.052 S784
S0
G1 X234.925 S532
S0
G1 X234.798 S219
S0
G1 X234.671 S19
S0
G1 X234.544 S23
S0
G1 X234.417 S8
S0
G1 X234.290 S19
S0
G1 X234.163 S7
S0
G1 X234.036 S5
S0
G1 X233.909 S12
S0
G1 X233.782 S9
S0
G1 X233.655 S6
S0
G1 X233.528 S19
S0
G1 X233.401 S5
S0
G1 X233.274 S2
S0
G1 X233.147 S3
S0
G1 X233.020 S1
S0
G1 X232.893 S27
S0
G1 X232.766 S9
S0
G1 X232.639 S20
S0
G1 X232.512 S5
S0
G1 X232.258 S9
S0
G1 X232.131 S5
S0
G1 X231.623 S2
S0
G1 X231.496 S9
S0
G1 X231.369 S19
S0
G1 X231.242 S5
S0
G1 X231.115 S4
S0
G1 X230.988 S1
S0
G1 X230.861 S13
S0
G1 X230.734 S529
S0
G1 X230.607 S801
S0
G1 X230.480 S655
S0
G1 X230.353 S667
S0
G1 X230.226 S714
S0
G1 X230.099 S722
S0
G1 X229.972 S705
S0
G1 X229.845 S702
S0
G1 X229.591 S706
S0
G1 X229.464 S721
S0
G1 X229.337 S860
S0
G1 X229.210 S660
S0
G1 X229.083 S23
S0
G1 X228.956 S3
S0
G1 X228.829 S31
S0
G1 X228.575 S3
S0
G1 X228.448 S5
S0
G1 X227.432 S2
S0
G1 X227.305 S4
S0
G1 X227.178 S113
S0
G1 X227.051 S784
S0
G1 X226.924 S926
S0
G1 X226.797 S698
S0
G1 X226.670 S15
S0
G1 X226.543 S11
S0
G1 X226.416 S10
S0
G1 X226.289 S11
S0
G1 X226.162 S21
S0
G1 X226.035 S13
S0
G1 X225.908 S5
S0
G1 X225.781 S32
S0
G1 X225.654 S5
S0
G1 X225.527 S650
S0
G1 X225.400 S973
S0
G1 X225.273 S972
S0
G1 X225.146 S797
S0
G1 X225.019 S74
S0
G1 X224.892 S5
S0
G1 X224.765 S15
S0
G1 X224.638 S9
S0
G1 X224.511 S31
S0
G1 X224.384 S617
S0
G1 X224.257 S675
S0
G1 X224.130 S695
S0
G1 X224.003 S349
S0
G1 X223.876 S31
S0
G1 X223.622 S2
S0
G1 X223.495 S21
S0
G1 X223.368 S12
S0
G1 X222.987 S2
S0
G1 X222.860 S7
S0
G1 X222.733 S286
S0
G1 X222.479 S757
S0
G1 X222.352 S353
S0
G1 X222.225 S75
S0
G1 X222.098 S31
S0
G1 X221.971 S7
S0
G1 X221.844 S3
S0
G1 X221.717 S9
S0
G1 X221.590 S5
S0
G1 X221.463 S2
S0
G1 X221.336 S142
S0
G1 X221.209 S612
S0
G1 X221.082 S619
S0
G1 X220.955 S552
S0
G1 X220.828 S588
S0
G1 X220.701 S572
S0
G1 X220.574 S450
S0
G1 X220.447 S455
S0
G1 X220.320 S483
S0
G1 X220.193 S472
S0
G1 X220.066 S533
S0
G1 X219.939 S481
S0
G1 X219.812 S51
S0
G1 X219.685 S2
S0
G1 X219.558 S16
S0
G1 X219.431 S9
S0
G1 X219.304 S1
S0
G1 X219.177 S28
S0
G1 X219.050 S2
S0
G1 X218.923 S1
S0
G1 X218.796 S2
S0
G1 X218.669 S15
S0
G1 X218.542 S1
S0
G1 X218.415 S2
S0
G1 X218.288 S19
S0
G1 X218.161 S25
S0
G1 X218.034 S299
S0
G1 X217.907 S463
S0
G1 X217.780 S537
S0
G1 X217.653 S412
S0
G1 X217.526 S423
S0
G1 X217.399 S427
S0
G1 X217.272 S353
S0
G1 X217.145 S311
S0
G1 X217.018 S255
S0
G1 X216.891 S251
S0
G1 X216.764 S262
S0
G1 X216.637 S369
S0
G1 X216.510 S150
S0
G1 X216.383 S5
S0
G1 X216.256 S11
S0
G1 X215.875 S1
S0
G1 X215.748 S12
S0
G1 X215.621 S28
S0
G1 X215.494 S27
S0
G1 X215.367 S7
S0
G1 X215.240 S2
S0
G1 X215.113 S7
S0
G1 X214.986 S2
S0
G1 X214.859 S5
S0
G1 X214.605 S9
S0
G1 X214.478 S138
S0
G1 X214.351 S393
S0
G1 X214.224 S264
S0
G1 X214.097 S7
S0
G1 X213.970 S5
S0
G1 X213.716 S9
S0
G1 X213.589 S2
S0
G1 X213.462 S3
S0
G1 X213.335 S6
S0
G1 X200.000 S2
S0
G0 Y43.180
G0 X200.000 S0
G1 X213.208 S2
S0
G1 X213.335 S12
S0
G1 X213.462 S20
S0
G1 X213.589 S6
S0
G1 X213.716 S1
S0
G1 X213.843 S2
S0
G1 X213.970 S7
S0
G1 X214.097 S19
S0
G1 X214.224 S69
S0
G1 X214.351 S310
S0
G1 X214.478 S396
S0
G1 X214.605 S459
S0
G1 X214.732 S458
S0
G1 X214.859 S250
S0
G1 X214.986 S111
S0
G1 X215.113 S98
S0
G1 X215.240 S42
S0
G1 X215.367 S51
S0
G1 X215.494 S66
S0
G1 X215.621 S54
S0
G1 X215.748 S12
S0
G1 X215.875 S2
S0
G1 X216.002 S1
S0
G1 X216.256 S13
S0
G1 X216.383 S14
S0
G1 X216.510 S5
S0
G1 X216.637 S107
S0
G1 X216.764 S424
S0
G1 X216.891 S274
S0
G1 X217.018 S312
S0
G1 X217.145 S447
S0
G1 X217.272 S458
S0
G1 X217.399 S262
S0
G1 X217.526 S110
S0
G1 X217.653 S23
S0
G1 X217.780 S130
S0
G1 X217.907 S344
S0
G1 X218.034 S450
S0
G1 X218.161 S519
S0
G1 X218.288 S291
S0
G1 X218.415 S24
S0
G1 X218.542 S7
S0
G1 X218.669 S27
S0
G1 X218.796 S15
S0
G1 X218.923 S5
S0
G1 X219.050 S2
S0
G1 X219.177 S5
S0
G1 X219.304 S2
S0
G1 X219.431 S1
S0
G1 X219.558 S2
S0
G1 X219.685 S20
S0
G1 X219.812 S2
S0
G1 X219.939 S9
S0
G1 X220.066 S431
S0
G1 X220.193 S576
S0
G1 X220.320 S496
S0
G1 X220.447 S482
S0
G1 X220.574 S492
S0
G1 X220.701 S449
S0
G1 X220.828 S511
S0
G1 X220.955 S557
S0
G1 X221.082 S467
S0
G1 X221.209 S466
S0
G1 X221.336 S580
S0
G1 X221.463 S635
S0
G1 X221.590 S168
S0
G1 X221.717 S7
S0
G1 X221.844 S13
S0
G1 X221.971 S8
S0
G1 X222.098 S2
S0
G1 X222.225 S12
S0
G1 X222.352 S7
S0
G1 X222.479 S12
S0
G1 X222.606 S21
S0
G1 X222.733 S345
S0
G1 X222.860 S603
S0
G1 X222.987 S474
S0
G1 X223.114 S172
S0
G1 X223.368 S5
S0
G1 X223.622 S4
S0
G1 X223.749 S1
S0
G1 X223.876 S7
S0
G1 X224.003 S130
S0
G1 X224.130 S663
S0
G1 X224.257 S660
S0
G1 X224.384 S697
S0
G1 X224.511 S311
S0
G1 X224.638 S7
S0
G1 X224.765 S12
S0
G1 X224.892 S15
S0
G1 X225.019 S6
S0
G1 X225.146 S3
S0
G1 X225.273 S436
S0
G1 X225.400 S993
S0
G1 X225.527 S875
S0
G1 X225.654 S937
S0
G1 X225.781 S234
S0
G0 X225.908 S0
G1 X226.035 S12
S0
G1 X226.162 S20
S0
G1 X226.289 S8
S0
G1 X226.416 S3
S0
G1 X226.543 S7
S0
G1 X226.670 S3
S0
G1 X226.797 S348
S0
G1 X226.924 S866
S0
G1 X227.051 S931
S0
G1 X227.178 S388
S0
G1 X227.305 S3
S0
G1 X227.432 S8
S0
G1 X228.448 S2
S0
G1 X228.575 S5
S0
G1 X228.702 S8
S0
G1 X228.829 S7
S0
G1 X228.956 S2
S0
G1 X229.083 S17
S0
G1 X229.210 S550
S0
G1 X229.337 S902
S0
G1 X229.464 S713
S0
G1 X229.591 S702
S0
G1 X229.718 S718
S0
G1 X229.845 S726
S0
G1 X229.972 S714
S0
G1 X230.099 S705
S0
G1 X230.226 S718
S0
G1 X230.353 S694
S0
G1 X230.480 S639
S0
G1 X230.607 S659
S0
G1 X230.734 S729
S0
G1 X230.861 S638
S0
G1 X230.988 S30
S0
G1 X231.115 S7
S0
G1 X231.242 S1
S0
G1 X231.369 S2
S0
G1 X231.496 S3
S0
G1 X231.623 S16
S0
G1 X231.877 S2
S0
G1 X232.004 S12
S0
G1 X232.131 S5
S0
G1 X232.258 S2
S0
G1 X232.385 S5
S0
G1 X232.512 S2
S0
G1 X232.639 S3
S0
G1 X232.766 S2
S0
G1 X232.893 S149
S0
G1 X233.020 S62
S0
G1 X233.147 S9
S0
G1 X233.274 S5
S0
G1 X233.401 S14
S0
G1 X233.528 S2
S0
G1 X233.655 S19
S0
G1 X233.782 S9
S0
G1 X233.909 S133
S0
G1 X234.036 S318
S0
G1 X234.163 S286
S0
G1 X234.290 S232
S0
G1 X234.417 S302
S0
G1 X234.544 S376
S0
G1 X234.671 S485
S0
G1 X234.798 S628
S0
G1 X234.925 S766
S0
G1 X235.052 S741
S0
G1 X235.179 S691
S0
G1 X235.306 S667
S0
G1 X235.433 S128
S0
G1 X235.560 S6
S0
G1 X235.687 S2
S0
G1 X235.814 S31
S0
G1 X235.941 S17
S0
G1 X236.068 S7
S0
G1 X236.195 S28
S0
G1 X236.449 S7
S0
G1 X236.576 S28
S0
G1 X250.038 S2
S0
G0 Y43.053
G0 X250.038 S0
G1 X236.576 S2
S0
G1 X236.449 S5
S0
G1 X236.322 S3
S0
G1 X236.195 S2
S0
G1 X236.068 S1
S0
G1 X235.941 S11
S0
G1 X235.814 S14
S0
G1 X235.687 S2
S0
G1 X235.560 S5
S0
G1 X235.433 S106
S0
G1 X235.306 S664
S0
G1 X235.179 S706
S0
G1 X235.052 S632
S0
G1 X234.925 S643
S0
G1 X234.798 S589
S0
G1 X234.671 S728
S0
G1 X234.544 S753
S0
G1 X234.417 S808
S0
G1 X234.290 S761
S0
G1 X234.163 S851
S0
G1 X234.036 S760
S0
G1 X233.909 S345
S0
G1 X233.782 S35
S0
G1 X233.655 S5
S0
G1 X233.528 S3
S0
G1 X233.401 S5
S0
G1 X233.274 S18
S0
G1 X233.147 S2
S0
G1 X233.020 S7
S0
G1 X232.893 S20
S0
G1 X232.766 S352
S0
G1 X232.639 S63
S0
G1 X232.512 S10
S0
G1 X232.385 S5
S0
G1 X232.258 S16
S0
G1 X232.004 S2
S0
G1 X231.877 S24
S0
G1 X231.750 S16
S0
G1 X231.623 S2
S0
G1 X231.496 S12
S0
G1 X231.369 S1
S0
G1 X231.242 S20
S0
G1 X231.115 S16
S0
G1 X230.988 S12
S0
G1 X230.861 S164
S0
G1 X230.734 S757
S0
G1 X230.607 S664
S0
G1 X230.480 S670
S0
G1 X230.353 S632
S0
G1 X230.226 S663
S0
G1 X230.099 S681
S0
G1 X229.972 S694
S0
G1 X229.845 S710
S0
G1 X229.718 S729
S0
G1 X229.591 S726
S0
G1 X229.464 S718
S0
G1 X229.337 S699
S0
G1 X229.210 S729
S0
G1 X229.083 S852
S0
G1 X228.956 S494
S0
G1 X228.829 S10
S0
G1 X228.702 S7
S0
G1 X228.575 S39
S0
G1 X228.448 S3
S0
G1 X227.305 S2
S0
G1 X227.178 S24
S0
G1 X227.051 S12
S0
G1 X226.924 S630
S0
G1 X226.797 S921
S0
G1 X226.670 S654
S0
G1 X226.543 S10
S0
G0 X226.416 S0
G1 X226.289 S8
S0
G1 X226.162 S5
S0
G1 X226.035 S15
S0
G1 X225.908 S8
S0
G1 X225.781 S10
S0
G1 X225.654 S713
S0
G1 X225.527 S867
S0
G1 X225.400 S961
S0
G1 X225.273 S906
S0
G1 X225.146 S28
S0
G1 X225.019 S5
S0
G1 X224.892 S13
S0
G1 X224.765 S9
S0
G1 X224.638 S1
S0
G1 X224.511 S23
S0
G1 X224.384 S7
S0
G1 X224.257 S552
S0
G1 X224.130 S668
S0
G1 X224.003 S713
S0
G1 X223.876 S433
S0
G1 X223.749 S25
S0
G1 X223.622 S19
S0
G1 X223.495 S5
S0
G1 X223.241 S10
S0
G1 X223.114 S50
S0
G1 X222.987 S256
S0
G1 X222.860 S208
S0
G1 X222.606 S5
S0
G1 X222.479 S9
S0
G1 X222.352 S5
S0
G1 X222.225 S35
S0
G1 X222.098 S4
S0
G1 X221.971 S31
S0
G1 X221.844 S9
S0
G1 X221.717 S5
S0
G1 X221.590 S97
S0
G1 X221.463 S608
S0
G1 X221.336 S629
S0
G1 X221.209 S483
S0
G1 X221.082 S511
S0
G1 X220.955 S531
S0
G1 X220.828 S492
S0
G1 X220.701 S442
S0
G1 X220.574 S462
S0
G1 X220.447 S487
S0
G1 X220.320 S459
S0
G1 X220.193 S480
S0
G1 X220.066 S548
S0
G1 X219.939 S380
S0
G1 X219.812 S14
S0
G1 X219.685 S9
S0
G1 X219.558 S3
S0
G1 X219.431 S2
S0
G1 X219.304 S20
S0
G1 X219.177 S5
S0
G1 X219.050 S1
S0
G1 X218.923 S18
S0
G1 X218.796 S36
S0
G1 X218.669 S1
S0
G1 X218.542 S7
S0
G1 X218.415 S67
S0
G1 X218.288 S341
S0
G1 X218.161 S699
S0
G1 X218.034 S381
S0
G1 X217.907 S102
S0
G1 X217.780 S29
S0
G1 X217.653 S5
S0
G1 X217.526 S8
S0
G0 X217.399 S0
G1 X217.272 S48
S0
G1 X217.145 S376
S0
G1 X217.018 S549
S0
G1 X216.891 S408
S0
G1 X216.764 S323
S0
G1 X216.637 S331
S0
G1 X216.510 S48
S0
G1 X216.383 S2
S0
G1 X216.256 S14
S0
G1 X215.875 S1
S0
G1 X215.748 S5
S0
G1 X215.621 S48
S0
G1 X215.494 S137
S0
G1 X215.367 S235
S0
G1 X215.240 S294
S0
G1 X215.113 S215
S0
G1 X214.986 S291
S0
G1 X214.859 S271
S0
G1 X214.732 S282
S0
G1 X214.605 S342
S0
G1 X214.478 S227
S0
G1 X214.351 S185
S0
G1 X214.224 S338
S0
G1 X214.097 S290
S0
G1 X213.970 S70
S0
G1 X213.716 S5
S0
G1 X213.589 S20
S0
G1 X213.462 S1
S0
G1 X213.335 S2
S0
G1 X213.208 S12
S0
G1 X200.000 S2
S0
G0 Y42.926
G0 X200.000 S0
G1 X213.335 S2
S0
G1 X213.462 S32
S0
G1 X213.589 S9
S0
G1 X213.716 S5
S0
G1 X213.843 S17
S0
G1 X213.970 S95
S0
G1 X214.097 S186
S0
G1 X214.224 S282
S0
G1 X214.351 S271
S0
G1 X214.478 S235
S0
G1 X214.605 S127
S0
G1 X214.732 S138
S0
G1 X214.859 S346
S0
G1 X214.986 S369
S0
G1 X215.113 S212
S0
G1 X215.240 S173
S0
G1 X215.367 S113
S0
G1 X215.494 S54
S0
G1 X215.875 S2
S0
G1 X216.256 S5
S0
G1 X216.383 S6
S0
G1 X216.637 S2
S0
G1 X216.764 S130
S0
G1 X216.891 S255
S0
G1 X217.018 S267
S0
G1 X217.145 S356
S0
G1 X217.272 S92
S0
G1 X217.399 S4
S0
G1 X217.526 S12
S0
G1 X217.653 S40
S0
G1 X217.780 S5
S0
G1 X217.907 S3
S0
G1 X218.034 S9
S0
G1 X218.161 S63
S0
G1 X218.288 S333
S0
G1 X218.415 S498
S0
G1 X218.542 S303
S0
G1 X218.669 S116
S0
G1 X218.796 S9
S0
G1 X219.177 S2
S0
G1 X219.304 S17
S0
G1 X219.431 S5
S0
G1 X219.558 S2
S0
G1 X219.685 S3
S0
G1 X219.812 S2
S0
G1 X219.939 S12
S0
G1 X220.066 S372
S0
G1 X220.193 S552
S0
G1 X220.320 S456
S0
G1 X220.447 S483
S0
G1 X220.574 S463
S0
G1 X220.701 S493
S0
G1 X220.828 S474
S0
G1 X220.955 S437
S0
G1 X221.082 S488
S0
G1 X221.209 S539
S0
G1 X221.336 S530
S0
G1 X221.463 S484
S0
G1 X221.590 S654
S0
G1 X221.717 S605
S0
G1 X221.844 S68
S0
G1 X221.971 S5
S0
G1 X222.098 S7
S0
G1 X222.225 S16
S0
G1 X222.352 S10
S0
G1 X222.479 S22
S0
G1 X222.606 S1
S0
G1 X222.733 S19
S0
G1 X222.860 S5
S0
G1 X222.987 S10
S0
G1 X223.114 S40
S0
G1 X223.241 S7
S0
G1 X223.368 S15
S0
G1 X223.622 S11
S0
G1 X223.749 S9
S0
G1 X223.876 S195
S0
G1 X224.003 S699
S0
G1 X224.130 S615
S0
G1 X224.257 S711
S0
G1 X224.384 S232
S0
G1 X224.511 S3
S0
G1 X224.638 S5
S0
G1 X224.765 S16
S0
G1 X224.892 S6
S0
G1 X225.019 S23
S0
G1 X225.146 S5
S0
G1 X225.273 S2
S0
G1 X225.400 S463
S0
G1 X225.527 S973
S0
G1 X225.654 S785
S0
G1 X225.781 S942
S0
G1 X225.908 S336
S0
G1 X226.035 S2
S0
G1 X226.162 S9
S0
G1 X226.289 S5
S0
G1 X226.416 S21
S0
G1 X226.543 S11
S0
G1 X226.670 S227
S0
G1 X226.797 S870
S0
G1 X226.924 S924
S0
G1 X227.051 S217
S0
G1 X227.178 S3
S0
G1 X227.305 S12
S0
G1 X227.432 S20
S0
G1 X228.448 S2
S0
G1 X228.575 S29
S0
G0 X228.702 S0
G1 X228.829 S5
S0
G1 X228.956 S463
S0
G1 X229.083 S903
S0
G1 X229.210 S749
S0
G1 X229.337 S730
S0
G1 X229.464 S755
S0
G1 X229.591 S718
S0
G1 X229.718 S707
S0
G1 X229.845 S693
S0
G1 X229.972 S691
S0
G1 X230.099 S683
S0
G1 X230.226 S662
S0
G1 X230.353 S660
S0
G1 X230.480 S679
S0
G1 X230.607 S654
S0
G1 X230.734 S644
S0
G1 X230.861 S777
S0
G1 X230.988 S393
S0
G1 X231.115 S2
S0
G1 X231.242 S21
S0
G1 X231.369 S22
S0
G1 X231.496 S2
S0
G1 X231.623 S12
S0
G1 X231.750 S2
S0
G1 X231.877 S5
S0
G1 X232.131 S2
S0
G1 X232.258 S9
S0
G1 X232.385 S32
S0
G1 X232.512 S12
S0
G1 X232.639 S17
S0
G1 X232.766 S400
S0
G1 X232.893 S395
S0
G1 X233.020 S20
S0
G1 X233.147 S15
S0
G1 X233.274 S2
S0
G1 X233.401 S14
S0
G1 X233.528 S6
S0
G1 X233.655 S21
S0
G1 X233.782 S9
S0
G1 X233.909 S7
S0
G1 X234.036 S6
S0
G1 X234.163 S68
S0
G1 X234.290 S537
S0
G1 X234.417 S799
S0
G1 X234.544 S593
S0
G1 X234.671 S611
S0
G1 X234.798 S584
S0
G1 X234.925 S609
S0
G1 X235.052 S615
S0
G1 X235.179 S630
S0
G1 X235.306 S576
S0
G1 X235.433 S729
S0
G1 X235.560 S718
S0
G1 X235.687 S231
S0
G1 X235.814 S28
S0
G1 X235.941 S2
S0
G1 X236.068 S19
S0
G1 X236.195 S6
S0
G1 X236.322 S7
S0
G1 X236.449 S35
S0
G1 X236.576 S5
S0
G1 X250.038 S2
S0
G0 Y42.799
G0 X250.038 S0
G1 X236.576 S2
S0
G1 X236.449 S11
S0
G1 X236.322 S7
S0
G1 X236.195 S16
S0
G1 X236.068 S38
S0
G1 X235.941 S6
S0
G1 X235.814 S38
S0
G1 X235.687 S355
S0
G1 X235.560 S753
S0
G1 X235.433 S698
S0
G1 X235.306 S599
S0
G1 X235.179 S614
S0
G1 X235.052 S639
S0
G1 X234.925 S599
S0
G1 X234.798 S651
S0
G1 X234.671 S647
S0
G1 X234.544 S619
S0
G1 X234.417 S823
S0
G1 X234.290 S373
S0
G1 X234.163 S46
S0
G1 X234.036 S3
S0
G1 X233.909 S18
S0
G1 X233.782 S19
S0
G1 X233.655 S17
S0
G1 X233.528 S14
S0
G1 X233.401 S5
S0
G1 X233.147 S1
S0
G1 X233.020 S9
S0
G1 X232.893 S5
S0
G1 X232.766 S130
S0
G1 X232.639 S604
S0
G1 X232.512 S35
S0
G1 X232.258 S2
S0
G1 X232.131 S12
S0
G1 X232.004 S9
S0
G1 X231.750 S2
S0
G1 X231.623 S9
S0
G1 X231.496 S12
S0
G1 X231.369 S7
S0
G1 X231.115 S2
S0
G1 X230.988 S20
S0
G1 X230.861 S605
S0
G1 X230.734 S718
S0
G1 X230.607 S675
S0
G1 X230.480 S630
S0
G1 X230.353 S705
S0
G1 X230.226 S664
S0
G1 X230.099 S655
S0
G1 X229.972 S680
S0
G1 X229.718 S678
S0
G1 X229.591 S699
S0
G1 X229.464 S719
S0
G1 X229.337 S704
S0
G1 X229.210 S760
S0
G1 X229.083 S734
S0
G1 X228.956 S754
S0
G1 X228.829 S903
S0
G1 X228.702 S416
S0
G1 X228.575 S20
S0
G1 X228.448 S7
S0
G1 X227.432 S2
S0
G1 X227.305 S7
S0
G1 X227.178 S5
S0
G1 X227.051 S11
S0
G1 X226.924 S2
S0
G1 X226.797 S523
S0
G1 X226.670 S961
S0
G1 X226.543 S485
S0
G1 X226.416 S3
S0
G1 X226.289 S5
S0
G1 X226.162 S8
S0
G1 X226.035 S6
S0
G1 X225.908 S63
S0
G1 X225.781 S780
S0
G1 X225.654 S844
S0
G1 X225.527 S859
S0
G1 X225.400 S760
S0
G1 X225.273 S32
S0
G1 X225.146 S11
S0
G1 X225.019 S8
S0
G1 X224.765 S1
S0
G1 X224.638 S35
S0
G0 X224.511 S0
G1 X224.384 S9
S0
G1 X224.257 S14
S0
G1 X224.130 S513
S0
G1 X224.003 S694
S0
G1 X223.876 S649
S0
G1 X223.749 S526
S0
G1 X223.495 S16
S0
G1 X223.368 S8
S0
G1 X223.241 S19
S0
G1 X223.114 S5
S0
G1 X222.987 S11
S0
G1 X222.860 S5
S0
G1 X222.733 S2
S0
G1 X222.606 S13
S0
G1 X222.479 S1
S0
G1 X222.352 S2
S0
G1 X222.225 S8
S0
G1 X222.098 S7
S0
G1 X221.971 S2
S0
G1 X221.844 S35
S0
G1 X221.717 S485
S0
G1 X221.590 S624
S0
G1 X221.463 S455
S0
G1 X221.336 S534
S0
G1 X221.209 S564
S0
G1 X221.082 S529
S0
G1 X220.955 S463
S0
G1 X220.828 S452
S0
G1 X220.701 S496
S0
G1 X220.574 S488
S0
G1 X220.447 S457
S0
G1 X220.320 S490
S0
G1 X220.193 S401
S0
G1 X220.066 S537
S0
G1 X219.939 S376
S0
G1 X219.812 S9
S0
G1 X219.685 S2
S0
G1 X219.558 S28
S0
G1 X219.431 S21
S0
G1 X219.304 S9
S0
G1 X219.177 S5
S0
G1 X219.050 S14
S0
G1 X218.923 S9
S0
G1 X218.796 S12
S0
G1 X218.669 S155
S0
G1 X218.542 S364
S0
G1 X218.415 S305
S0
G1 X218.288 S113
S0
G1 X218.161 S16
S0
G1 X218.034 S7
S0
G1 X217.907 S3
S0
G1 X217.780 S36
S0
G1 X217.653 S6
S0
G1 X217.526 S12
S0
G1 X217.399 S25
S0
G1 X217.272 S6
S0
G1 X217.145 S20
S0
G1 X217.018 S209
S0
G1 X216.891 S148
S0
G1 X216.764 S200
S0
G1 X216.637 S36
S0
G1 X216.510 S2
S0
G1 X216.383 S5
S0
G1 X216.256 S4
S0
G1 X215.875 S1
S0
G1 X215.748 S9
S0
G1 X215.367 S2
S0
G1 X215.240 S15
S0
G1 X215.113 S134
S0
G1 X214.986 S204
S0
G1 X214.859 S303
S0
G1 X214.732 S242
S0
G1 X214.605 S97
S0
G1 X214.478 S152
S0
G1 X214.351 S217
S0
G1 X214.224 S211
S0
G1 X214.097 S195
S0
G1 X213.970 S232
S0
G1 X213.843 S255
S0
G1 X213.716 S162
S0
G1 X213.589 S16
S0
G1 X213.462 S5
S0
G1 X213.335 S21
S0
G1 X200.000 S2
S0
G0 Y42.672
G0 X200.000 S0
G1 X213.208 S2
S0
G1 X213.335 S9
S0
G1 X213.462 S7
S0
G1 X213.589 S38
S0
G1 X213.716 S219
S0
G1 X213.843 S325
S0
G1 X213.970 S223
S0
G1 X214.097 S178
S0
G1 X214.224 S293
S0
G1 X214.351 S336
S0
G1 X214.478 S174
S0
G1 X214.605 S162
S0
G1 X214.732 S165
S0
G1 X214.859 S168
S0
G1 X214.986 S173
S0
G1 X215.113 S133
S0
G1 X215.240 S9
S0
G1 X215.494 S5
S0
G1 X215.621 S7
S0
G1 X215.748 S9
S0
G1 X215.875 S5
S0
G1 X216.002 S1
S0
G1 X216.129 S5
S0
G1 X216.256 S13
S0
G1 X216.383 S9
S0
G1 X216.510 S7
S0
G1 X216.637 S11
S0
G1 X216.764 S16
S0
G1 X216.891 S164
S0
G1 X217.018 S184
S0
G1 X217.145 S189
S0
G1 X217.272 S40
S0
G1 X217.399 S2
S0
G1 X217.526 S5
S0
G1 X217.780 S2
S0
G1 X217.907 S3
S0
G0 X218.034 S0
G1 X218.161 S24
S0
G1 X218.415 S5
S0
G1 X218.542 S102
S0
G1 X218.669 S274
S0
G1 X218.796 S301
S0
G1 X218.923 S215
S0
G1 X219.050 S126
S0
G1 X219.177 S32
S0
G1 X219.304 S7
S0
G1 X219.431 S1
S0
G1 X219.558 S2
S0
G1 X219.685 S3
S0
G1 X219.812 S2
S0
G1 X219.939 S90
S0
G1 X220.066 S419
S0
G1 X220.193 S501
S0
G1 X220.320 S409
S0
G1 X220.447 S404
S0
G1 X220.574 S412
S0
G1 X220.701 S415
S0
G1 X220.828 S450
S0
G1 X220.955 S490
S0
G1 X221.082 S505
S0
G1 X221.209 S545
S0
G1 X221.336 S593
S0
G1 X221.463 S592
S0
G1 X221.590 S546
S0
G1 X221.717 S471
S0
G1 X221.844 S662
S0
G1 X221.971 S403
S0
G1 X222.098 S12
S0
G1 X222.225 S14
S0
G1 X222.352 S31
S0
G0 X222.479 S0
G1 X222.606 S27
S0
G1 X222.733 S19
S0
G1 X222.987 S2
S0
G1 X223.114 S5
S0
G1 X223.241 S1
S0
G1 X223.368 S5
S0
G1 X223.495 S9
S0
G1 X223.622 S14
S0
G1 X223.749 S259
S0
G1 X223.876 S713
S0
G1 X224.003 S603
S0
G1 X224.130 S711
S0
G1 X224.257 S193
S0
G1 X224.384 S5
S0
G1 X224.511 S9
S0
G1 X224.638 S4
S0
G1 X224.765 S5
S0
G1 X224.892 S20
S0
G1 X225.019 S7
S0
G1 X225.146 S2
S0
G1 X225.400 S3
S0
G1 X225.527 S405
S0
G1 X225.654 S938
S0
G1 X225.781 S815
S0
G1 X225.908 S929
S0
G1 X226.035 S455
S0
G1 X226.162 S33
S0
G1 X226.289 S8
S0
G1 X226.416 S5
S0
G1 X226.543 S103
S0
G1 X226.670 S773
S0
G1 X226.797 S882
S0
G1 X226.924 S102
S0
G1 X227.051 S28
S0
G1 X227.178 S3
S0
G1 X227.305 S31
S0
G1 X227.432 S3
S0
G1 X228.448 S2
S0
G1 X228.575 S34
S0
G1 X228.702 S433
S0
G1 X228.829 S920
S0
G1 X228.956 S746
S0
G1 X229.083 S702
S0
G1 X229.210 S726
S0
G1 X229.337 S700
S0
G1 X229.464 S742
S0
G1 X229.591 S719
S0
G1 X229.718 S715
S0
G1 X229.845 S694
S0
G1 X229.972 S685
S0
G1 X230.099 S687
S0
G1 X230.226 S666
S0
G1 X230.353 S662
S0
G1 X230.480 S690
S0
G1 X230.607 S659
S0
G1 X230.734 S724
S0
G1 X230.861 S702
S0
G1 X230.988 S729
S0
G1 X231.115 S297
S0
G1 X231.242 S11
S0
G1 X231.369 S2
S0
G1 X231.496 S28
S0
G1 X231.623 S12
S0
G1 X231.750 S16
S0
G1 X231.877 S5
S0
G1 X232.004 S12
S0
G1 X232.131 S24
S0
G1 X232.385 S2
S0
G1 X232.512 S40
S0
G1 X232.639 S514
S0
G1 X232.766 S584
S0
G1 X232.893 S23
S0
G1 X233.020 S12
S0
G1 X233.274 S7
S0
G1 X233.401 S2
S0
G1 X233.528 S15
S0
G1 X233.655 S7
S0
G1 X233.782 S2
S0
G1 X233.909 S7
S0
G1 X234.163 S16
S0
G1 X234.290 S3
S0
G1 X234.417 S64
S0
G1 X234.544 S306
S0
G1 X234.671 S769
S0
G1 X234.798 S632
S0
G1 X234.925 S647
S0
G1 X235.052 S619
S0
G1 X235.179 S606
S0
G1 X235.306 S579
S0
G1 X235.433 S663
S0
G1 X235.560 S591
S0
G1 X235.687 S662
S0
G1 X235.814 S808
S0
G1 X235.941 S625
S0
G1 X236.068 S189
S0
G1 X236.195 S13
S0
G1 X236.322 S3
S0
G1 X236.449 S22
S0
G1 X236.576 S6
S0
G1 X250.038 S2
S0
G0 Y42.545
G0 X250.038 S0
G1 X236.576 S2
S0
G1 X236.449 S9
S0
G1 X236.322 S7
S0
G1 X236.195 S31
S0
G1 X236.068 S361
S0
G1 X235.941 S744
S0
G1 X235.814 S773
S0
G1 X235.687 S663
S0
G1 X235.560 S722
S0
G1 X235.433 S772
S0
G1 X235.306 S722
S0
G1 X235.179 S750
S0
G1 X235.052 S650
S0
G1 X234.925 S580
S0
G1 X234.798 S610
S0
G1 X234.671 S792
S0
G1 X234.544 S396
S0
G1 X234.417 S6
S0
G1 X234.290 S5
S0
G1 X234.163 S11
S0
G1 X234.036 S19
S0
G1 X233.909 S2
S0
G1 X233.782 S5
S0
G1 X233.655 S8
S0
G1 X233.528 S11
S0
G1 X233.401 S7
S0
G1 X233.274 S2
S0
G1 X233.147 S20
S0
G1 X232.893 S7
S0
G1 X232.766 S15
S0
G1 X232.639 S251
S0
G1 X232.512 S905
S0
G1 X232.385 S197
S0
G1 X232.258 S36
S0
G1 X231.750 S2
S0
G1 X231.623 S16
S0
G1 X231.496 S12
S0
G1 X231.369 S16
S0
G1 X231.242 S8
S0
G1 X231.115 S5
S0
G1 X230.988 S600
S0
G1 X230.861 S729
S0
G1 X230.734 S691
S0
G1 X230.607 S718
S0
G1 X230.480 S672
S0
G1 X230.353 S682
S0
G1 X230.226 S674
S0
G1 X230.099 S690
S0
G1 X229.972 S703
S0
G1 X229.845 S693
S0
G1 X229.718 S705
S0
G1 X229.591 S713
S0
G1 X229.464 S696
S0
G1 X229.337 S714
S0
G1 X229.210 S760
S0
G1 X229.083 S703
S0
G1 X228.956 S749
S0
G1 X228.829 S703
S0
G1 X228.702 S748
S0
G1 X228.575 S929
S0
G1 X228.448 S489
S0
G1 X227.432 S2
S0
G1 X227.305 S18
S0
G1 X227.178 S3
S0
G1 X227.051 S2
S0
G1 X226.924 S3
S0
G1 X226.797 S5
S0
G1 X226.670 S428
S0
G1 X226.543 S977
S0
G1 X226.416 S322
S0
G1 X226.289 S11
S0
G1 X226.162 S5
S0
G1 X226.035 S107
S0
G1 X225.908 S918
S0
G1 X225.781 S840
S0
G1 X225.654 S922
S0
G1 X225.527 S817
S0
G1 X225.400 S28
S0
G1 X225.273 S3
S0
G1 X225.146 S35
S0
G1 X225.019 S16
S0
G1 X224.892 S7
S0
G1 X224.765 S24
S0
G1 X224.638 S6
S0
G1 X224.511 S22
S0
G1 X224.257 S2
S0
G1 X224.130 S9
S0
G1 X224.003 S463
S0
G1 X223.876 S724
S0
G1 X223.749 S611
S0
G1 X223.622 S593
S0
G1 X223.495 S9
S0
G1 X223.241 S5
S0
G1 X223.114 S4
S0
G1 X222.987 S2
S0
G1 X222.860 S5
S0
G1 X222.733 S11
S0
G0 X222.606 S0
G1 X222.479 S4
S0
G1 X222.352 S9
S0
G1 X222.225 S8
S0
G1 X222.098 S7
S0
G1 X221.971 S282
S0
G1 X221.844 S611
S0
G1 X221.717 S639
S0
G1 X221.590 S682
S0
G1 X221.463 S627
S0
G1 X221.336 S460
S0
G1 X221.209 S373
S0
G1 X221.082 S303
S0
G1 X220.955 S326
S0
G1 X220.828 S432
S0
G1 X220.701 S427
S0
G1 X220.574 S384
S0
G1 X220.447 S380
S0
G1 X220.320 S341
S0
G1 X220.193 S335
S0
G1 X220.066 S352
S0
G1 X219.939 S391
S0
G1 X219.812 S204
S0
G1 X219.685 S24
S0
G1 X219.558 S3
S0
G1 X219.431 S37
S0
G1 X219.304 S111
S0
G1 X219.177 S249
S0
G1 X219.050 S253
S0
G1 X218.923 S297
S0
G1 X218.796 S339
S0
G1 X218.669 S294
S0
G1 X218.542 S118
S0
G1 X218.415 S5
S0
G1 X218.288 S9
S0
G1 X218.161 S6
S0
G1 X218.034 S9
S0
G1 X217.907 S20
S0
G1 X217.780 S4
S0
G1 X217.653 S6
S0
G1 X217.526 S7
S0
G1 X217.399 S2
S0
G1 X217.272 S17
S0
G1 X217.145 S20
S0
G1 X217.018 S224
S0
G1 X216.891 S290
S0
G1 X216.764 S133
S0
G1 X216.510 S5
S0
G1 X216.383 S2
S0
G0 X216.256 S0
G1 X216.129 S1
S0
G1 X216.002 S5
S0
G1 X215.875 S1
S0
G1 X215.621 S2
S0
G1 X215.367 S7
S0
G1 X215.240 S2
S0
G1 X215.113 S14
S0
G1 X214.986 S5
S0
G1 X214.859 S79
S0
G1 X214.732 S224
S0
G1 X214.605 S193
S0
G1 X214.478 S169
S0
G1 X214.351 S172
S0
G1 X214.097 S240
S0
G1 X213.970 S185
S0
G1 X213.843 S225
S0
G1 X213.716 S290
S0
G1 X213.589 S288
S0
G1 X213.462 S251
S0
G1 X213.335 S151
S0
G1 X213.208 S12
S0
G1 X200.000 S2
S0
G0 Y42.418
G0 X200.000 S0
G1 X212.192 S2
S0
G1 X212.319 S11
S0
G1 X212.446 S7
S0
G1 X212.573 S2
S0
G1 X212.954 S1
S0
G1 X213.208 S2
S0
G1 X213.335 S63
S0
G1 X213.462 S70
S0
G1 X213.589 S78
S0
G1 X213.716 S86
S0
G1 X213.843 S94
S0
G1 X213.970 S121
S0
G1 X214.097 S160
S0
G1 X214.224 S193
S0
G1 X214.478 S211
S0
G1 X214.605 S212
S0
G1 X214.732 S204
S0
G1 X214.859 S75
S0
G1 X214.986 S16
S0
G1 X215.113 S2
S0
G1 X215.240 S5
S0
G1 X216.383 S2
S0
G1 X216.510 S1
S0
G1 X216.637 S9
S0
G1 X216.764 S7
S0
G1 X216.891 S44
S0
G1 X217.018 S223
S0
G1 X217.145 S259
S0
G1 X217.272 S19
S0
G1 X218.288 S2
S0
G1 X218.415 S4
S0
G1 X218.542 S20
S0
G1 X218.669 S1
S0
G1 X218.796 S200
S0
G1 X218.923 S358
S0
G1 X219.050 S197
S0
G1 X219.177 S181
S0
G1 X219.304 S400
S0
G1 X219.431 S346
S0
G1 X219.558 S224
S0
G1 X219.685 S197
S0
G1 X219.812 S393
S0
G1 X219.939 S432
S0
G1 X220.066 S326
S0
G1 X220.193 S240
S0
G1 X220.320 S264
S0
G1 X220.447 S199
S0
G1 X220.574 S258
S0
G1 X220.701 S424
S0
G1 X220.828 S365
S0
G1 X220.955 S109
S0
G1 X221.082 S3
S0
G1 X221.209 S5
S0
G1 X221.336 S12
S0
G1 X221.463 S15
S0
G1 X221.590 S67
S0
G1 X221.717 S270
S0
G1 X221.844 S518
S0
G1 X221.971 S757
S0
G1 X222.098 S635
S0
G1 X222.225 S45
S0
G1 X222.352 S19
S0
G1 X222.479 S7
S0
G1 X222.606 S2
S0
G1 X222.860 S3
S0
G1 X222.987 S7
S0
G1 X223.114 S5
S0
G1 X223.241 S1
S0
G1 X223.368 S19
S0
G1 X223.495 S3
S0
G1 X223.622 S348
S0
G1 X223.749 S713
S0
G1 X223.876 S545
S0
G1 X224.003 S655
S0
G1 X224.130 S181
S0
G1 X224.257 S2
S0
G1 X224.384 S20
S0
G1 X224.511 S6
S0
G1 X224.638 S5
S0
G1 X224.765 S20
S0
G1 X224.892 S19
S0
G1 X225.019 S5
S0
G1 X225.146 S2
S0
G1 X225.273 S27
S0
G1 X225.400 S9
S0
G1 X225.527 S2
S0
G1 X225.654 S400
S0
G1 X225.781 S930
S0
G1 X225.908 S747
S0
G1 X226.035 S917
S0
G1 X226.162 S592
S0
G1 X226.289 S3
S0
G1 X226.416 S15
S0
G1 X226.543 S731
S0
G1 X226.670 S881
S0
G1 X226.797 S24
S0
G1 X226.924 S5
S0
G1 X227.051 S31
S0
G1 X227.178 S1
S0
G1 X227.305 S36
S0
G1 X227.686 S2
S0
G1 X227.813 S19
S0
G1 X227.940 S2
S0
G1 X228.067 S23
S0
G1 X228.194 S7
S0
G1 X228.321 S52
S0
G1 X228.448 S619
S0
G1 X228.575 S901
S0
G1 X228.702 S750
S0
G1 X228.829 S699
S0
G1 X228.956 S741
S0
G1 X229.083 S737
S0
G1 X229.210 S711
S0
G1 X229.337 S722
S0
G1 X229.464 S721
S0
G1 X229.591 S765
S0
G1 X229.718 S718
S0
G1 X229.845 S726
S0
G1 X229.972 S721
S0
G1 X230.099 S717
S0
G1 X230.226 S701
S0
G1 X230.353 S662
S0
G1 X230.480 S686
S0
G1 X230.607 S664
S0
G1 X230.734 S663
S0
G1 X230.861 S612
S0
G1 X230.988 S624
S0
G1 X231.115 S761
S0
G1 X231.242 S474
S0
G1 X231.369 S5
S0
G1 X231.496 S19
S0
G1 X231.623 S7
S0
G1 X231.750 S9
S0
G1 X231.877 S11
S0
G1 X232.004 S14
S0
G1 X232.131 S5
S0
G1 X232.258 S13
S0
G1 X232.385 S138
S0
G1 X232.512 S832
S0
G1 X232.639 S651
S0
G1 X232.766 S33
S0
G1 X232.893 S14
S0
G1 X233.020 S11
S0
G1 X233.147 S6
S0
G1 X233.274 S11
S0
G1 X233.401 S1
S0
G1 X233.655 S2
S0
G1 X233.782 S16
S0
G1 X233.909 S2
S0
G1 X234.036 S9
S0
G1 X234.163 S16
S0
G1 X234.544 S2
S0
G1 X234.671 S29
S0
G1 X234.798 S443
S0
G1 X234.925 S811
S0
G1 X235.052 S777
S0
G1 X235.179 S686
S0
G1 X235.306 S513
S0
G1 X235.433 S442
S0
G1 X235.560 S309
S0
G1 X235.687 S224
S0
G1 X235.814 S133
S0
G1 X235.941 S66
S0
G1 X236.068 S101
S0
G1 X236.195 S138
S0
G1 X236.322 S74
S0
G1 X236.449 S11
S0
G1 X236.576 S16
S0
G1 X236.830 S2
S0
G1 X237.084 S1
S0
G1 X237.465 S2
S0
G1 X237.592 S5
S0
G1 X250.038 S2
S0
G0 Y42.291
G0 X250.038 S0
G1 X237.084 S2
S0
G1 X236.957 S5
S0
G1 X236.576 S9
S0
G1 X236.449 S1
S0
G1 X236.195 S2
S0
G1 X236.068 S27
S0
G1 X235.941 S10
S0
G1 X235.687 S7
S0
G1 X235.560 S12
S0
G1 X235.433 S5
S0
G1 X235.306 S14
S0
G1 X235.179 S18
S0
G1 X235.052 S75
S0
G1 X234.925 S336
S0
G1 X234.798 S619
S0
G1 X234.671 S212
S0
G1 X234.544 S2
S0
G1 X234.290 S9
S0
G1 X234.163 S2
S0
G1 X234.036 S16
S0
G1 X233.909 S9
S0
G1 X233.782 S2
S0
G1 X233.655 S20
S0
G1 X233.528 S16
S0
G1 X233.401 S12
S0
G1 X233.274 S2
S0
G1 X233.147 S6
S0
G1 X233.020 S7
S0
G1 X232.893 S9
S0
G1 X232.766 S15
S0
G1 X232.639 S19
S0
G1 X232.512 S362
S0
G1 X232.385 S880
S0
G1 X232.258 S663
S0
G1 X232.131 S178
S0
G1 X232.004 S14
S0
G1 X231.877 S1
S0
G1 X231.750 S10
S0
G1 X231.623 S52
S0
G1 X231.496 S14
S0
G1 X231.369 S25
S0
G1 X231.242 S427
S0
G1 X231.115 S729
S0
G1 X230.988 S673
S0
G1 X230.861 S601
S0
G1 X230.734 S612
S0
G1 X230.607 S631
S0
G1 X230.480 S714
S0
G1 X230.353 S697
S0
G1 X230.226 S678
S0
G1 X230.099 S705
S0
G1 X229.845 S714
S0
G1 X229.718 S706
S0
G1 X229.591 S698
S0
G1 X229.464 S742
S0
G1 X229.337 S746
S0
G1 X229.210 S729
S0
G1 X229.083 S704
S0
G1 X228.956 S708
S0
G1 X228.829 S731
S0
G1 X228.702 S708
S0
G1 X228.575 S701
S0
G1 X228.448 S746
S0
G1 X228.321 S902
S0
G1 X228.194 S733
S0
G1 X228.067 S164
S0
G1 X227.940 S7
S0
G1 X227.813 S27
S0
G1 X227.686 S5
S0
G1 X227.559 S12
S0
G1 X227.432 S2
S0
G1 X227.305 S19
S0
G1 X227.051 S2
S0
G1 X226.924 S5
S0
G1 X226.797 S7
S0
G1 X226.670 S10
S0
G1 X226.543 S380
S0
G1 X226.416 S949
S0
G1 X226.289 S74
S0
G1 X226.162 S83
S0
G1 X226.035 S882
S0
G1 X225.908 S762
S0
G1 X225.781 S797
S0
G1 X225.654 S815
S0
G1 X225.527 S86
S0
G1 X225.400 S11
S0
G1 X225.273 S1
S0
G1 X225.146 S9
S0
G1 X225.019 S16
S0
G1 X224.892 S11
S0
G1 X224.638 S2
S0
G1 X224.384 S9
S0
G1 X224.257 S1
S0
G1 X224.130 S32
S0
G1 X224.003 S7
S0
G1 X223.876 S493
S0
G1 X223.749 S750
S0
G1 X223.622 S545
S0
G1 X223.495 S639
S0
G1 X223.368 S150
S0
G1 X223.241 S1
S0
G1 X223.114 S5
S0
G1 X222.860 S2
S0
G1 X222.733 S19
S0
G0 X222.606 S0
G1 X222.479 S25
S0
G1 X222.352 S21
S0
G1 X222.225 S23
S0
G1 X222.098 S506
S0
G1 X221.971 S726
S0
G1 X221.844 S334
S0
G1 X221.717 S25
S0
G1 X221.590 S16
S0
G1 X221.463 S3
S0
G1 X221.336 S6
S0
G1 X221.209 S2
S0
G1 X221.082 S12
S0
G1 X220.955 S3
S0
G1 X220.828 S5
S0
G1 X220.701 S138
S0
G1 X220.574 S303
S0
G1 X220.447 S382
S0
G1 X220.320 S434
S0
G1 X220.193 S271
S0
G1 X220.066 S244
S0
G1 X219.939 S232
S0
G1 X219.812 S307
S0
G1 X219.685 S467
S0
G1 X219.558 S350
S0
G1 X219.431 S193
S0
G1 X219.304 S201
S0
G1 X219.177 S254
S0
G1 X219.050 S219
S0
G1 X218.923 S251
S0
G1 X218.796 S161
S0
G1 X218.669 S27
S0
G1 X218.542 S9
S0
G1 X218.415 S4
S0
G1 X218.288 S11
S0
G1 X217.272 S2
S0
G1 X217.145 S25
S0
G1 X217.018 S207
S0
G1 X216.891 S141
S0
G1 X216.764 S9
S0
G1 X216.510 S2
S0
G1 X216.383 S1
S0
G1 X215.240 S2
S0
G1 X215.113 S15
S0
G1 X214.859 S2
S0
G1 X214.732 S54
S0
G1 X214.605 S168
S0
G1 X214.478 S146
S0
G1 X214.351 S95
S0
G1 X214.224 S78
S0
G1 X214.097 S20
S0
G1 X213.970 S15
S0
G1 X213.843 S7
S0
G1 X213.716 S5
S0
G1 X213.335 S2
S0
G1 X213.208 S1
S0
G1 X213.081 S9
S0
G1 X212.954 S5
S0
G1 X212.827 S2
S0
G1 X212.700 S5
S0
G1 X212.573 S9
S0
G1 X212.446 S4
S0
G1 X200.000 S2
S0
G0 Y42.164
G0 X200.000 S0
G1 X212.446 S2
S0
G1 X212.700 S1
S0
G1 X213.335 S2
S0
G1 X213.589 S1
S0
G1 X213.716 S5
S0
G1 X213.843 S12
S0
G1 X213.970 S7
S0
G1 X214.097 S2
S0
G1 X214.478 S5
S0
G1 X214.605 S39
S0
G1 X214.732 S101
S0
G1 X214.859 S67
S0
G1 X215.113 S2
S0
G1 X215.240 S9
S0
G1 X216.256 S2
S0
G1 X216.383 S1
S0
G1 X216.510 S5
S0
G1 X216.764 S2
S0
G1 X216.891 S5
S0
G1 X217.018 S56
S0
G1 X217.145 S160
S0
G1 X217.272 S58
S0
G1 X218.542 S2
S0
G1 X218.669 S13
S0
G1 X218.796 S5
S0
G1 X218.923 S44
S0
G1 X219.050 S298
S0
G1 X219.177 S346
S0
G1 X219.304 S244
S0
G1 X219.431 S193
S0
G1 X219.558 S134
S0
G1 X219.685 S248
S0
G1 X219.812 S377
S0
G1 X219.939 S275
S0
G1 X220.193 S217
S0
G1 X220.320 S279
S0
G1 X220.447 S532
S0
G1 X220.574 S437
S0
G1 X220.701 S201
S0
G1 X220.828 S14
S0
G1 X220.955 S5
S0
G0 X221.082 S0
G1 X221.209 S5
S0
G1 X221.336 S2
S0
G1 X221.463 S12
S0
G1 X221.590 S31
S0
G1 X221.717 S2
S0
G1 X221.844 S7
S0
G1 X221.971 S9
S0
G1 X222.098 S271
S0
G1 X222.225 S761
S0
G1 X222.352 S287
S0
G1 X222.479 S2
S0
G1 X222.606 S19
S0
G1 X222.733 S5
S0
G1 X222.860 S24
S0
G1 X223.114 S2
S0
G1 X223.241 S12
S0
G1 X223.368 S1
S0
G1 X223.495 S290
S0
G1 X223.622 S749
S0
G1 X223.749 S539
S0
G1 X223.876 S565
S0
G1 X224.003 S632
S0
G1 X224.130 S106
S0
G1 X224.257 S2
S0
G1 X224.384 S7
S0
G1 X224.511 S12
S0
G1 X224.638 S7
S0
G1 X225.019 S2
S0
G1 X225.273 S5
S0
G1 X225.400 S15
S0
G1 X225.527 S16
S0
G1 X225.654 S332
S0
G1 X225.781 S932
S0
G1 X225.908 S789
S0
G1 X226.035 S894
S0
G1 X226.162 S620
S0
G1 X226.289 S14
S0
G1 X226.416 S513
S0
G1 X226.543 S948
S0
G1 X226.670 S14
S0
G1 X226.797 S2
S0
G1 X226.924 S4
S0
G1 X227.051 S2
S0
G1 X227.178 S43
S0
G1 X227.305 S19
S0
G1 X227.432 S6
S0
G1 X227.559 S12
S0
G1 X227.686 S1
S0
G1 X227.813 S34
S0
G1 X227.940 S2
S0
G1 X228.067 S302
S0
G1 X228.194 S828
S0
G1 X228.321 S851
S0
G1 X228.575 S737
S0
G1 X228.702 S741
S0
G1 X228.956 S752
S0
G1 X229.083 S733
S0
G1 X229.464 S725
S0
G1 X229.591 S675
S0
G1 X229.718 S647
S0
G1 X229.845 S663
S0
G1 X229.972 S682
S0
G1 X230.226 S695
S0
G1 X230.353 S678
S0
G1 X230.480 S690
S0
G1 X230.607 S662
S0
G1 X230.734 S642
S0
G1 X230.861 S651
S0
G1 X230.988 S643
S0
G1 X231.115 S619
S0
G1 X231.242 S701
S0
G1 X231.369 S717
S0
G1 X231.496 S526
S0
G1 X231.623 S208
S0
G1 X231.750 S11
S0
G1 X231.877 S36
S0
G1 X232.004 S137
S0
G1 X232.131 S430
S0
G1 X232.258 S748
S0
G1 X232.385 S741
S0
G1 X232.512 S647
S0
G1 X232.639 S79
S0
G1 X232.766 S7
S0
G1 X232.893 S28
S0
G1 X233.020 S5
S0
G1 X233.147 S9
S0
G1 X233.274 S5
S0
G1 X233.401 S2
S0
G1 X233.528 S10
S0
G1 X233.909 S2
S0
G1 X234.163 S16
S0
G1 X234.290 S2
S0
G1 X234.544 S9
S0
G1 X234.671 S28
S0
G1 X234.798 S224
S0
G1 X234.925 S341
S0
G1 X235.052 S11
S0
G1 X235.179 S5
S0
G1 X235.306 S40
S0
G1 X235.433 S13
S0
G1 X235.560 S11
S0
G1 X235.687 S5
S0
G1 X235.814 S7
S0
G1 X235.941 S19
S0
G1 X236.068 S9
S0
G1 X236.195 S5
S0
G1 X236.449 S1
S0
G1 X236.576 S11
S0
G1 X236.703 S16
S0
G1 X236.830 S12
S0
G1 X237.084 S9
S0
G1 X237.211 S5
S0
G1 X250.038 S2
S0
G0 Y42.037
G0 X250.038 S0
G1 X236.449 S2
S0
G1 X236.322 S4
S0
G1 X236.195 S2
S0
G1 X235.941 S1
S0
G1 X235.814 S13
S0
G1 X235.687 S20
S0
G1 X235.560 S9
S0
G1 X235.433 S33
S0
G1 X235.306 S6
S0
G1 X235.179 S7
S0
G1 X235.052 S24
S0
G1 X234.925 S3
S0
G1 X234.798 S233
S0
G1 X234.671 S463
S0
G1 X234.544 S7
S0
G1 X234.036 S2
S0
G1 X233.909 S16
S0
G1 X233.782 S12
S0
G1 X233.655 S5
S0
G1 X233.528 S2
S0
G1 X233.274 S5
S0
G1 X233.147 S2
S0
G1 X233.020 S17
S0
G1 X232.893 S7
S0
G1 X232.766 S19
S0
G1 X232.639 S9
S0
G1 X232.512 S2
S0
G1 X232.385 S439
S0
G1 X232.258 S725
S0
G1 X232.131 S652
S0
G1 X232.004 S774
S0
G1 X231.877 S738
S0
G1 X231.750 S596
S0
G1 X231.623 S655
S0
G1 X231.496 S702
S0
G1 X231.369 S748
S0
G1 X231.242 S640
S0
G1 X231.115 S587
S0
G1 X230.988 S668
S0
G1 X230.861 S657
S0
G1 X230.734 S611
S0
G1 X230.607 S646
S0
G1 X230.480 S632
S0
G1 X230.353 S624
S0
G1 X230.226 S627
S0
G1 X230.099 S654
S0
G1 X229.972 S679
S0
G1 X229.845 S682
S0
G1 X229.718 S675
S0
G1 X229.591 S673
S0
G1 X229.464 S695
S0
G1 X229.337 S698
S0
G1 X229.210 S702
S0
G1 X229.083 S719
S0
G1 X228.956 S729
S0
G1 X228.829 S725
S0
G1 X228.702 S727
S0
G1 X228.575 S741
S0
G1 X228.448 S753
S0
G1 X228.321 S706
S0
G1 X228.194 S713
S0
G1 X228.067 S828
S0
G1 X227.940 S902
S0
G1 X227.813 S472
S0
G1 X227.686 S14
S0
G1 X227.432 S5
S0
G1 X227.305 S19
S0
G1 X227.051 S2
S0
G1 X226.924 S35
S0
G1 X226.797 S1
S0
G1 X226.670 S9
S0
G1 X226.543 S7
S0
G1 X226.416 S466
S0
G1 X226.289 S871
S0
G1 X226.162 S12
S0
G1 X226.035 S10
S0
G1 X225.908 S786
S0
G1 X225.781 S859
S0
G1 X225.654 S887
S0
G1 X225.527 S871
S0
G1 X225.400 S99
S0
G1 X225.146 S9
S0
G1 X225.019 S2
S0
G1 X224.892 S1
S0
G1 X224.765 S2
S0
G1 X224.638 S10
S0
G1 X224.511 S7
S0
G1 X224.384 S17
S0
G1 X224.257 S11
S0
G1 X224.130 S2
S0
G1 X224.003 S514
S0
G1 X223.876 S723
S0
G1 X223.749 S549
S0
G1 X223.622 S710
S0
G1 X223.495 S392
S0
G1 X223.368 S40
S0
G1 X223.241 S9
S0
G1 X222.860 S5
S0
G1 X222.733 S2
S0
G1 X222.606 S17
S0
G1 X222.479 S7
S0
G1 X222.352 S56
S0
G1 X222.225 S718
S0
G1 X222.098 S372
S0
G1 X221.971 S9
S0
G1 X221.844 S5
S0
G1 X221.717 S25
S0
G1 X221.590 S1
S0
G1 X221.463 S7
S0
G1 X221.336 S5
S0
G1 X221.209 S16
S0
G1 X221.082 S1
S0
G0 X220.955 S0
G1 X220.828 S16
S0
G1 X220.701 S9
S0
G1 X220.574 S185
S0
G1 X220.447 S390
S0
G1 X220.320 S366
S0
G1 X220.193 S291
S0
G1 X220.066 S205
S0
G1 X219.939 S315
S0
G1 X219.812 S358
S0
G1 X219.685 S240
S0
G1 X219.558 S150
S0
G1 X219.431 S228
S0
G1 X219.304 S232
S0
G1 X219.177 S231
S0
G1 X219.050 S295
S0
G1 X218.923 S151
S0
G1 X218.796 S9
S0
G1 X218.669 S2
S0
G1 X218.542 S1
S0
G1 X218.415 S13
S0
G1 X217.272 S2
S0
G1 X217.145 S110
S0
G1 X217.018 S138
S0
G1 X216.891 S15
S0
G1 X216.764 S2
S0
G1 X216.637 S11
S0
G1 X216.510 S2
S0
G1 X216.383 S5
S0
G1 X216.256 S1
S0
G1 X214.859 S2
S0
G1 X214.732 S107
S0
G1 X214.605 S56
S0
G1 X214.478 S2
S0
G1 X214.351 S5
S0
G1 X214.224 S7
S0
G1 X214.097 S5
S0
G1 X213.716 S9
S0
G1 X213.589 S5
S0
G1 X213.208 S4
S0
G1 X213.081 S7
S0
G1 X212.954 S11
S0
G1 X212.827 S12
S0
G1 X212.700 S9
S0
G1 X212.573 S5
S0
G1 X212.446 S1
S0
G1 X212.319 S9
S0
G1 X212.192 S13
S0
G1 X200.000 S2
S0
G0 Y41.910
G0 X200.000 S0
G1 X212.192 S2
S0
G1 X212.446 S1
S0
G1 X213.081 S2
S0
G1 X213.208 S5
S0
G1 X213.843 S1
S0
G1 X213.970 S2
S0
G1 X214.097 S11
S0
G1 X214.224 S23
S0
G1 X214.351 S7
S0
G1 X214.478 S17
S0
G1 X214.605 S5
S0
G1 X214.732 S47
S0
G1 X214.859 S138
S0
G1 X214.986 S40
S0
G1 X215.113 S2
S0
G1 X215.240 S7
S0
G1 X216.383 S2
S0
G1 X216.510 S5
S0
G1 X216.637 S2
S0
G1 X216.764 S16
S0
G1 X216.891 S5
S0
G1 X217.018 S7
S0
G1 X217.145 S98
S0
G1 X217.272 S109
S0
G1 X218.415 S2
S0
G1 X218.542 S16
S0
G1 X218.669 S1
S0
G1 X218.796 S16
S0
G1 X218.923 S5
S0
G1 X219.050 S7
S0
G1 X219.177 S133
S0
G1 X219.304 S213
S0
G1 X219.431 S354
S0
G1 X219.558 S515
S0
G1 X219.685 S283
S0
G1 X219.812 S158
S0
G1 X219.939 S260
S0
G1 X220.066 S264
S0
G1 X220.193 S209
S0
G1 X220.320 S311
S0
G1 X220.447 S315
S0
G1 X220.574 S447
S0
G1 X220.701 S279
S0
G1 X220.828 S9
S0
G1 X220.955 S5
S0
G1 X221.082 S6
S0
G1 X221.209 S9
S0
G1 X221.336 S1
S0
G1 X221.463 S12
S0
G1 X221.590 S2
S0
G1 X221.717 S16
S0
G1 X221.844 S1
S0
G1 X221.971 S27
S0
G1 X222.098 S7
S0
G1 X222.225 S14
S0
G1 X222.352 S662
S0
G1 X222.479 S440
S0
G1 X222.606 S12
S0
G1 X222.733 S14
S0
G1 X222.860 S1
S0
G1 X222.987 S7
S0
G1 X223.241 S2
S0
G1 X223.368 S3
S0
G1 X223.495 S2
S0
G1 X223.622 S44
S0
G1 X223.749 S506
S0
G1 X223.876 S754
S0
G1 X224.003 S522
S0
G1 X224.130 S730
S0
G1 X224.257 S279
S0
G1 X224.384 S5
S0
G1 X224.511 S17
S0
G1 X224.638 S7
S0
G1 X224.765 S2
S0
G1 X224.892 S1
S0
G1 X225.019 S2
S0
G1 X225.146 S9
S0
G1 X225.273 S2
S0
G1 X225.400 S12
S0
G1 X225.527 S553
S0
G1 X225.654 S954
S0
G1 X225.781 S851
S0
G1 X225.908 S872
S0
G1 X226.035 S228
S0
G1 X226.162 S3
S0
G1 X226.289 S335
S0
G1 X226.416 S831
S0
G1 X226.543 S12
S0
G1 X226.670 S2
S0
G1 X226.797 S1
S0
G1 X226.924 S5
S0
G1 X227.051 S2
S0
G1 X227.178 S24
S0
G1 X227.305 S52
S0
G1 X227.432 S5
S0
G1 X227.559 S20
S0
G1 X227.686 S79
S0
G1 X227.813 S675
S0
G1 X227.940 S918
S0
G1 X228.067 S746
S0
G1 X228.194 S736
S0
G1 X228.321 S747
S0
G1 X228.448 S769
S0
G1 X228.575 S753
S0
G1 X228.702 S738
S0
G1 X228.829 S705
S0
G1 X228.956 S682
S0
G1 X229.083 S690
S0
G1 X229.210 S701
S0
G1 X229.337 S703
S0
G1 X229.464 S702
S0
G1 X229.591 S717
S0
G1 X229.718 S705
S0
G1 X229.845 S694
S0
G1 X229.972 S699
S0
G1 X230.099 S690
S0
G1 X230.226 S658
S0
G1 X230.353 S631
S0
G1 X230.480 S612
S0
G1 X230.734 S639
S0
G1 X230.861 S623
S0
G1 X230.988 S646
S0
G1 X231.115 S655
S0
G1 X231.242 S620
S0
G1 X231.369 S615
S0
G1 X231.496 S617
S0
G1 X231.623 S616
S0
G1 X231.750 S650
S0
G1 X231.877 S656
S0
G1 X232.004 S642
S0
G1 X232.131 S603
S0
G1 X232.258 S601
S0
G1 X232.385 S717
S0
G1 X232.512 S144
S0
G1 X232.639 S7
S0
G1 X232.766 S20
S0
G1 X233.020 S6
S0
G1 X233.147 S20
S0
G1 X233.274 S2
S0
G1 X233.401 S9
S0
G1 X233.528 S2
S0
G1 X233.909 S12
S0
G1 X234.163 S2
S0
G1 X234.290 S9
S0
G1 X234.417 S16
S0
G1 X234.544 S12
S0
G1 X234.671 S141
S0
G1 X234.798 S447
S0
G1 X234.925 S15
S0
G1 X235.179 S2
S0
G1 X235.306 S7
S0
G1 X235.433 S29
S0
G1 X235.560 S12
S0
G1 X235.941 S2
S0
G1 X236.322 S1
S0
G1 X236.576 S5
S0
G1 X236.703 S17
S0
G1 X236.830 S15
S0
G1 X236.957 S12
S0
G1 X237.211 S7
S0
G1 X237.592 S5
S0
G1 X250.038 S2
S0
G0 Y41.783
G0 X250.038 S0
G1 X237.592 S2
S0
G1 X237.465 S9
S0
G1 X237.338 S5
S0
G1 X237.084 S2
S0
G1 X236.957 S7
S0
G1 X236.830 S12
S0
G1 X236.703 S9
S0
G1 X236.449 S7
S0
G1 X236.195 S2
S0
G1 X236.068 S9
S0
G1 X235.941 S24
S0
G1 X235.814 S9
S0
G1 X235.687 S1
S0
G1 X235.560 S7
S0
G1 X235.433 S15
S0
G1 X235.306 S16
S0
G1 X235.179 S21
S0
G1 X235.052 S5
S0
G1 X234.925 S45
S0
G1 X234.798 S5
S0
G1 X234.671 S335
S0
G1 X234.544 S373
S0
G1 X234.290 S2
S0
G1 X234.163 S24
S0
G1 X234.036 S12
S0
G1 X233.528 S2
S0
G1 X233.401 S13
S0
G1 X233.147 S2
S0
G1 X233.020 S15
S0
G1 X232.893 S2
S0
G1 X232.639 S5
S0
G1 X232.512 S6
S0
G1 X232.385 S5
S0
G1 X232.258 S495
S0
G1 X232.131 S783
S0
G1 X232.004 S587
S0
G1 X231.877 S622
S0
G1 X231.750 S631
S0
G1 X231.623 S650
S0
G1 X231.496 S604
S0
G1 X231.369 S634
S0
G1 X231.242 S648
S0
G1 X231.115 S622
S0
G1 X230.988 S615
S0
G1 X230.861 S658
S0
G1 X230.734 S657
S0
G1 X230.607 S627
S0
G1 X230.480 S624
S0
G1 X230.353 S634
S0
G1 X230.226 S655
S0
G1 X230.099 S659
S0
G1 X229.972 S679
S0
G1 X229.845 S678
S0
G1 X229.718 S671
S0
G1 X229.591 S691
S0
G1 X229.464 S693
S0
G1 X229.337 S713
S0
G1 X229.210 S764
S0
G1 X229.083 S756
S0
G1 X228.956 S693
S0
G1 X228.829 S670
S0
G1 X228.702 S709
S0
G1 X228.575 S748
S0
G1 X228.448 S756
S0
G1 X228.321 S717
S0
G1 X228.194 S742
S0
G1 X228.067 S750
S0
G1 X227.940 S753
S0
G1 X227.813 S705
S0
G1 X227.686 S895
S0
G1 X227.559 S890
S0
G1 X227.432 S282
S0
G1 X227.305 S32
S0
G1 X227.178 S9
S0
G1 X227.051 S5
S0
G1 X226.924 S2
S0
G1 X226.797 S7
S0
G1 X226.670 S9
S0
G1 X226.543 S13
S0
G1 X226.416 S5
S0
G1 X226.289 S510
S0
G1 X226.162 S660
S0
G1 X226.035 S46
S0
G0 X225.908 S0
G1 X225.781 S428
S0
G1 X225.654 S947
S0
G1 X225.527 S886
S0
G1 X225.400 S866
S0
G1 X225.273 S197
S0
G1 X225.146 S7
S0
G1 X225.019 S2
S0
G1 X224.892 S23
S0
G1 X224.511 S5
S0
G1 X224.384 S7
S0
G1 X224.257 S16
S0
G1 X224.130 S632
S0
G1 X224.003 S654
S0
G1 X223.876 S658
S0
G1 X223.749 S647
S0
G1 X223.622 S106
S0
G1 X223.495 S3
S0
G1 X223.368 S37
S0
G1 X223.241 S5
S0
G1 X223.114 S3
S0
G1 X222.987 S2
S0
G1 X222.860 S13
S0
G1 X222.733 S9
S0
G1 X222.606 S7
S0
G1 X222.479 S90
S0
G1 X222.352 S749
S0
G1 X222.225 S287
S0
G1 X222.098 S12
S0
G1 X221.971 S16
S0
G1 X221.844 S2
S0
G1 X221.717 S19
S0
G1 X221.209 S2
S0
G1 X221.082 S7
S0
G1 X220.955 S2
S0
G1 X220.828 S3
S0
G1 X220.701 S9
S0
G1 X220.574 S294
S0
G1 X220.447 S436
S0
G1 X220.320 S341
S0
G1 X220.193 S232
S0
G1 X220.066 S205
S0
G1 X219.939 S193
S0
G1 X219.812 S185
S0
G1 X219.685 S177
S0
G1 X219.558 S295
S0
G1 X219.431 S503
S0
G1 X219.304 S381
S0
G1 X219.177 S199
S0
G1 X219.050 S44
S0
G1 X218.923 S5
S0
G1 X218.796 S1
S0
G1 X218.669 S2
S0
G1 X218.542 S24
S0
G1 X218.415 S2
S0
G1 X218.288 S5
S0
G1 X217.272 S2
S0
G1 X217.145 S67
S0
G1 X217.018 S40
S0
G1 X216.891 S5
S0
G1 X216.764 S9
S0
G1 X216.637 S5
S0
G1 X216.383 S2
S0
G1 X216.256 S7
S0
G1 X214.986 S2
S0
G1 X214.859 S103
S0
G1 X214.732 S150
S0
G1 X214.605 S28
S0
G1 X214.478 S2
S0
G1 X214.351 S7
S0
G1 X214.224 S5
S0
G1 X214.097 S2
S0
G1 X213.843 S1
S0
G1 X213.716 S9
S0
G1 X213.589 S12
S0
G1 X213.462 S11
S0
G1 X213.208 S5
S0
G1 X213.081 S7
S0
G1 X212.954 S5
S0
G1 X212.700 S2
S0
G1 X212.446 S16
S0
G1 X212.319 S2
S0
G1 X212.192 S1
S0
G1 X200.000 S2
S0
G0 Y41.656
G0 X200.000 S0
G1 X212.192 S2
S0
G1 X212.319 S20
S0
G1 X212.446 S5
S0
G1 X212.827 S2
S0
G1 X213.081 S10
S0
G1 X213.208 S5
S0
G1 X213.335 S17
S0
G1 X213.589 S7
S0
G1 X213.716 S5
S0
G1 X213.843 S2
S0
G1 X213.970 S12
S0
G1 X214.097 S5
S0
G1 X214.224 S1
S0
G1 X214.605 S2
S0
G1 X214.732 S5
S0
G1 X214.859 S94
S0
G1 X214.986 S129
S0
G1 X215.113 S16
S0
G1 X216.256 S2
S0
G1 X216.383 S5
S0
G1 X216.764 S2
S0
G1 X216.891 S5
S0
G1 X217.145 S1
S0
G1 X217.272 S32
S0
G1 X218.288 S2
S0
G1 X218.415 S5
S0
G1 X218.542 S2
S0
G1 X218.669 S16
S0
G1 X218.923 S5
S0
G1 X219.050 S2
S0
G0 X219.177 S0
G1 X219.304 S100
S0
G1 X219.558 S217
S0
G1 X219.685 S169
S0
G1 X219.812 S248
S0
G1 X219.939 S260
S0
G1 X220.066 S287
S0
G1 X220.193 S283
S0
G1 X220.320 S185
S0
G1 X220.447 S251
S0
G1 X220.574 S285
S0
G1 X220.701 S231
S0
G1 X220.828 S20
S0
G1 X220.955 S3
S0
G1 X221.082 S2
S0
G1 X221.336 S7
S0
G1 X221.463 S2
S0
G1 X221.590 S16
S0
G1 X221.717 S2
S0
G1 X221.844 S5
S0
G1 X221.971 S19
S0
G1 X222.098 S27
S0
G1 X222.225 S5
S0
G1 X222.352 S20
S0
G1 X222.479 S591
S0
G1 X222.606 S310
S0
G1 X222.860 S9
S0
G1 X222.987 S8
S0
G1 X223.114 S6
S0
G1 X223.241 S7
S0
G1 X223.368 S9
S0
G1 X223.495 S4
S0
G1 X223.622 S13
S0
G1 X223.749 S5
S0
G1 X223.876 S246
S0
G1 X224.003 S722
S0
G1 X224.130 S581
S0
G1 X224.257 S721
S0
G1 X224.384 S368
S0
G1 X224.511 S10
S0
G1 X224.638 S12
S0
G1 X224.765 S11
S0
G1 X224.892 S9
S0
G1 X225.019 S19
S0
G1 X225.146 S7
S0
G1 X225.273 S105
S0
G1 X225.400 S544
S0
G1 X225.527 S756
S0
G1 X225.654 S895
S0
G1 X225.781 S620
S0
G1 X225.908 S7
S0
G1 X226.035 S17
S0
G1 X226.162 S51
S0
G1 X226.289 S664
S0
G1 X226.416 S123
S0
G1 X226.543 S2
S0
G1 X226.670 S24
S0
G1 X226.924 S2
S0
G1 X227.051 S31
S0
G1 X227.178 S2
S0
G1 X227.305 S91
S0
G1 X227.432 S557
S0
G1 X227.559 S942
S0
G1 X227.686 S848
S0
G1 X227.813 S705
S0
G1 X227.940 S730
S0
G1 X228.067 S736
S0
G1 X228.194 S709
S0
G1 X228.321 S758
S0
G1 X228.448 S738
S0
G1 X228.575 S718
S0
G1 X228.702 S714
S0
G1 X228.829 S715
S0
G1 X228.956 S698
S0
G1 X229.083 S706
S0
G1 X229.210 S770
S0
G1 X229.337 S777
S0
G1 X229.464 S714
S0
G1 X229.591 S709
S0
G1 X229.718 S703
S0
G1 X229.845 S655
S0
G1 X229.972 S649
S0
G1 X230.099 S643
S0
G1 X230.226 S624
S0
G1 X230.353 S631
S0
G1 X230.480 S611
S0
G1 X230.607 S628
S0
G1 X230.734 S620
S0
G1 X230.861 S603
S0
G1 X230.988 S627
S0
G1 X231.115 S643
S0
G1 X231.242 S605
S0
G1 X231.369 S591
S0
G1 X231.496 S635
S0
G1 X231.623 S650
S0
G1 X231.750 S631
S0
G1 X231.877 S605
S0
G1 X232.004 S607
S0
G1 X232.131 S656
S0
G1 X232.258 S698
S0
G1 X232.385 S113
S0
G1 X232.512 S11
S0
G1 X232.639 S1
S0
G1 X233.020 S2
S0
G1 X233.147 S9
S0
G1 X233.274 S7
S0
G1 X233.401 S5
S0
G1 X233.528 S9
S0
G1 X233.655 S2
S0
G1 X233.782 S9
S0
G1 X233.909 S12
S0
G1 X234.036 S2
S0
G1 X234.163 S20
S0
G1 X234.417 S2
S0
G1 X234.544 S36
S0
G1 X234.671 S456
S0
G1 X234.798 S149
S0
G1 X234.925 S6
S0
G1 X235.052 S24
S0
G1 X235.179 S7
S0
G1 X235.306 S19
S0
G1 X235.433 S2
S0
G1 X235.560 S12
S0
G1 X235.687 S1
S0
G1 X235.941 S2
S0
G1 X236.068 S7
S0
G1 X236.195 S5
S0
G1 X236.322 S7
S0
G1 X236.449 S12
S0
G1 X236.576 S17
S0
G1 X236.830 S12
S0
G1 X236.957 S17
S0
G1 X237.084 S12
S0
G1 X237.338 S2
S0
G1 X237.465 S5
S0
G1 X237.592 S15
S0
G1 X250.038 S2
S0
G0 Y41.529
G0 X250.038 S0
G1 X237.465 S2
S0
G1 X237.338 S1
S0
G1 X237.211 S12
S0
G1 X237.084 S58
S0
G1 X236.957 S118
S0
G1 X236.830 S160
S0
G1 X236.703 S177
S0
G1 X236.576 S181
S0
G1 X236.449 S142
S0
G1 X236.322 S133
S0
G1 X236.195 S82
S0
G1 X236.068 S31
S0
G1 X235.941 S15
S0
G1 X235.687 S2
S0
G1 X235.560 S12
S0
G1 X235.433 S22
S0
G1 X235.306 S41
S0
G1 X235.179 S9
S0
G1 X235.052 S7
S0
G1 X234.925 S16
S0
G1 X234.798 S7
S0
G1 X234.671 S3
S0
G1 X234.544 S431
S0
G1 X234.417 S232
S0
G1 X234.290 S40
S0
G1 X234.163 S2
S0
G1 X234.036 S16
S0
G1 X233.909 S2
S0
G1 X233.655 S12
S0
G1 X233.528 S2
S0
G1 X233.401 S7
S0
G1 X233.274 S6
S0
G1 X233.147 S36
S0
G1 X233.020 S2
S0
G1 X232.893 S5
S0
G1 X232.639 S15
S0
G1 X232.512 S11
S0
G1 X232.385 S5
S0
G1 X232.258 S15
S0
G1 X232.131 S427
S0
G1 X232.004 S793
S0
G1 X231.877 S576
S0
G1 X231.750 S608
S0
G1 X231.623 S627
S0
G1 X231.496 S674
S0
G1 X231.369 S643
S0
G1 X231.242 S638
S0
G1 X231.115 S619
S0
G1 X230.988 S621
S0
G1 X230.861 S596
S0
G1 X230.734 S607
S0
G1 X230.607 S658
S0
G1 X230.480 S628
S0
G1 X230.353 S627
S0
G1 X230.226 S647
S0
G1 X230.099 S619
S0
G1 X229.972 S632
S0
G1 X229.845 S640
S0
G1 X229.718 S654
S0
G1 X229.591 S715
S0
G1 X229.464 S728
S0
G1 X229.337 S687
S0
G1 X229.210 S714
S0
G1 X229.083 S699
S0
G1 X228.956 S711
S0
G1 X228.829 S778
S0
G1 X228.702 S782
S0
G1 X228.575 S737
S0
G1 X228.448 S730
S0
G1 X228.321 S710
S0
G1 X228.194 S698
S0
G1 X228.067 S691
S0
G1 X227.940 S686
S0
G1 X227.813 S718
S0
G1 X227.686 S765
S0
G1 X227.559 S758
S0
G1 X227.432 S741
S0
G1 X227.305 S927
S0
G1 X227.178 S785
S0
G1 X227.051 S216
S0
G1 X226.924 S6
S0
G1 X226.797 S5
S0
G1 X226.670 S9
S0
G1 X226.416 S2
S0
G1 X226.289 S3
S0
G1 X226.162 S501
S0
G1 X226.035 S412
S0
G1 X225.908 S2
S0
G1 X225.781 S9
S0
G1 X225.654 S95
S0
G1 X225.527 S805
S0
G1 X225.400 S688
S0
G1 X225.273 S828
S0
G1 X225.146 S250
S0
G1 X225.019 S7
S0
G1 X224.892 S15
S0
G1 X224.765 S8
S0
G1 X224.638 S7
S0
G1 X224.511 S4
S0
G1 X224.384 S79
S0
G1 X224.257 S667
S0
G1 X224.130 S561
S0
G1 X224.003 S710
S0
G1 X223.876 S413
S0
G1 X223.749 S9
S0
G1 X223.622 S14
S0
G1 X223.495 S9
S0
G1 X223.368 S2
S0
G1 X223.241 S9
S0
G0 X223.114 S0
G1 X222.987 S11
S0
G1 X222.860 S7
S0
G1 X222.733 S5
S0
G1 X222.606 S55
S0
G1 X222.479 S522
S0
G1 X222.352 S239
S0
G1 X222.225 S2
S0
G1 X222.098 S35
S0
G1 X221.971 S5
S0
G1 X221.844 S14
S0
G1 X221.717 S7
S0
G1 X221.590 S11
S0
G1 X221.463 S2
S0
G1 X221.336 S6
S0
G1 X221.209 S4
S0
G1 X221.082 S15
S0
G1 X220.955 S3
S0
G1 X220.828 S15
S0
G1 X220.701 S78
S0
G1 X220.574 S286
S0
G1 X220.447 S270
S0
G1 X220.320 S235
S0
G1 X220.193 S318
S0
G1 X220.066 S428
S0
G1 X219.939 S350
S0
G1 X219.812 S193
S0
G1 X219.685 S201
S0
G1 X219.558 S162
S0
G1 X219.431 S173
S0
G1 X219.304 S197
S0
G1 X219.177 S35
S0
G1 X219.050 S16
S0
G1 X218.923 S3
S0
G1 X218.796 S24
S0
G1 X218.669 S27
S0
G1 X218.542 S1
S0
G1 X218.288 S5
S0
G1 X217.272 S2
S0
G1 X217.145 S27
S0
G1 X217.018 S2
S0
G1 X216.891 S9
S0
G1 X216.764 S1
S0
G1 X216.637 S2
S0
G1 X216.510 S15
S0
G1 X215.240 S2
S0
G1 X215.113 S16
S0
G1 X214.986 S20
S0
G1 X214.859 S98
S0
G1 X214.732 S15
S0
G1 X214.605 S5
S0
G1 X214.478 S28
S0
G1 X214.351 S17
S0
G1 X214.224 S12
S0
G1 X214.097 S2
S0
G1 X213.970 S5
S0
G1 X213.843 S2
S0
G1 X213.716 S5
S0
G1 X213.589 S7
S0
G1 X213.462 S66
S0
G1 X213.335 S184
S0
G1 X213.208 S279
S0
G1 X213.081 S295
S0
G1 X212.954 S298
S0
G1 X212.827 S258
S0
G1 X212.700 S156
S0
G1 X212.573 S39
S0
G1 X212.319 S2
S0
G1 X212.192 S24
S0
G1 X200.000 S2
S0
G0 Y41.402
G0 X200.000 S0
G1 X210.160 S2
S0
G1 X210.287 S28
S0
G1 X210.541 S2
S0
G1 X210.668 S12
S0
G1 X210.795 S2
S0
G1 X210.922 S9
S0
G1 X211.176 S2
S0
G1 X211.430 S7
S0
G1 X211.557 S16
S0
G1 X211.684 S14
S0
G1 X211.811 S5
S0
G1 X211.938 S7
S0
G1 X212.065 S23
S0
G1 X212.192 S5
S0
G1 X212.319 S9
S0
G1 X212.446 S94
S0
G1 X212.573 S309
S0
G1 X212.700 S534
S0
G1 X212.827 S679
S0
G1 X212.954 S729
S0
G1 X213.081 S718
S0
G1 X213.208 S687
S0
G1 X213.335 S640
S0
G1 X213.462 S701
S0
G1 X213.589 S651
S0
G1 X213.716 S514
S0
G1 X213.843 S216
S0
G1 X213.970 S47
S0
G1 X214.097 S98
S0
G1 X214.224 S37
S0
G1 X214.351 S9
S0
G1 X214.478 S19
S0
G1 X214.605 S1
S0
G1 X214.859 S2
S0
G1 X214.986 S62
S0
G1 X215.113 S87
S0
G1 X215.240 S7
S0
G1 X215.367 S5
S0
G1 X215.494 S23
S0
G1 X215.621 S2
S0
G1 X215.748 S9
S0
G1 X215.875 S12
S0
G1 X216.002 S5
S0
G1 X216.129 S9
S0
G1 X216.764 S2
S0
G1 X217.272 S1
S0
G1 X219.304 S2
S0
G1 X219.431 S146
S0
G1 X219.558 S279
S0
G1 X219.685 S176
S0
G1 X219.812 S169
S0
G1 X219.939 S181
S0
G1 X220.066 S160
S0
G1 X220.193 S193
S0
G1 X220.320 S253
S0
G1 X220.447 S329
S0
G1 X220.574 S370
S0
G1 X220.701 S408
S0
G1 X220.828 S184
S0
G1 X220.955 S12
S0
G1 X221.082 S3
S0
G1 X221.209 S1
S0
G1 X221.336 S15
S0
G1 X222.352 S1
S0
G1 X222.479 S146
S0
G1 X222.606 S639
S0
G1 X222.733 S275
S0
G1 X222.860 S9
S0
G1 X222.987 S6
S0
G1 X223.114 S24
S0
G1 X223.241 S11
S0
G1 X223.368 S7
S0
G1 X223.495 S12
S0
G1 X223.622 S2
S0
G1 X223.749 S32
S0
G1 X223.876 S6
S0
G1 X224.003 S14
S0
G1 X224.130 S502
S0
G1 X224.257 S691
S0
G1 X224.384 S687
S0
G1 X224.511 S464
S0
G1 X224.638 S16
S0
G1 X224.765 S20
S0
G1 X224.892 S13
S0
G1 X225.019 S5
S0
G1 X225.146 S7
S0
G1 X225.273 S651
S0
G1 X225.400 S756
S0
G1 X225.527 S862
S0
G1 X225.654 S247
S0
G1 X225.781 S24
S0
G1 X225.908 S14
S0
G1 X226.035 S7
S0
G1 X226.162 S490
S0
G1 X226.289 S252
S0
G1 X226.416 S5
S0
G1 X226.543 S2
S0
G1 X226.670 S1
S0
G1 X226.797 S7
S0
G1 X226.924 S36
S0
G1 X227.051 S415
S0
G1 X227.178 S906
S0
G1 X227.305 S848
S0
G1 X227.432 S729
S0
G1 X227.559 S744
S0
G1 X227.686 S748
S0
G1 X227.813 S701
S0
G1 X227.940 S663
S0
G1 X228.067 S737
S0
G1 X228.194 S855
S0
G1 X228.321 S882
S0
G1 X228.448 S839
S0
G1 X228.575 S789
S0
G1 X228.702 S780
S0
G1 X228.829 S701
S0
G1 X228.956 S628
S0
G1 X229.083 S650
S0
G1 X229.210 S725
S0
G1 X229.337 S780
S0
G1 X229.464 S811
S0
G1 X229.591 S642
S0
G1 X229.718 S560
S0
G1 X229.845 S661
S0
G1 X229.972 S642
S0
G1 X230.099 S611
S0
G1 X230.226 S615
S0
G1 X230.353 S635
S0
G1 X230.480 S651
S0
G1 X230.607 S650
S0
G1 X230.734 S666
S0
G1 X230.861 S603
S0
G1 X230.988 S617
S0
G1 X231.115 S656
S0
G1 X231.242 S623
S0
G1 X231.369 S619
S0
G1 X231.496 S635
S0
G1 X231.623 S628
S0
G1 X231.750 S662
S0
G1 X231.877 S580
S0
G1 X232.004 S671
S0
G1 X232.131 S677
S0
G1 X232.258 S62
S0
G1 X232.385 S7
S0
G1 X232.512 S5
S0
G1 X232.639 S29
S0
G1 X232.766 S12
S0
G1 X232.893 S36
S0
G1 X233.020 S10
S0
G1 X233.147 S3
S0
G1 X233.274 S19
S0
G1 X233.401 S14
S0
G1 X233.528 S13
S0
G1 X233.655 S5
S0
G1 X233.782 S19
S0
G1 X233.909 S5
S0
G1 X234.036 S6
S0
G1 X234.163 S21
S0
G1 X234.290 S11
S0
G1 X234.417 S35
S0
G1 X234.544 S395
S0
G1 X234.671 S224
S0
G1 X234.798 S8
S0
G1 X234.925 S3
S0
G1 X235.052 S17
S0
G1 X235.179 S19
S0
G1 X235.306 S3
S0
G1 X235.687 S5
S0
G1 X235.814 S36
S0
G1 X235.941 S103
S0
G1 X236.068 S126
S0
G1 X236.195 S157
S0
G1 X236.322 S197
S0
G1 X236.449 S200
S0
G1 X236.576 S213
S0
G1 X236.703 S188
S0
G1 X236.830 S208
S0
G1 X236.957 S220
S0
G1 X237.084 S235
S0
G1 X237.211 S251
S0
G1 X237.338 S224
S0
G1 X237.465 S118
S0
G1 X237.592 S27
S0
G1 X237.719 S7
S0
G1 X237.846 S5
S0
G1 X237.973 S2
S0
G1 X238.100 S7
S0
G1 X238.227 S20
S0
G1 X238.481 S2
S0
G1 X238.608 S20
S0
G1 X238.735 S2
S0
G1 X238.862 S7
S0
G1 X239.116 S2
S0
G1 X239.243 S16
S0
G1 X239.370 S5
S0
G1 X239.624 S1
S0
G1 X250.038 S2
S0
G0 Y41.275
G0 X250.038 S0
G1 X239.624 S2
S0
G1 X239.497 S32
S0
G1 X239.243 S1
S0
G1 X239.116 S9
S0
G1 X238.862 S2
S0
G1 X238.735 S7
S0
G1 X238.608 S2
S0
G1 X238.481 S5
S0
G1 X238.354 S28
S0
G1 X238.227 S5
S0
G1 X238.100 S1
S0
G1 X237.973 S2
S0
G1 X237.846 S5
S0
G1 X237.719 S32
S0
G1 X237.592 S156
S0
G1 X237.338 S228
S0
G1 X237.211 S196
S0
G1 X237.084 S133
S0
G1 X236.957 S94
S0
G1 X236.830 S110
S0
G1 X236.703 S141
S0
G1 X236.576 S161
S0
G1 X236.449 S170
S0
G1 X236.322 S150
S0
G1 X236.195 S165
S0
G1 X236.068 S195
S0
G1 X235.941 S225
S0
G1 X235.814 S223
S0
G1 X235.687 S194
S0
G1 X235.560 S174
S0
G1 X235.433 S165
S0
G1 X235.306 S169
S0
G1 X235.179 S80
S0
G1 X235.052 S7
S0
G1 X234.925 S5
S0
G1 X234.798 S42
S0
G1 X234.671 S3
S0
G1 X234.544 S5
S0
G1 X234.417 S471
S0
G1 X234.290 S183
S0
G1 X234.163 S11
S0
G1 X234.036 S5
S0
G1 X233.909 S19
S0
G1 X233.655 S2
S0
G1 X233.528 S5
S0
G1 X233.401 S19
S0
G1 X233.274 S16
S0
G1 X233.147 S5
S0
G1 X233.020 S38
S0
G1 X232.893 S6
S0
G1 X232.766 S12
S0
G1 X232.639 S2
S0
G1 X232.512 S14
S0
G1 X232.385 S9
S0
G1 X232.258 S6
S0
G1 X232.131 S16
S0
G1 X232.004 S322
S0
G1 X231.877 S803
S0
G1 X231.750 S600
S0
G1 X231.623 S646
S0
G1 X231.496 S620
S0
G1 X231.369 S623
S0
G1 X231.242 S611
S0
G1 X231.115 S607
S0
G1 X230.988 S636
S0
G1 X230.861 S621
S0
G1 X230.734 S612
S0
G1 X230.607 S650
S0
G1 X230.480 S630
S0
G1 X230.353 S635
S0
G1 X230.226 S622
S0
G1 X230.099 S634
S0
G1 X229.972 S641
S0
G1 X229.845 S620
S0
G1 X229.718 S610
S0
G1 X229.591 S642
S0
G1 X229.464 S717
S0
G1 X229.337 S596
S0
G1 X229.210 S267
S0
G1 X229.083 S37
S0
G1 X228.956 S27
S0
G1 X228.829 S54
S0
G1 X228.702 S55
S0
G1 X228.575 S114
S0
G1 X228.448 S207
S0
G1 X228.321 S294
S0
G1 X228.194 S428
S0
G1 X228.067 S596
S0
G1 X227.940 S742
S0
G1 X227.813 S840
S0
G1 X227.686 S860
S0
G1 X227.559 S807
S0
G1 X227.432 S749
S0
G1 X227.305 S721
S0
G1 X227.178 S714
S0
G1 X227.051 S764
S0
G1 X226.924 S922
S0
G1 X226.797 S678
S0
G1 X226.670 S110
S0
G1 X226.543 S1
S0
G1 X226.416 S7
S0
G1 X226.289 S31
S0
G1 X226.162 S2
S0
G1 X226.035 S408
S0
G1 X225.908 S168
S0
G1 X225.781 S5
S0
G1 X225.654 S7
S0
G1 X225.527 S9
S0
G1 X225.400 S537
S0
G1 X225.273 S850
S0
G1 X225.146 S757
S0
G1 X225.019 S345
S0
G1 X224.892 S9
S0
G1 X224.765 S28
S0
G1 X224.638 S6
S0
G1 X224.511 S149
S0
G1 X224.257 S631
S0
G1 X224.130 S588
S0
G1 X224.003 S91
S0
G1 X223.876 S9
S0
G1 X223.749 S2
S0
G1 X223.622 S8
S0
G1 X223.495 S5
S0
G1 X223.368 S15
S0
G1 X223.241 S9
S0
G1 X223.114 S5
S0
G1 X222.987 S4
S0
G1 X222.860 S6
S0
G1 X222.733 S12
S0
G1 X222.606 S368
S0
G1 X222.479 S510
S0
G1 X222.352 S79
S0
G1 X221.209 S1
S0
G1 X221.082 S28
S0
G1 X220.955 S2
S0
G1 X220.828 S72
S0
G1 X220.701 S427
S0
G1 X220.574 S365
S0
G1 X220.447 S256
S0
G1 X220.320 S231
S0
G1 X220.193 S166
S0
G1 X220.066 S173
S0
G1 X219.939 S215
S0
G1 X219.812 S220
S0
G1 X219.685 S197
S0
G1 X219.558 S211
S0
G1 X219.431 S248
S0
G1 X219.304 S64
S0
G1 X217.272 S2
S0
G1 X217.145 S16
S0
G1 X217.018 S5
S0
G1 X216.891 S9
S0
G1 X216.764 S16
S0
G1 X216.637 S12
S0
G1 X216.383 S2
S0
G1 X216.256 S16
S0
G1 X216.129 S1
S0
G1 X216.002 S12
S0
G1 X215.875 S1
S0
G1 X215.748 S27
S0
G1 X215.621 S1
S0
G1 X215.494 S31
S0
G1 X215.367 S1
S0
G1 X215.240 S2
S0
G1 X215.113 S25
S0
G1 X214.986 S91
S0
G1 X214.859 S31
S0
G1 X214.732 S10
S0
G1 X214.605 S66
S0
G1 X214.478 S168
S0
G1 X214.351 S287
S0
G1 X214.224 S325
S0
G1 X214.097 S278
S0
G1 X213.970 S397
S0
G1 X213.843 S589
S0
G1 X213.716 S773
S0
G1 X213.589 S815
S0
G1 X213.462 S749
S0
G1 X213.335 S706
S0
G1 X213.208 S683
S0
G1 X213.081 S695
S0
G1 X212.954 S662
S0
G1 X212.827 S593
S0
G1 X212.700 S564
S0
G1 X212.573 S651
S0
G1 X212.446 S697
S0
G1 X212.319 S528
S0
G1 X212.192 S294
S0
G1 X212.065 S70
S0
G1 X211.938 S9
S0
G1 X211.811 S12
S0
G1 X211.684 S8
S0
G1 X211.557 S7
S0
G1 X211.430 S5
S0
G1 X211.303 S25
S0
G1 X211.176 S19
S0
G1 X210.922 S2
S0
G1 X210.795 S5
S0
G1 X210.668 S2
S0
G1 X210.541 S12
S0
G1 X210.414 S20
S0
G1 X200.000 S2
S0
G0 Y41.148
G0 X200.000 S0
G1 X210.287 S2
S0
G1 X210.414 S20
S0
G1 X210.541 S9
S0
G1 X210.668 S2
S0
G1 X210.795 S5
S0
G1 X210.922 S12
S0
G1 X211.049 S20
S0
G1 X211.176 S24
S0
G1 X211.303 S2
S0
G1 X211.430 S5
S0
G1 X211.557 S6
S0
G1 X211.684 S16
S0
G1 X211.811 S8
S0
G1 X211.938 S37
S0
G1 X212.065 S313
S0
G1 X212.192 S580
S0
G1 X212.319 S726
S0
G1 X212.446 S686
S0
G1 X212.573 S671
S0
G1 X212.700 S722
S0
G1 X212.827 S777
S0
G1 X212.954 S773
S0
G1 X213.081 S753
S0
G1 X213.208 S744
S0
G1 X213.335 S781
S0
G1 X213.462 S706
S0
G1 X213.589 S697
S0
G1 X213.716 S732
S0
G1 X213.843 S790
S0
G1 X213.970 S714
S0
G1 X214.097 S522
S0
G1 X214.224 S466
S0
G1 X214.351 S643
S0
G1 X214.478 S712
S0
G1 X214.605 S690
S0
G1 X214.732 S632
S0
G1 X214.859 S395
S0
G1 X214.986 S86
S0
G1 X215.113 S27
S0
G1 X215.240 S93
S0
G1 X215.367 S118
S0
G1 X215.494 S16
S0
G1 X215.621 S5
S0
G1 X215.748 S9
S0
G1 X215.875 S7
S0
G1 X216.002 S9
S0
G1 X216.129 S12
S0
G1 X216.256 S13
S0
G1 X216.383 S9
S0
G1 X216.510 S7
S0
G1 X216.637 S5
S0
G1 X216.764 S20
S0
G1 X216.891 S39
S0
G1 X217.018 S15
S0
G1 X219.304 S2
S0
G1 X219.431 S17
S0
G1 X219.558 S185
S0
G1 X219.685 S204
S0
G1 X219.812 S165
S0
G1 X219.939 S194
S0
G1 X220.066 S219
S0
G1 X220.193 S168
S0
G1 X220.320 S169
S0
G1 X220.447 S141
S0
G1 X220.574 S175
S0
G1 X220.701 S212
S0
G1 X220.828 S417
S0
G1 X220.955 S187
S0
G1 X221.082 S5
S0
G1 X221.209 S16
S0
G1 X221.336 S3
S0
G1 X222.352 S1
S0
G1 X222.479 S17
S0
G1 X222.606 S392
S0
G1 X222.733 S533
S0
G1 X222.860 S98
S0
G1 X222.987 S2
S0
G1 X223.114 S3
S0
G1 X223.241 S5
S0
G1 X223.368 S7
S0
G1 X223.495 S5
S0
G1 X223.622 S16
S0
G1 X223.876 S3
S0
G1 X224.003 S12
S0
G1 X224.130 S9
S0
G1 X224.257 S280
S0
G1 X224.384 S651
S0
G1 X224.511 S736
S0
G1 X224.638 S337
S0
G1 X224.765 S3
S0
G1 X224.892 S1
S0
G1 X225.019 S23
S0
G1 X225.146 S552
S0
G1 X225.273 S871
S0
G1 X225.400 S651
S0
G1 X225.527 S27
S0
G1 X225.654 S9
S0
G1 X225.781 S5
S0
G1 X225.908 S26
S0
G1 X226.035 S154
S0
G1 X226.162 S158
S0
G1 X226.289 S46
S0
G1 X226.416 S1
S0
G1 X226.543 S20
S0
G1 X226.670 S259
S0
G1 X226.797 S839
S0
G1 X226.924 S913
S0
G1 X227.051 S682
S0
G1 X227.178 S733
S0
G1 X227.305 S713
S0
G1 X227.432 S823
S0
G1 X227.559 S790
S0
G1 X227.686 S595
S0
G1 X227.813 S381
S0
G1 X227.940 S193
S0
G1 X228.067 S35
S0
G1 X228.194 S1
S0
G1 X228.321 S8
S0
G1 X228.448 S19
S0
G1 X228.575 S7
S0
G1 X228.702 S11
S0
G1 X228.829 S15
S0
G1 X228.956 S20
S0
G1 X229.083 S17
S0
G1 X229.210 S10
S0
G1 X229.337 S4
S0
G1 X229.464 S44
S0
G1 X229.591 S599
S0
G1 X229.718 S713
S0
G1 X229.845 S618
S0
G1 X229.972 S642
S0
G1 X230.099 S669
S0
G1 X230.226 S642
S0
G1 X230.353 S603
S0
G1 X230.480 S620
S0
G1 X230.607 S619
S0
G1 X230.734 S635
S0
G1 X230.861 S620
S0
G1 X230.988 S617
S0
G1 X231.115 S614
S0
G1 X231.242 S607
S0
G1 X231.369 S624
S0
G1 X231.496 S628
S0
G1 X231.623 S608
S0
G1 X231.750 S560
S0
G1 X231.877 S745
S0
G1 X232.004 S564
S0
G1 X232.131 S26
S0
G1 X232.258 S10
S0
G1 X232.385 S4
S0
G1 X232.512 S28
S0
G1 X232.639 S95
S0
G1 X232.766 S41
S0
G1 X232.893 S9
S0
G1 X233.020 S32
S0
G1 X233.147 S5
S0
G1 X233.274 S25
S0
G1 X233.401 S15
S0
G1 X233.528 S9
S0
G1 X233.655 S14
S0
G1 X233.782 S9
S0
G1 X233.909 S5
S0
G1 X234.036 S28
S0
G1 X234.163 S52
S0
G1 X234.290 S356
S0
G1 X234.417 S773
S0
G1 X234.544 S550
S0
G1 X234.671 S35
S0
G1 X234.798 S3
S0
G1 X234.925 S21
S0
G1 X235.052 S135
S0
G1 X235.179 S272
S0
G1 X235.306 S275
S0
G1 X235.433 S243
S0
G1 X235.560 S231
S0
G1 X235.687 S175
S0
G1 X235.814 S164
S0
G1 X235.941 S156
S0
G1 X236.068 S175
S0
G1 X236.195 S191
S0
G1 X236.576 S187
S0
G1 X236.703 S179
S0
G1 X236.957 S187
S0
G1 X237.084 S179
S0
G1 X237.211 S168
S0
G1 X237.338 S160
S0
G1 X237.465 S156
S0
G1 X237.592 S152
S0
G1 X237.719 S189
S0
G1 X237.846 S224
S0
G1 X237.973 S165
S0
G1 X238.100 S44
S0
G1 X238.227 S9
S0
G1 X238.354 S5
S0
G1 X238.481 S2
S0
G1 X238.608 S1
S0
G1 X238.989 S2
S0
G1 X239.116 S9
S0
G1 X239.243 S5
S0
G1 X239.497 S1
S0
G1 X239.624 S5
S0
G1 X250.038 S2
S0
G0 Y41.021
G0 X250.038 S0
G1 X239.624 S2
S0
G1 X239.370 S1
S0
G1 X239.243 S5
S0
G1 X239.116 S9
S0
G1 X238.608 S2
S0
G1 X238.481 S13
S0
G1 X238.354 S3
S0
G1 X238.227 S12
S0
G1 X238.100 S111
S0
G1 X237.846 S224
S0
G1 X237.719 S177
S0
G1 X237.465 S191
S0
G1 X237.211 S183
S0
G1 X237.084 S195
S0
G1 X236.957 S207
S0
G1 X236.830 S203
S0
G1 X236.703 S187
S0
G1 X236.576 S172
S0
G1 X236.449 S187
S0
G1 X236.322 S200
S0
G1 X236.195 S193
S0
G1 X236.068 S191
S0
G1 X235.941 S184
S0
G1 X235.814 S177
S0
G1 X235.687 S197
S0
G1 X235.560 S201
S0
G1 X235.433 S195
S0
G1 X235.306 S154
S0
G1 X235.179 S165
S0
G1 X235.052 S260
S0
G1 X234.925 S294
S0
G1 X234.798 S248
S0
G1 X234.671 S59
S0
G1 X234.544 S12
S0
G1 X234.417 S581
S0
G1 X234.290 S776
S0
G1 X234.163 S784
S0
G1 X234.036 S686
S0
G1 X233.909 S517
S0
G1 X233.782 S362
S0
G1 X233.655 S231
S0
G1 X233.528 S208
S0
G1 X233.401 S140
S0
G1 X233.274 S95
S0
G1 X233.147 S133
S0
G1 X233.020 S185
S0
G1 X232.893 S196
S0
G1 X232.766 S349
S0
G1 X232.639 S612
S0
G1 X232.512 S282
S0
G1 X232.385 S5
S0
G1 X232.258 S17
S0
G1 X232.131 S5
S0
G1 X232.004 S6
S0
G1 X231.877 S179
S0
G1 X231.750 S764
S0
G1 X231.623 S666
S0
G1 X231.496 S602
S0
G1 X231.369 S636
S0
G1 X231.242 S640
S0
G1 X231.115 S620
S0
G1 X230.988 S606
S0
G1 X230.861 S610
S0
G1 X230.734 S620
S0
G1 X230.607 S628
S0
G1 X230.480 S624
S0
G1 X230.353 S616
S0
G1 X230.226 S612
S0
G1 X230.099 S643
S0
G1 X229.972 S657
S0
G1 X229.845 S646
S0
G1 X229.718 S639
S0
G1 X229.591 S738
S0
G1 X229.464 S349
S0
G1 X229.337 S9
S0
G1 X229.210 S5
S0
G1 X229.083 S1
S0
G1 X228.702 S6
S0
G1 X228.575 S16
S0
G1 X228.448 S12
S0
G1 X228.321 S8
S0
G1 X228.194 S20
S0
G1 X228.067 S4
S0
G1 X227.940 S9
S0
G1 X227.813 S20
S0
G1 X227.686 S5
S0
G1 X227.559 S27
S0
G1 X227.432 S138
S0
G1 X227.305 S420
S0
G1 X227.178 S678
S0
G1 X227.051 S902
S0
G1 X226.924 S875
S0
G1 X226.797 S733
S0
G1 X226.670 S879
S0
G1 X226.543 S949
S0
G1 X226.416 S393
S0
G1 X226.289 S23
S0
G1 X226.162 S2
S0
G1 X226.035 S35
S0
G1 X225.908 S39
S0
G1 X225.781 S6
S0
G1 X225.654 S2
S0
G1 X225.527 S44
S0
G1 X225.400 S7
S0
G1 X225.273 S236
S0
G1 X225.146 S781
S0
G1 X225.019 S758
S0
G1 X224.892 S199
S0
G1 X224.765 S3
S0
G1 X224.638 S86
S0
G1 X224.511 S564
S0
G1 X224.384 S721
S0
G1 X224.257 S404
S0
G1 X224.130 S9
S0
G1 X224.003 S27
S0
G1 X223.876 S3
S0
G1 X223.749 S12
S0
G1 X223.622 S3
S0
G1 X223.495 S2
S0
G1 X223.368 S5
S0
G1 X223.241 S2
S0
G1 X223.114 S5
S0
G1 X222.987 S11
S0
G1 X222.860 S5
S0
G1 X222.733 S259
S0
G1 X222.606 S667
S0
G1 X222.479 S369
S0
G1 X222.352 S7
S0
G1 X221.336 S1
S0
G1 X221.209 S20
S0
G1 X221.082 S1
S0
G1 X220.955 S74
S0
G1 X220.828 S360
S0
G1 X220.701 S282
S0
G1 X220.574 S268
S0
G1 X220.447 S388
S0
G1 X220.320 S306
S0
G1 X220.193 S209
S0
G1 X220.066 S144
S0
G1 X219.939 S164
S0
G1 X219.812 S178
S0
G1 X219.685 S232
S0
G1 X219.558 S247
S0
G1 X219.431 S110
S0
G1 X219.304 S3
S0
G1 X217.272 S2
S0
G1 X217.145 S10
S0
G1 X217.018 S5
S0
G1 X216.891 S24
S0
G1 X216.764 S79
S0
G1 X216.637 S117
S0
G1 X216.510 S109
S0
G1 X216.383 S78
S0
G1 X216.256 S54
S0
G1 X216.129 S48
S0
G1 X216.002 S20
S0
G1 X215.875 S43
S0
G1 X215.748 S126
S0
G1 X215.621 S133
S0
G1 X215.494 S70
S0
G1 X215.367 S232
S0
G1 X215.240 S117
S0
G1 X215.113 S45
S0
G1 X214.986 S446
S0
G1 X214.859 S740
S0
G1 X214.732 S813
S0
G1 X214.605 S714
S0
G1 X214.478 S631
S0
G1 X214.351 S659
S0
G1 X214.224 S632
S0
G1 X214.097 S643
S0
G1 X213.970 S679
S0
G1 X213.843 S726
S0
G1 X213.716 S717
S0
G1 X213.589 S736
S0
G1 X213.462 S789
S0
G1 X213.335 S795
S0
G1 X213.208 S828
S0
G1 X213.081 S816
S0
G1 X212.954 S796
S0
G1 X212.700 S785
S0
G1 X212.573 S797
S0
G1 X212.446 S817
S0
G1 X212.319 S809
S0
G1 X212.192 S770
S0
G1 X212.065 S757
S0
G1 X211.938 S733
S0
G1 X211.811 S595
S0
G1 X211.684 S214
S0
G1 X211.557 S12
S0
G1 X211.430 S23
S0
G1 X211.303 S16
S0
G1 X211.176 S8
S0
G1 X210.668 S2
S0
G1 X210.541 S5
S0
G1 X210.414 S2
S0
G1 X210.160 S9
S0
G1 X200.000 S2
S0
G0 Y40.894
G0 X200.000 S0
G1 X210.414 S2
S0
G1 X210.668 S5
S0
G1 X210.922 S2
S0
G1 X211.176 S12
S0
G1 X211.303 S11
S0
G1 X211.430 S16
S0
G1 X211.557 S70
S0
G1 X211.684 S440
S0
G1 X211.811 S776
S0
G1 X211.938 S769
S0
G1 X212.065 S746
S0
G1 X212.192 S801
S0
G1 X212.319 S809
S0
G1 X212.446 S827
S0
G1 X212.573 S821
S0
G1 X212.700 S809
S0
G1 X212.827 S796
S0
G1 X212.954 S772
S0
G1 X213.081 S776
S0
G1 X213.208 S819
S0
G1 X213.335 S789
S0
G1 X213.462 S820
S0
G1 X213.589 S815
S0
G1 X213.716 S789
S0
G1 X213.843 S730
S0
G1 X213.970 S729
S0
G1 X214.097 S785
S0
G1 X214.224 S749
S0
G1 X214.351 S680
S0
G1 X214.478 S701
S0
G1 X214.605 S698
S0
G1 X214.732 S659
S0
G1 X214.859 S627
S0
G1 X214.986 S772
S0
G1 X215.113 S870
S0
G1 X215.240 S679
S0
G1 X215.367 S97
S0
G1 X215.494 S14
S0
G1 X215.621 S134
S0
G1 X215.748 S157
S0
G1 X215.875 S173
S0
G1 X216.002 S153
S0
G1 X216.129 S146
S0
G1 X216.256 S105
S0
G1 X216.383 S134
S0
G1 X216.510 S208
S0
G1 X216.637 S244
S0
G1 X216.764 S172
S0
G1 X216.891 S50
S0
G1 X217.145 S5
S0
G1 X219.304 S2
S0
G1 X219.431 S13
S0
G1 X219.558 S102
S0
G1 X219.685 S326
S0
G1 X219.812 S318
S0
G1 X219.939 S200
S0
G1 X220.066 S158
S0
G1 X220.193 S178
S0
G1 X220.320 S264
S0
G1 X220.447 S302
S0
G1 X220.574 S409
S0
G1 X220.701 S329
S0
G1 X220.828 S215
S0
G1 X220.955 S350
S0
G1 X221.082 S193
S0
G1 X221.209 S7
S0
G1 X221.336 S5
S0
G1 X222.352 S1
S0
G1 X222.479 S8
S0
G1 X222.606 S376
S0
G1 X222.733 S662
S0
G1 X222.860 S385
S0
G1 X222.987 S9
S0
G1 X223.114 S24
S0
G1 X223.241 S5
S0
G1 X223.368 S1
S0
G1 X223.495 S5
S0
G1 X223.749 S2
S0
G1 X223.876 S15
S0
G1 X224.003 S16
S0
G1 X224.130 S2
S0
G1 X224.257 S7
S0
G1 X224.384 S52
S0
G1 X224.511 S594
S0
G1 X224.638 S843
S0
G1 X224.765 S311
S0
G1 X224.892 S5
S0
G1 X225.019 S494
S0
G1 X225.146 S920
S0
G1 X225.273 S452
S0
G1 X225.400 S43
S0
G1 X225.527 S36
S0
G1 X225.654 S28
S0
G1 X225.781 S5
S0
G1 X225.908 S43
S0
G1 X226.035 S23
S0
G1 X226.162 S2
S0
G1 X226.289 S22
S0
G1 X226.416 S581
S0
G1 X226.543 S926
S0
G1 X226.670 S800
S0
G1 X226.797 S765
S0
G1 X226.924 S875
S0
G1 X227.051 S709
S0
G1 X227.178 S316
S0
G1 X227.305 S20
S0
G1 X227.432 S5
S0
G1 X227.559 S20
S0
G1 X227.686 S11
S0
G1 X227.813 S7
S0
G1 X227.940 S20
S0
G1 X228.067 S2
S0
G1 X228.194 S3
S0
G1 X228.321 S11
S0
G1 X228.448 S7
S0
G1 X228.829 S12
S0
G1 X228.956 S23
S0
G1 X229.083 S7
S0
G1 X229.210 S9
S0
G1 X229.337 S14
S0
G1 X229.464 S23
S0
G1 X229.591 S239
S0
G1 X229.718 S745
S0
G1 X229.845 S618
S0
G1 X229.972 S615
S0
G1 X230.099 S627
S0
G1 X230.226 S651
S0
G1 X230.353 S631
S0
G1 X230.480 S627
S0
G1 X230.607 S628
S0
G1 X230.734 S616
S0
G1 X230.861 S620
S0
G1 X230.988 S614
S0
G1 X231.115 S615
S0
G1 X231.242 S624
S0
G1 X231.369 S619
S0
G1 X231.496 S611
S0
G1 X231.623 S596
S0
G1 X231.750 S776
S0
G1 X231.877 S381
S0
G1 X232.004 S20
S0
G1 X232.131 S28
S0
G1 X232.258 S7
S0
G1 X232.385 S35
S0
G1 X232.512 S13
S0
G1 X232.639 S32
S0
G1 X232.766 S523
S0
G1 X232.893 S869
S0
G1 X233.020 S702
S0
G1 X233.147 S724
S0
G1 X233.274 S682
S0
G1 X233.401 S669
S0
G1 X233.528 S654
S0
G1 X233.655 S697
S0
G1 X233.782 S738
S0
G1 X233.909 S769
S0
G1 X234.036 S712
S0
G1 X234.163 S647
S0
G1 X234.290 S560
S0
G1 X234.417 S639
S0
G1 X234.544 S734
S0
G1 X234.671 S283
S0
G1 X234.798 S236
S0
G1 X234.925 S248
S0
G1 X235.052 S181
S0
G1 X235.179 S170
S0
G1 X235.306 S189
S0
G1 X235.433 S217
S0
G1 X235.560 S193
S0
G1 X235.687 S173
S0
G1 X235.814 S180
S0
G1 X235.941 S197
S0
G1 X236.068 S204
S0
G1 X236.195 S187
S0
G1 X236.322 S165
S0
G1 X236.449 S164
S0
G1 X236.576 S179
S0
G1 X236.703 S197
S0
G1 X236.830 S190
S0
G1 X236.957 S182
S0
G1 X237.084 S174
S0
G1 X237.338 S170
S0
G1 X237.465 S182
S0
G1 X237.592 S197
S0
G1 X237.719 S168
S0
G1 X237.846 S180
S0
G1 X237.973 S142
S0
G1 X238.100 S174
S0
G1 X238.227 S259
S0
G1 X238.354 S188
S0
G1 X238.481 S32
S0
G1 X238.735 S5
S0
G1 X238.989 S11
S0
G1 X239.243 S2
S0
G1 X239.370 S9
S0
G1 X239.497 S13
S0
G1 X239.624 S5
S0
G1 X250.038 S2
S0
G0 Y40.767
G0 X250.038 S0
G1 X241.656 S2
S0
G1 X240.640 S5
S0
G1 X239.624 S2
S0
G1 X239.497 S1
S0
G1 X239.370 S5
S0
G1 X239.243 S1
S0
G1 X239.116 S2
S0
G1 X238.989 S9
S0
G1 X238.862 S15
S0
G1 X238.608 S2
S0
G1 X238.481 S38
S0
G1 X238.354 S240
S0
G1 X238.227 S274
S0
G1 X238.100 S174
S0
G1 X237.973 S162
S0
G1 X237.846 S185
S0
G1 X237.719 S172
S0
G1 X237.592 S176
S0
G1 X237.465 S146
S0
G1 X237.338 S162
S0
G1 X237.211 S178
S0
G1 X236.830 S186
S0
G1 X236.703 S182
S0
G1 X236.576 S178
S0
G1 X236.449 S188
S0
G1 X236.322 S178
S0
G1 X236.195 S213
S0
G1 X236.068 S208
S0
G1 X235.941 S180
S0
G1 X235.814 S170
S0
G1 X235.687 S169
S0
G1 X235.560 S220
S0
G1 X235.433 S193
S0
G1 X235.306 S189
S0
G1 X235.179 S179
S0
G1 X235.052 S196
S0
G1 X234.925 S154
S0
G1 X234.798 S142
S0
G1 X234.671 S185
S0
G1 X234.544 S360
S0
G1 X234.417 S497
S0
G1 X234.290 S694
S0
G1 X234.163 S616
S0
G1 X234.036 S674
S0
G1 X233.909 S758
S0
G1 X233.782 S723
S0
G1 X233.655 S754
S0
G1 X233.528 S719
S0
G1 X233.401 S628
S0
G1 X233.274 S636
S0
G1 X233.147 S603
S0
G1 X233.020 S584
S0
G1 X232.893 S780
S0
G1 X232.766 S498
S0
G1 X232.639 S21
S0
G1 X232.512 S5
S0
G1 X232.385 S20
S0
G1 X232.258 S4
S0
G1 X232.131 S19
S0
G1 X232.004 S10
S0
G1 X231.877 S9
S0
G1 X231.750 S30
S0
G1 X231.623 S581
S0
G1 X231.496 S725
S0
G1 X231.369 S596
S0
G1 X231.242 S584
S0
G1 X231.115 S611
S0
G1 X230.988 S627
S0
G1 X230.861 S623
S0
G1 X230.734 S624
S0
G1 X230.607 S612
S0
G1 X230.480 S624
S0
G1 X230.353 S626
S0
G1 X230.226 S622
S0
G1 X230.099 S634
S0
G1 X229.972 S624
S0
G1 X229.845 S627
S0
G1 X229.718 S620
S0
G1 X229.591 S757
S0
G1 X229.464 S278
S0
G1 X229.337 S1
S0
G1 X229.210 S23
S0
G1 X229.083 S31
S0
G1 X228.956 S1
S0
G1 X228.702 S2
S0
G1 X228.575 S8
S0
G1 X228.321 S2
S0
G1 X228.194 S5
S0
G1 X227.940 S2
S0
G1 X227.813 S13
S0
G1 X227.686 S9
S0
G1 X227.432 S2
S0
G1 X227.305 S14
S0
G1 X227.178 S6
S0
G1 X227.051 S27
S0
G1 X226.924 S24
S0
G1 X226.797 S322
S0
G1 X226.670 S764
S0
G1 X226.543 S882
S0
G1 X226.416 S784
S0
G1 X226.289 S925
S0
G1 X226.162 S636
S0
G1 X226.035 S51
S0
G1 X225.908 S3
S0
G1 X225.781 S5
S0
G1 X225.654 S32
S0
G0 X225.527 S0
G1 X225.273 S5
S0
G1 X225.146 S71
S0
G1 X225.019 S651
S0
G1 X224.892 S710
S0
G1 X224.765 S51
S0
G1 X224.638 S470
S0
G1 X224.511 S824
S0
G1 X224.384 S212
S0
G1 X224.257 S2
S0
G1 X224.130 S54
S0
G1 X224.003 S3
S0
G1 X223.876 S28
S0
G1 X223.749 S2
S0
G1 X223.622 S13
S0
G1 X223.495 S19
S0
G1 X223.368 S5
S0
G1 X223.241 S7
S0
G1 X223.114 S5
S0
G1 X222.987 S15
S0
G1 X222.860 S25
S0
G1 X222.733 S436
S0
G1 X222.606 S560
S0
G1 X222.479 S338
S0
G1 X222.352 S6
S0
G1 X221.336 S1
S0
G1 X221.209 S5
S0
G1 X221.082 S146
S0
G1 X220.955 S274
S0
G1 X220.828 S205
S0
G1 X220.701 S217
S0
G1 X220.574 S220
S0
G1 X220.447 S180
S0
G1 X220.320 S162
S0
G1 X220.193 S218
S0
G1 X220.066 S184
S0
G1 X219.939 S164
S0
G1 X219.812 S142
S0
G1 X219.685 S197
S0
G1 X219.558 S200
S0
G1 X219.431 S22
S0
G1 X219.304 S11
S0
G1 X217.272 S2
S0
G1 X217.145 S16
S0
G1 X217.018 S9
S0
G1 X216.891 S2
S0
G1 X216.764 S9
S0
G1 X216.637 S70
S0
G1 X216.383 S142
S0
G1 X216.256 S102
S0
G1 X216.129 S160
S0
G1 X216.002 S103
S0
G1 X215.875 S118
S0
G1 X215.748 S189
S0
G1 X215.621 S141
S0
G1 X215.494 S52
S0
G1 X215.367 S153
S0
G1 X215.240 S745
S0
G1 X215.113 S897
S0
G1 X214.986 S812
S0
G1 X214.859 S726
S0
G1 X214.732 S721
S0
G1 X214.605 S725
S0
G1 X214.478 S718
S0
G1 X214.351 S729
S0
G1 X214.224 S716
S0
G1 X214.097 S808
S0
G1 X213.970 S780
S0
G1 X213.843 S721
S0
G1 X213.716 S760
S0
G1 X213.462 S796
S0
G1 X213.335 S832
S0
G1 X213.208 S800
S0
G1 X213.081 S789
S0
G1 X212.954 S808
S0
G1 X212.827 S848
S0
G1 X212.700 S847
S0
G1 X212.573 S823
S0
G1 X212.446 S851
S0
G1 X212.319 S864
S0
G1 X212.192 S821
S0
G1 X212.065 S808
S0
G1 X211.938 S809
S0
G1 X211.811 S758
S0
G1 X211.684 S741
S0
G1 X211.557 S840
S0
G1 X211.430 S633
S0
G1 X211.303 S165
S0
G1 X211.176 S8
S0
G1 X210.922 S2
S0
G1 X210.795 S28
S0
G1 X210.668 S12
S0
G1 X210.541 S2
S0
G1 X210.414 S9
S0
G1 X210.287 S2
S0
G1 X210.160 S5
