; GCODE generated by Laserweb
; Laser Min: 0%
; Laser Max: 100%
; Black Speed: 200mm/min
; White Speed: 800mm/min
; Resolution (mm per pixel): 0.12699999999999187mm
; Laser Spot Size: NaNmm
; Laser Feedrate: 2000mm/min
; X Offset: 200mm
; Y Offset: 0mm 

G1 F1000
; Start GCode
G92
G90
G1Z0
M3S0

G0 Y50.038
G0 X200.000 S0
G1 X235.433 S5
S0
G0 Y49.911
G0 X235.433 S0
G1 X200.000 S5
S0
G0 Y49.784
G0 X200.000 S0
G1 X235.433 S5
S0
G0 Y49.657
G0 X235.433 S0
G1 X200.000 S5
S0
G0 Y49.530
G0 X200.000 S0
G1 X235.433 S5
S0
G0 Y49.403
G0 X235.433 S0
G1 X200.000 S5
S0
G0 Y49.276
G0 X200.000 S0
G1 X235.433 S5
S0
G0 Y49.149
G0 X235.433 S0
G1 X200.000 S5
S0
G0 Y49.022
G0 X200.000 S0
G1 X216.383 S5
S0
G1 X216.510 S2
S0
G1 X217.399 S5
S0
G1 X217.526 S2
S0
G1 X217.653 S5
S0
G1 X217.780 S1
S0
G1 X217.907 S7
S0
G1 X218.034 S12
S0
G1 X218.161 S2
S0
G1 X218.288 S5
S0
G1 X218.415 S2
S0
G1 X218.542 S12
S0
G1 X218.669 S9
S0
G1 X218.923 S5
S0
G1 X219.050 S2
S0
G1 X219.177 S5
S0
G1 X219.304 S2
S0
G1 X219.431 S3
S0
G1 X219.558 S9
S0
G1 X219.685 S5
S0
G1 X219.812 S2
S0
G1 X219.939 S5
S0
G1 X220.066 S9
S0
G1 X220.193 S2
S0
G1 X220.320 S5
S0
G1 X220.447 S2
S0
G1 X220.828 S5
S0
G1 X220.955 S2
S0
G1 X235.433 S5
S0
G0 Y48.895
G0 X235.433 S0
G1 X220.193 S5
S0
G1 X220.066 S9
S0
G1 X219.939 S5
S0
G1 X219.812 S9
S0
G1 X219.685 S12
S0
G1 X219.558 S5
S0
G1 X219.431 S9
S0
G1 X219.304 S8
S0
G1 X219.177 S7
S0
G0 X218.923 S0
G1 X218.796 S3
S0
G0 X218.669 S0
G1 X218.542 S3
S0
G0 X218.415 S0
G1 X218.288 S7
S0
G1 X218.161 S11
S0
G1 X218.034 S8
S0
G1 X217.907 S21
S0
G1 X217.780 S12
S0
G1 X217.653 S16
S0
G1 X217.526 S5
S0
G1 X217.399 S8
S0
G1 X200.000 S5
S0
G0 Y48.768
G0 X200.000 S0
G1 X217.399 S5
S0
G1 X217.526 S1
S0
G1 X217.653 S3
S0
G1 X217.780 S12
S0
G1 X217.907 S8
S0
G1 X218.161 S1
S0
G1 X218.288 S2
S0
G1 X218.415 S5
S0
G1 X219.304 S2
S0
G1 X219.431 S1
S0
G1 X219.558 S8
S0
G1 X219.685 S12
S0
G1 X219.812 S7
S0
G1 X219.939 S5
S0
G1 X220.066 S9
S0
G1 X220.320 S5
S0
G1 X220.447 S9
S0
G1 X235.433 S5
S0
G0 Y48.641
G0 X235.433 S0
G1 X220.955 S5
S0
G1 X220.828 S2
S0
G1 X220.193 S5
S0
G1 X220.066 S9
S0
G1 X219.939 S2
S0
G1 X219.812 S5
S0
G1 X219.685 S9
S0
G1 X219.558 S12
S0
G1 X219.304 S2
S0
G1 X219.177 S125
S0
G1 X219.050 S340
S0
G1 X218.923 S513
S0
G1 X218.796 S540
S0
G1 X218.669 S521
S0
G1 X218.542 S552
S0
G1 X218.415 S497
S0
G1 X218.288 S336
S0
G1 X218.161 S102
S0
G1 X218.034 S2
S0
G1 X217.907 S1
S0
G1 X217.780 S9
S0
G1 X217.653 S11
S0
G1 X217.526 S12
S0
G1 X217.399 S3
S0
G1 X217.145 S5
S0
G1 X217.018 S2
S0
G1 X200.000 S5
S0
G0 Y48.514
G0 X200.000 S0
G1 X217.272 S5
S0
G1 X217.399 S2
S0
G1 X217.526 S5
S0
G1 X217.653 S7
S0
G1 X217.780 S9
S0
G1 X217.907 S2
S0
G1 X218.034 S153
S0
G1 X218.161 S557
S0
G1 X218.288 S819
S0
G1 X218.415 S922
S0
G1 X218.542 S926
S0
G1 X218.669 S934
S0
G1 X218.923 S922
S0
G1 X219.050 S946
S0
G1 X219.177 S922
S0
G1 X219.304 S844
S0
G1 X219.431 S611
S0
G1 X219.558 S200
S0
G0 X219.685 S0
G1 X219.939 S2
S0
G1 X220.066 S9
S0
G1 X220.447 S2
S0
G1 X235.433 S5
S0
G0 Y48.387
G0 X235.433 S0
G1 X220.447 S5
S0
G1 X220.320 S9
S0
G1 X220.193 S7
S0
G1 X219.939 S9
S0
G0 X219.812 S0
G1 X219.685 S29
S0
G1 X219.558 S483
S0
G1 X219.431 S858
S0
G1 X219.304 S953
S0
G1 X219.177 S879
S0
G1 X219.050 S839
S0
G1 X218.923 S824
S0
G1 X218.796 S828
S0
G1 X218.542 S836
S0
G1 X218.415 S832
S0
G1 X218.288 S836
S0
G1 X218.161 S875
S0
G1 X218.034 S948
S0
G1 X217.907 S874
S0
G1 X217.780 S428
S0
G1 X217.653 S6
S0
G1 X217.526 S2
S0
G1 X217.272 S7
S0
G1 X217.145 S9
S0
G1 X217.018 S12
S0
G1 X216.891 S9
S0
G1 X200.000 S5
S0
G0 Y48.260
G0 X200.000 S0
G1 X216.891 S5
S0
G1 X217.018 S9
S0
G1 X217.272 S12
S0
G1 X217.399 S16
S0
G1 X217.526 S5
S0
G1 X217.653 S3
S0
G1 X217.780 S413
S0
G1 X217.907 S993
S0
G1 X218.034 S871
S0
G1 X218.161 S820
S0
G1 X218.288 S839
S0
G1 X218.415 S833
S0
G1 X218.542 S836
S0
G1 X218.669 S833
S0
G1 X218.796 S829
S0
G1 X219.177 S833
S0
G1 X219.304 S829
S0
G1 X219.431 S832
S0
G1 X219.558 S871
S0
G1 X219.685 S951
S0
G1 X219.812 S640
S0
G1 X219.939 S74
S0
G0 X220.066 S0
G1 X220.320 S9
S0
G1 X220.447 S16
S0
G1 X220.574 S9
S0
G1 X235.433 S5
S0
G0 Y48.133
G0 X235.433 S0
G1 X220.320 S5
S0
G1 X220.193 S12
S0
G1 X220.066 S2
S0
G1 X219.939 S262
S0
G1 X219.812 S856
S0
G1 X219.685 S922
S0
G1 X219.558 S844
S0
G1 X219.431 S840
S0
G1 X219.304 S835
S0
G1 X218.669 S831
S0
G1 X218.288 S834
S0
G1 X218.161 S836
S0
G1 X217.907 S831
S0
G1 X217.780 S871
S0
G1 X217.653 S910
S0
G1 X217.526 S470
S0
G1 X217.399 S2
S0
G1 X217.272 S1
S0
G1 X217.145 S16
S0
G1 X217.018 S9
S0
G1 X216.891 S2
S0
G1 X200.000 S5
S0
G0 Y48.006
G0 X200.000 S0
G1 X217.018 S5
S0
G1 X217.145 S8
S0
G1 X217.272 S9
S0
G1 X217.399 S1
S0
G1 X217.526 S271
S0
G1 X217.653 S929
S0
G1 X217.780 S883
S0
G1 X217.907 S819
S0
G1 X218.034 S834
S0
G1 X218.161 S851
S0
G1 X218.288 S835
S0
G1 X218.415 S836
S0
G1 X218.542 S840
S0
G1 X218.669 S836
S0
G1 X219.050 S832
S0
G1 X219.177 S828
S0
G1 X219.304 S824
S0
G1 X219.431 S852
S0
G1 X219.558 S831
S0
G1 X219.685 S828
S0
G1 X219.812 S823
S0
G1 X219.939 S953
S0
G1 X220.066 S769
S0
G1 X220.193 S64
S0
G1 X220.320 S1
S0
G1 X220.447 S9
S0
G1 X220.955 S5
S0
G1 X221.082 S9
S0
G1 X226.416 S5
S0
G1 X226.543 S9
S0
G1 X226.670 S2
S0
G1 X226.797 S5
S0
G1 X226.924 S2
S0
G1 X227.178 S5
S0
G1 X227.305 S2
S0
G1 X227.559 S5
S0
G1 X227.686 S2
S0
G1 X228.067 S5
S0
G1 X228.194 S2
S0
G1 X235.433 S5
S0
G0 Y47.879
G0 X235.433 S0
G1 X227.940 S5
S0
G1 X227.813 S2
S0
G1 X227.432 S5
S0
G1 X227.305 S2
S0
G1 X227.178 S9
S0
G1 X226.924 S2
S0
G1 X226.797 S9
S0
G1 X220.447 S5
S0
G1 X220.320 S9
S0
G1 X220.193 S2
S0
G1 X220.066 S440
S0
G1 X219.939 S972
S0
G1 X219.812 S840
S0
G1 X219.685 S842
S0
G1 X219.558 S838
S0
G1 X219.431 S826
S0
G1 X219.304 S835
S0
G1 X219.050 S834
S0
G1 X218.669 S831
S0
G1 X218.288 S834
S0
G1 X218.161 S838
S0
G1 X218.034 S827
S0
G1 X217.907 S835
S0
G1 X217.780 S831
S0
G1 X217.653 S823
S0
G1 X217.526 S916
S0
G1 X217.399 S695
S0
G1 X217.272 S20
S0
G1 X217.145 S2
S0
G1 X217.018 S16
S0
G1 X216.510 S5
S0
G1 X216.383 S9
S0
G1 X200.000 S5
S0
G0 Y47.752
G0 X200.000 S0
G1 X216.891 S5
S0
G1 X217.018 S2
S0
G1 X217.145 S16
S0
G1 X217.272 S2
S0
G1 X217.399 S259
S0
G1 X217.526 S891
S0
G1 X217.653 S859
S0
G1 X217.780 S838
S0
G1 X217.907 S836
S0
G1 X218.034 S830
S0
G1 X218.161 S836
S0
G1 X219.304 S834
S0
G1 X219.431 S835
S0
G1 X219.558 S839
S0
G1 X219.685 S831
S0
G1 X219.812 S835
S0
G1 X219.939 S830
S0
G1 X220.066 S897
S0
G1 X220.193 S726
S0
G1 X220.320 S52
S0
G1 X220.447 S5
S0
G1 X220.574 S2
S0
G1 X226.670 S5
S0
G1 X226.797 S9
S0
G1 X227.305 S5
S0
G1 X227.432 S8
S0
G1 X227.686 S5
S0
G1 X227.940 S9
S0
G1 X228.067 S5
S0
G1 X228.194 S2
S0
G1 X235.433 S5
S0
G0 Y47.625
G0 X235.433 S0
G1 X228.448 S5
S0
G1 X228.321 S9
S0
G1 X228.067 S5
S0
G1 X227.940 S9
S0
G1 X227.686 S2
S0
G1 X227.559 S9
S0
G1 X220.574 S5
S0
G1 X220.320 S2
S0
G1 X220.193 S258
S0
G1 X220.066 S899
S0
G1 X219.939 S843
S0
G1 X219.812 S826
S0
G1 X219.685 S844
S0
G1 X219.558 S835
S0
G1 X219.431 S836
S0
G1 X219.304 S832
S0
G1 X219.050 S834
S0
G1 X218.923 S838
S0
G1 X218.542 S834
S0
G1 X218.415 S838
S0
G1 X218.288 S834
S0
G1 X218.161 S838
S0
G1 X217.907 S836
S0
G1 X217.780 S839
S0
G1 X217.653 S834
S0
G1 X217.526 S838
S0
G1 X217.399 S920
S0
G1 X217.272 S532
S0
G0 X217.145 S0
G1 X217.018 S3
S0
G1 X216.891 S2
S0
G1 X200.000 S5
S0
G0 Y47.498
G0 X200.000 S0
G1 X216.383 S5
S0
G1 X216.510 S2
S0
G1 X216.764 S5
S0
G1 X216.891 S2
S0
G1 X217.018 S5
S0
G0 X217.145 S0
G1 X217.272 S28
S0
G1 X217.399 S713
S0
G1 X217.526 S910
S0
G1 X217.907 S834
S0
G1 X218.161 S836
S0
G1 X218.288 S835
S0
G1 X219.050 S834
S0
G1 X219.304 S838
S0
G1 X219.558 S836
S0
G1 X219.685 S835
S0
G1 X219.812 S831
S0
G1 X219.939 S838
S0
G1 X220.066 S839
S0
G1 X220.193 S922
S0
G1 X220.320 S452
S0
G1 X220.574 S2
S0
G1 X226.797 S5
S0
G1 X226.924 S9
S0
G1 X227.051 S2
S0
G1 X227.178 S9
S0
G1 X227.432 S5
S0
G1 X227.559 S2
S0
G1 X227.686 S5
S0
G1 X227.813 S9
S0
G1 X227.940 S5
S0
G1 X228.067 S2
S0
G1 X235.433 S5
S0
G0 Y47.371
G0 X235.433 S0
G1 X228.448 S5
S0
G1 X228.321 S9
S0
G1 X228.067 S5
S0
G1 X227.940 S2
S0
G1 X227.813 S5
S0
G1 X227.686 S9
S0
G1 X227.432 S2
S0
G1 X227.051 S5
S0
G1 X226.924 S7
S0
G1 X226.797 S2
S0
G1 X226.670 S5
S0
G1 X226.543 S9
S0
G1 X220.574 S5
S0
G1 X220.320 S2
S0
G1 X220.193 S560
S0
G1 X220.066 S905
S0
G1 X219.939 S834
S0
G1 X219.812 S840
S0
G1 X219.685 S835
S0
G1 X219.558 S838
S0
G1 X219.431 S833
S0
G1 X219.304 S836
S0
G1 X218.923 S834
S0
G1 X218.669 S838
S0
G1 X218.288 S834
S0
G1 X218.161 S839
S0
G1 X218.034 S833
S0
G1 X217.907 S836
S0
G1 X217.780 S839
S0
G1 X217.653 S838
S0
G1 X217.526 S834
S0
G1 X217.399 S901
S0
G1 X217.272 S792
S0
G1 X217.145 S102
S0
G1 X217.018 S3
S0
G1 X216.891 S9
S0
G1 X216.383 S5
S0
G1 X216.256 S2
S0
G1 X200.000 S5
S0
G0 Y47.244
G0 X200.000 S0
G1 X216.256 S5
S0
G1 X216.383 S2
S0
G1 X216.510 S5
S0
G1 X216.637 S2
S0
G1 X216.764 S5
S0
G1 X216.891 S9
S0
G1 X217.018 S5
S0
G1 X217.145 S3
S0
G1 X217.272 S154
S0
G1 X217.399 S820
S0
G1 X217.526 S875
S0
G1 X217.653 S831
S0
G1 X217.780 S838
S0
G1 X217.907 S832
S0
G1 X218.034 S826
S0
G1 X218.161 S840
S0
G1 X218.288 S831
S0
G1 X218.542 S834
S0
G1 X218.669 S831
S0
G1 X218.796 S834
S0
G1 X218.923 S838
S0
G1 X219.304 S834
S0
G1 X219.431 S832
S0
G1 X219.558 S839
S0
G1 X219.685 S834
S0
G1 X219.812 S835
S0
G1 X219.939 S832
S0
G1 X220.066 S831
S0
G1 X220.193 S922
S0
G1 X220.320 S600
S0
G1 X220.574 S2
S0
G1 X226.670 S5
S0
G1 X226.797 S16
S0
G1 X226.924 S11
S0
G1 X227.178 S7
S0
G1 X227.305 S3
S0
G0 X227.559 S0
G1 X227.686 S3
S0
G1 X227.813 S7
S0
G1 X227.940 S3
S0
G1 X228.067 S2
S0
G1 X228.194 S5
S0
G1 X228.321 S2
S0
G1 X235.433 S5
S0
G0 Y47.117
G0 X235.433 S0
G1 X227.940 S5
S0
G0 X227.686 S0
G1 X227.559 S211
S0
G1 X227.432 S552
S0
G1 X227.305 S306
S0
G1 X227.051 S1
S0
G1 X226.924 S15
S0
G1 X226.797 S7
S0
G1 X226.670 S9
S0
G1 X226.543 S2
S0
G1 X220.574 S5
S0
G1 X220.447 S2
S0
G1 X220.320 S5
S0
G1 X220.193 S588
S0
G1 X220.066 S906
S0
G1 X219.939 S843
S0
G1 X219.812 S838
S0
G1 X219.685 S832
S0
G1 X219.558 S835
S0
G1 X219.304 S836
S0
G1 X219.177 S838
S0
G1 X218.288 S834
S0
G1 X218.161 S836
S0
G1 X218.034 S832
S0
G1 X217.907 S834
S0
G1 X217.780 S836
S0
G1 X217.653 S834
S0
G1 X217.526 S843
S0
G1 X217.399 S875
S0
G1 X217.272 S813
S0
G1 X217.145 S149
S0
G1 X216.891 S2
S0
G1 X200.000 S5
S0
G0 Y46.990
G0 X200.000 S0
G1 X216.637 S5
S0
G1 X216.764 S9
S0
G1 X217.018 S5
S0
G0 X217.145 S0
G1 X217.272 S83
S0
G1 X217.399 S780
S0
G1 X217.526 S895
S0
G1 X217.653 S835
S0
G1 X217.780 S834
S0
G1 X217.907 S838
S0
G1 X218.034 S830
S0
G1 X218.161 S833
S0
G1 X218.796 S834
S0
G1 X219.050 S838
S0
G1 X219.304 S834
S0
G1 X219.431 S832
S0
G1 X219.558 S836
S0
G1 X219.685 S831
S0
G1 X219.812 S834
S0
G1 X219.939 S836
S0
G1 X220.066 S823
S0
G1 X220.193 S926
S0
G1 X220.320 S541
S0
G1 X220.574 S2
S0
G1 X221.082 S5
S0
G1 X221.209 S9
S0
G1 X225.400 S5
S0
G1 X225.527 S9
S0
G1 X225.654 S2
S0
G1 X225.781 S5
S0
G1 X225.908 S9
S0
G1 X226.035 S5
S0
G1 X226.162 S8
S0
G1 X226.543 S5
S0
G1 X226.797 S9
S0
G1 X226.924 S7
S0
G0 X227.178 S0
G1 X227.305 S397
S0
G1 X227.432 S773
S0
G1 X227.559 S828
S0
G1 X227.686 S701
S0
G1 X227.813 S137
S0
G0 X228.067 S0
G1 X228.194 S7
S0
G1 X228.321 S9
S0
G1 X235.433 S5
S0
G0 Y46.863
G0 X235.433 S0
G1 X228.321 S5
S0
G1 X228.194 S7
S0
G1 X228.067 S3
S0
G0 X227.813 S0
G1 X227.686 S483
S0
G1 X227.559 S827
S0
G1 X227.432 S660
S0
G1 X227.305 S717
S0
G1 X227.178 S819
S0
G1 X227.051 S541
S0
G1 X226.924 S90
S0
G1 X226.797 S2
S0
G1 X226.670 S15
S0
G0 X226.543 S0
G1 X226.289 S5
S0
G1 X226.162 S8
S0
G1 X225.908 S5
S0
G1 X225.781 S2
S0
G1 X225.527 S9
S0
G1 X225.400 S2
S0
G1 X220.574 S5
S0
G1 X220.320 S2
S0
G1 X220.193 S405
S0
G1 X220.066 S918
S0
G1 X219.939 S843
S0
G1 X219.812 S826
S0
G1 X219.685 S839
S0
G1 X219.558 S831
S0
G1 X219.304 S832
S0
G1 X218.542 S834
S0
G1 X218.415 S838
S0
G1 X218.161 S834
S0
G1 X218.034 S836
S0
G1 X217.907 S833
S0
G1 X217.780 S836
S0
G1 X217.653 S839
S0
G1 X217.526 S831
S0
G1 X217.399 S926
S0
G1 X217.272 S666
S0
G1 X217.145 S5
S0
G0 X217.018 S0
G1 X216.891 S9
S0
G1 X216.637 S5
S0
G1 X216.510 S2
S0
G1 X216.383 S5
S0
G1 X216.256 S2
S0
G1 X200.000 S5
S0
G0 Y46.736
G0 X200.000 S0
G1 X216.510 S5
S0
G1 X216.637 S2
S0
G1 X216.764 S9
S0
G1 X216.891 S5
S0
G1 X217.018 S2
S0
G1 X217.145 S7
S0
G1 X217.272 S3
S0
G1 X217.399 S468
S0
G1 X217.526 S941
S0
G1 X217.653 S834
S0
G1 X217.780 S838
S0
G1 X218.034 S831
S0
G1 X218.161 S835
S0
G1 X218.288 S836
S0
G1 X219.050 S834
S0
G1 X219.177 S838
S0
G1 X219.304 S834
S0
G1 X219.431 S835
S0
G1 X219.558 S836
S0
G1 X219.685 S835
S0
G1 X219.812 S836
S0
G1 X219.939 S835
S0
G1 X220.066 S858
S0
G1 X220.193 S863
S0
G1 X220.320 S231
S0
G1 X220.447 S2
S0
G1 X220.574 S5
S0
G1 X220.701 S9
S0
G1 X225.781 S5
S0
G1 X225.908 S7
S0
G1 X226.162 S5
S0
G1 X226.289 S8
S0
G1 X226.543 S9
S0
G1 X226.670 S2
S0
G0 X226.797 S0
G1 X226.924 S169
S0
G1 X227.051 S658
S0
G1 X227.178 S812
S0
G1 X227.305 S698
S0
G1 X227.432 S675
S0
G1 X227.559 S762
S0
G1 X227.686 S979
S0
G1 X227.813 S455
S0
G1 X227.940 S4
S0
G1 X228.067 S3
S0
G1 X228.321 S2
S0
G1 X228.448 S9
S0
G1 X235.433 S5
S0
G0 Y46.609
G0 X235.433 S0
G1 X227.940 S5
S0
G1 X227.813 S2
S0
G1 X227.686 S1
S0
G1 X227.559 S487
S0
G1 X227.432 S930
S0
G1 X227.305 S824
S0
G1 X227.178 S664
S0
G1 X227.051 S678
S0
G1 X226.924 S780
S0
G1 X226.797 S725
S0
G1 X226.670 S262
S0
G1 X226.416 S2
S0
G1 X226.289 S16
S0
G1 X226.162 S12
S0
G1 X226.035 S8
S0
G1 X225.908 S5
S0
G1 X225.781 S3
S0
G1 X225.654 S2
S0
G1 X220.447 S5
S0
G1 X220.320 S2
S0
G1 X220.193 S9
S0
G1 X220.066 S689
S0
G1 X219.939 S928
S0
G1 X219.812 S824
S0
G1 X219.685 S828
S0
G1 X219.558 S829
S0
G1 X219.431 S832
S0
G1 X219.304 S831
S0
G1 X218.288 S836
S0
G1 X218.161 S833
S0
G1 X218.034 S828
S0
G1 X217.907 S844
S0
G1 X217.653 S838
S0
G1 X217.526 S855
S0
G1 X217.399 S878
S0
G1 X217.272 S213
S0
G1 X217.145 S2
S0
G1 X217.018 S12
S0
G1 X200.000 S5
S0
G0 Y46.482
G0 X200.000 S0
G1 X216.637 S5
S0
G1 X216.764 S2
S0
G1 X216.891 S5
S0
G1 X217.018 S9
S0
G1 X217.145 S12
S0
G1 X217.272 S2
S0
G0 X217.399 S0
G1 X217.526 S627
S0
G1 X217.653 S944
S0
G1 X217.780 S827
S0
G1 X217.907 S835
S0
G1 X218.034 S824
S0
G1 X218.161 S844
S0
G1 X218.288 S836
S0
G1 X218.415 S832
S0
G1 X218.669 S836
S0
G1 X218.796 S832
S0
G1 X219.304 S836
S0
G1 X219.431 S828
S0
G1 X219.558 S836
S0
G1 X219.685 S831
S0
G1 X219.812 S827
S0
G1 X219.939 S844
S0
G1 X220.066 S960
S0
G1 X220.193 S344
S0
G1 X220.320 S3
S0
G1 X220.447 S9
S0
G1 X225.527 S5
S0
G1 X225.654 S2
S0
G1 X225.908 S5
S0
G1 X226.035 S2
S0
G1 X226.162 S12
S0
G1 X226.289 S8
S0
G1 X226.416 S2
S0
G1 X226.543 S12
S0
G1 X226.670 S404
S0
G1 X226.797 S776
S0
G1 X226.924 S730
S0
G1 X227.178 S674
S0
G1 X227.432 S874
S0
G1 X227.559 S342
S0
G0 X227.686 S0
G1 X227.813 S2
S0
G1 X227.940 S7
S0
G1 X228.067 S9
S0
G1 X228.194 S5
S0
G1 X228.321 S2
S0
G1 X235.433 S5
S0
G0 Y46.355
G0 X235.433 S0
G1 X228.321 S5
S0
G1 X228.194 S7
S0
G0 X228.067 S0
G1 X227.940 S2
S0
G1 X227.813 S5
S0
G1 X227.686 S15
S0
G1 X227.559 S1
S0
G1 X227.432 S3
S0
G1 X227.305 S181
S0
G1 X227.178 S784
S0
G1 X227.051 S917
S0
G1 X226.924 S725
S0
G1 X226.797 S671
S0
G1 X226.670 S713
S0
G1 X226.543 S800
S0
G1 X226.416 S548
S0
G1 X226.289 S79
S0
G0 X226.162 S0
G1 X226.035 S16
S0
G1 X225.781 S5
S0
G0 X225.654 S0
G1 X225.527 S7
S0
G1 X220.447 S5
S0
G1 X220.320 S9
S0
G1 X220.193 S2
S0
G1 X220.066 S9
S0
G1 X219.939 S650
S0
G1 X219.812 S951
S0
G1 X219.685 S827
S0
G1 X219.558 S831
S0
G1 X219.304 S833
S0
G1 X219.177 S831
S0
G1 X218.923 S835
S0
G1 X218.796 S831
S0
G1 X218.542 S835
S0
G1 X218.415 S831
S0
G1 X218.288 S839
S0
G1 X218.161 S840
S0
G1 X218.034 S839
S0
G1 X217.907 S840
S0
G1 X217.780 S843
S0
G1 X217.653 S886
S0
G1 X217.526 S838
S0
G1 X217.399 S176
S0
G1 X217.272 S2
S0
G1 X217.145 S12
S0
G1 X217.018 S16
S0
G1 X216.891 S2
S0
G1 X200.000 S5
S0
G0 Y46.228
G0 X200.000 S0
G1 X216.764 S5
S0
G1 X216.891 S2
S0
G1 X217.018 S5
S0
G1 X217.145 S19
S0
G1 X217.272 S16
S0
G1 X217.399 S7
S0
G1 X217.526 S1
S0
G1 X217.653 S368
S0
G1 X217.780 S915
S0
G1 X217.907 S848
S0
G1 X218.034 S843
S0
G1 X218.161 S824
S0
G1 X218.288 S834
S0
G1 X218.415 S838
S0
G1 X218.542 S826
S0
G1 X218.669 S830
S0
G1 X218.796 S838
S0
G1 X219.050 S834
S0
G1 X219.177 S838
S0
G1 X219.304 S834
S0
G1 X219.431 S833
S0
G1 X219.558 S834
S0
G1 X219.685 S824
S0
G1 X219.812 S918
S0
G1 X219.939 S814
S0
G1 X220.066 S141
S0
G1 X220.193 S5
S0
G1 X220.320 S12
S0
G1 X220.447 S9
S0
G1 X225.400 S5
S0
G1 X225.527 S2
S0
G1 X225.781 S4
S0
G1 X226.035 S5
S0
G1 X226.162 S1
S0
G1 X226.289 S172
S0
G1 X226.416 S655
S0
G1 X226.543 S812
S0
G1 X226.670 S690
S0
G1 X226.797 S667
S0
G1 X226.924 S769
S0
G1 X227.051 S925
S0
G1 X227.178 S635
S0
G1 X227.305 S67
S0
G1 X227.432 S2
S0
G1 X227.559 S8
S0
G1 X227.686 S23
S0
G1 X227.940 S3
S0
G1 X228.067 S5
S0
G1 X228.194 S9
S0
G1 X228.321 S2
S0
G1 X228.448 S3
S0
G1 X235.433 S5
S0
G0 Y46.101
G0 X235.433 S0
G1 X227.813 S5
S0
G1 X227.559 S3
S0
G1 X227.432 S8
S0
G1 X227.305 S7
S0
G1 X227.178 S2
S0
G1 X227.051 S4
S0
G1 X226.924 S486
S0
G1 X226.797 S941
S0
G1 X226.670 S824
S0
G1 X226.543 S666
S0
G1 X226.416 S671
S0
G1 X226.289 S776
S0
G1 X226.162 S729
S0
G1 X226.035 S281
S0
G1 X225.908 S5
S0
G1 X225.781 S2
S0
G1 X225.527 S8
S0
G1 X225.400 S12
S0
G1 X220.574 S5
S0
G1 X220.320 S9
S0
G1 X220.193 S8
S0
G1 X220.066 S2
S0
G1 X219.939 S3
S0
G1 X219.812 S231
S0
G1 X219.685 S854
S0
G1 X219.558 S942
S0
G1 X219.431 S832
S0
G1 X219.304 S827
S0
G1 X219.177 S846
S0
G1 X218.923 S830
S0
G1 X218.796 S842
S0
G1 X218.669 S838
S0
G1 X218.288 S830
S0
G1 X218.161 S826
S0
G1 X218.034 S827
S0
G1 X217.907 S836
S0
G1 X217.780 S996
S0
G1 X217.653 S585
S0
G1 X217.526 S2
S0
G0 X217.399 S0
G1 X217.272 S16
S0
G1 X200.000 S5
S0
G0 Y45.974
G0 X200.000 S0
G1 X214.351 S5
S0
G1 X214.478 S3
S0
G1 X215.240 S5
S0
G1 X215.367 S1
S0
G1 X215.494 S5
S0
G1 X215.621 S2
S0
G1 X217.272 S5
S0
G1 X217.399 S2
S0
G1 X217.526 S5
S0
G0 X217.653 S0
G1 X217.780 S110
S0
G1 X217.907 S694
S0
G1 X218.034 S960
S0
G1 X218.161 S901
S0
G1 X218.288 S855
S0
G1 X218.415 S823
S0
G1 X218.669 S843
S0
G1 X218.796 S815
S0
G1 X218.923 S847
S0
G1 X219.050 S826
S0
G1 X219.177 S830
S0
G1 X219.304 S842
S0
G1 X219.431 S895
S0
G1 X219.558 S953
S0
G1 X219.685 S740
S0
G1 X219.812 S182
S0
G1 X219.939 S2
S0
G1 X220.066 S5
S0
G1 X220.193 S16
S0
G1 X220.320 S2
S0
G1 X220.447 S3
S0
G1 X224.765 S5
S0
G1 X224.892 S3
S0
G0 X225.019 S0
G1 X225.146 S2
S0
G1 X225.273 S5
S0
G1 X225.400 S3
S0
G1 X225.527 S15
S0
G1 X225.654 S12
S0
G1 X225.781 S2
S0
G1 X225.908 S9
S0
G1 X226.035 S419
S0
G1 X226.162 S780
S0
G1 X226.289 S741
S0
G1 X226.416 S682
S0
G1 X226.543 S686
S0
G1 X226.670 S875
S0
G1 X226.797 S893
S0
G1 X226.924 S338
S0
G1 X227.051 S4
S0
G0 X227.178 S0
G1 X227.305 S5
S0
G1 X227.432 S2
S0
G1 X235.433 S5
S0
G0 Y45.847
G0 X235.433 S0
G1 X227.305 S5
S0
G1 X227.178 S2
S0
G1 X227.051 S8
S0
G1 X226.797 S2
S0
G1 X226.670 S216
S0
G1 X226.543 S797
S0
G1 X226.416 S925
S0
G1 X226.289 S718
S0
G1 X226.162 S681
S0
G1 X226.035 S709
S0
G1 X225.908 S803
S0
G1 X225.781 S532
S0
G1 X225.654 S75
S0
G1 X225.527 S2
S0
G1 X225.400 S7
S0
G1 X225.273 S3
S0
G1 X225.146 S5
S0
G1 X224.892 S2
S0
G1 X224.765 S3
S0
G1 X220.574 S5
S0
G1 X220.193 S3
S0
G1 X219.939 S9
S0
G1 X219.685 S5
S0
G1 X219.558 S54
S0
G1 X219.431 S460
S0
G1 X219.304 S807
S0
G1 X219.177 S933
S0
G1 X219.050 S949
S0
G1 X218.923 S902
S0
G1 X218.796 S861
S0
G1 X218.669 S873
S0
G1 X218.542 S871
S0
G1 X218.415 S891
S0
G1 X218.288 S956
S0
G1 X218.161 S926
S0
G1 X218.034 S776
S0
G1 X217.907 S411
S0
G1 X217.780 S38
S0
G1 X217.653 S2
S0
G1 X217.526 S12
S0
G1 X217.399 S9
S0
G1 X216.129 S5
S0
G1 X215.748 S3
S0
G1 X215.621 S2
S0
G1 X215.367 S5
S0
G1 X215.240 S3
S0
G1 X215.113 S5
S0
G1 X214.986 S7
S0
G1 X214.859 S5
S0
G1 X214.732 S6
S0
G1 X214.478 S5
S0
G1 X214.351 S3
S0
G1 X200.000 S5
S0
G0 Y45.720
G0 X200.000 S0
G1 X214.732 S5
S0
G1 X214.859 S3
S0
G1 X215.367 S5
S0
G1 X215.494 S2
S0
G1 X215.621 S7
S0
G1 X216.129 S5
S0
G1 X216.256 S8
S0
G1 X217.018 S5
S0
G1 X217.145 S6
S0
G1 X217.272 S4
S0
G1 X217.399 S5
S0
G1 X217.526 S8
S0
G1 X217.653 S5
S0
G1 X217.780 S23
S0
G1 X217.907 S5
S0
G0 X218.034 S0
G1 X218.161 S58
S0
G1 X218.288 S331
S0
G1 X218.415 S569
S0
G1 X218.542 S714
S0
G1 X218.669 S780
S0
G1 X218.796 S804
S0
G1 X218.923 S784
S0
G1 X219.050 S721
S0
G1 X219.177 S580
S0
G1 X219.304 S381
S0
G1 X219.431 S119
S0
G1 X219.558 S3
S0
G1 X219.685 S2
S0
G1 X219.812 S9
S0
G1 X220.066 S5
S0
G1 X220.193 S7
S0
G1 X220.320 S12
S0
G1 X220.574 S3
S0
G1 X224.765 S5
S0
G1 X224.892 S9
S0
G1 X225.146 S2
S0
G1 X225.273 S5
S0
G1 X225.400 S2
S0
G0 X225.527 S0
G1 X225.654 S144
S0
G1 X225.781 S646
S0
G1 X225.908 S803
S0
G1 X226.035 S683
S0
G1 X226.162 S670
S0
G1 X226.289 S751
S0
G1 X226.416 S949
S0
G1 X226.543 S652
S0
G1 X226.670 S70
S0
G0 X226.797 S0
G1 X226.924 S16
S0
G1 X227.051 S27
S0
G1 X227.178 S15
S0
G1 X227.305 S2
S0
G1 X235.433 S5
S0
G0 Y45.593
G0 X235.433 S0
G1 X227.178 S5
S0
G1 X227.051 S9
S0
G1 X226.924 S12
S0
G1 X226.797 S16
S0
G1 X226.543 S2
S0
G0 X226.416 S0
G1 X226.289 S471
S0
G1 X226.162 S922
S0
G1 X226.035 S832
S0
G1 X225.908 S666
S0
G1 X225.781 S670
S0
G1 X225.654 S828
S0
G1 X225.527 S601
S0
G1 X225.400 S39
S0
G1 X225.019 S2
S0
G1 X224.765 S5
S0
G1 X224.638 S2
S0
G1 X224.511 S5
S0
G1 X224.384 S9
S0
G1 X220.447 S5
S0
G1 X220.320 S3
S0
G1 X220.193 S4
S0
G1 X220.066 S3
S0
G1 X219.939 S2
S0
G1 X219.812 S5
S0
G1 X219.685 S16
S0
G1 X219.558 S12
S0
G1 X219.431 S16
S0
G1 X219.177 S2
S0
G0 X219.050 S0
G1 X218.923 S31
S0
G1 X218.796 S110
S0
G1 X218.669 S122
S0
G1 X218.542 S106
S0
G1 X218.415 S23
S0
G1 X218.288 S2
S0
G0 X218.161 S0
G1 X218.034 S3
S0
G1 X217.907 S2
S0
G1 X217.780 S5
S0
G1 X217.653 S12
S0
G1 X217.526 S9
S0
G1 X217.399 S1
S0
G1 X217.272 S5
S0
G1 X217.145 S4
S0
G1 X217.018 S6
S0
G1 X216.256 S5
S0
G1 X216.129 S8
S0
G1 X215.875 S5
S0
G1 X215.748 S7
S0
G1 X215.621 S13
S0
G1 X215.494 S4
S0
G1 X215.367 S6
S0
G1 X215.240 S5
S0
G1 X215.113 S4
S0
G1 X214.986 S9
S0
G1 X214.859 S5
S0
G1 X214.732 S7
S0
G1 X212.446 S5
S0
G1 X212.192 S3
S0
G1 X212.065 S5
S0
G1 X211.557 S3
S0
G1 X200.000 S5
S0
G0 Y45.466
G0 X200.000 S0
G1 X211.430 S5
S0
G1 X212.573 S3
S0
G1 X214.732 S5
S0
G1 X214.859 S9
S0
G1 X214.986 S5
S0
G1 X215.113 S7
S0
G1 X215.367 S8
S0
G1 X215.494 S17
S0
G1 X215.621 S9
S0
G1 X215.748 S12
S0
G1 X215.875 S8
S0
G1 X216.002 S10
S0
G1 X216.129 S5
S0
G1 X216.256 S2
S0
G1 X217.018 S5
S0
G1 X217.399 S4
S0
G1 X217.526 S7
S0
G1 X217.780 S2
S0
G1 X217.907 S3
S0
G1 X218.034 S2
S0
G1 X218.161 S5
S0
G1 X218.288 S2
S0
G0 X218.669 S0
G1 X218.796 S3
S0
G0 X218.923 S0
G1 X219.177 S2
S0
G1 X219.431 S5
S0
G1 X219.685 S2
S0
G1 X219.939 S5
S0
G1 X220.066 S2
S0
G1 X220.193 S5
S0
G1 X220.320 S3
S0
G1 X224.384 S5
S0
G1 X224.511 S8
S0
G1 X224.765 S12
S0
G1 X224.892 S2
S0
G1 X225.146 S12
S0
G0 X225.273 S0
G1 X225.400 S133
S0
G1 X225.527 S651
S0
G1 X225.654 S775
S0
G1 X225.781 S657
S0
G1 X225.908 S677
S0
G1 X226.035 S898
S0
G1 X226.162 S886
S0
G1 X226.289 S337
S0
G1 X226.416 S5
S0
G1 X226.543 S2
S0
G1 X226.670 S8
S0
G1 X226.924 S2
S0
G1 X227.051 S7
S0
G1 X227.178 S9
S0
G1 X227.305 S2
S0
G1 X227.432 S8
S0
G1 X235.433 S5
S0
G0 Y45.339
G0 X235.433 S0
G1 X227.305 S5
S0
G1 X227.178 S9
S0
G1 X226.797 S5
S0
G1 X226.670 S2
S0
G1 X226.416 S9
S0
G1 X226.289 S1
S0
G1 X226.162 S2
S0
G1 X226.035 S173
S0
G1 X225.908 S801
S0
G1 X225.781 S926
S0
G1 X225.654 S725
S0
G1 X225.527 S650
S0
G1 X225.400 S781
S0
G1 X225.273 S736
S0
G1 X225.146 S252
S0
G0 X225.019 S0
G1 X224.892 S2
S0
G1 X224.765 S3
S0
G1 X224.638 S12
S0
G0 X224.511 S0
G1 X224.384 S8
S0
G1 X220.066 S5
S0
G1 X219.939 S12
S0
G1 X219.812 S2
S0
G1 X219.685 S9
S0
G1 X219.558 S5
S0
G1 X219.431 S9
S0
G1 X219.177 S5
S0
G1 X219.050 S8
S0
G1 X218.923 S5
S0
G1 X218.796 S3
S0
G0 X218.669 S0
G1 X218.542 S5
S0
G1 X218.415 S9
S0
G1 X217.780 S5
S0
G1 X217.653 S1
S0
G1 X217.526 S5
S0
G1 X217.399 S4
S0
G1 X217.272 S7
S0
G1 X217.018 S4
S0
G1 X216.129 S5
S0
G1 X215.875 S3
S0
G1 X215.748 S4
S0
G1 X215.621 S9
S0
G1 X215.367 S8
S0
G1 X215.240 S5
S0
G1 X215.113 S8
S0
G1 X214.986 S7
S0
G1 X214.859 S9
S0
G1 X214.732 S12
S0
G1 X212.446 S5
S0
G1 X211.430 S3
S0
G1 X200.000 S5
S0
G0 Y45.212
G0 X200.000 S0
G1 X214.732 S5
S0
G1 X214.859 S9
S0
G1 X214.986 S5
S0
G1 X215.113 S4
S0
G1 X215.240 S7
S0
G1 X215.367 S8
S0
G1 X215.494 S5
S0
G1 X215.621 S7
S0
G1 X215.748 S4
S0
G1 X215.875 S9
S0
G1 X216.129 S5
S0
G1 X216.256 S7
S0
G1 X217.145 S5
S0
G1 X217.272 S4
S0
G1 X217.399 S2
S0
G1 X217.526 S6
S0
G1 X217.653 S2
S0
G1 X218.288 S5
S0
G1 X218.415 S9
S0
G1 X218.542 S5
S0
G1 X218.669 S2
S0
G1 X218.923 S5
S0
G1 X219.050 S2
S0
G1 X219.685 S5
S0
G1 X219.812 S9
S0
G1 X219.939 S5
S0
G1 X220.066 S2
S0
G1 X220.193 S5
S0
G1 X220.320 S2
S0
G1 X224.384 S5
S0
G1 X224.511 S12
S0
G1 X224.765 S7
S0
G0 X224.892 S0
G1 X225.019 S1
S0
G1 X225.146 S380
S0
G1 X225.273 S777
S0
G1 X225.400 S758
S0
G1 X225.527 S659
S0
G1 X225.654 S750
S0
G1 X225.781 S937
S0
G1 X225.908 S628
S0
G1 X226.035 S66
S0
G1 X226.162 S2
S0
G1 X226.416 S5
S0
G1 X226.543 S7
S0
G1 X226.670 S9
S0
G1 X235.433 S5
S0
G0 Y45.085
G0 X235.433 S0
G1 X226.670 S5
S0
G1 X226.543 S8
S0
G1 X226.416 S5
S0
G1 X226.289 S12
S0
G1 X226.162 S5
S0
G1 X226.035 S7
S0
G1 X225.781 S2
S0
G1 X225.654 S466
S0
G1 X225.527 S882
S0
G1 X225.400 S729
S0
G1 X225.273 S667
S0
G1 X225.146 S728
S0
G1 X225.019 S802
S0
G1 X224.892 S522
S0
G1 X224.765 S66
S0
G1 X224.638 S2
S0
G0 X224.511 S0
G1 X224.384 S4
S0
G1 X221.082 S5
S0
G1 X220.955 S3
S0
G1 X220.193 S5
S0
G1 X220.066 S2
S0
G1 X219.939 S9
S0
G1 X219.812 S5
S0
G1 X219.685 S2
S0
G1 X218.796 S5
S0
G1 X218.669 S2
S0
G1 X218.542 S9
S0
G1 X218.288 S3
S0
G1 X217.653 S5
S0
G1 X217.272 S3
S0
G1 X217.018 S6
S0
G1 X216.256 S5
S0
G1 X216.129 S7
S0
G1 X216.002 S4
S0
G1 X215.875 S5
S0
G1 X215.748 S12
S0
G1 X215.621 S15
S0
G1 X215.494 S74
S0
G1 X215.367 S56
S0
G1 X215.113 S6
S0
G1 X214.986 S4
S0
G1 X214.859 S6
S0
G1 X214.732 S5
S0
G1 X214.605 S2
S0
G1 X200.000 S5
S0
G0 Y44.958
G0 X200.000 S0
G1 X210.414 S5
S0
G1 X210.795 S3
S0
G1 X210.922 S5
S0
G1 X211.049 S2
S0
G1 X211.176 S9
S0
G1 X211.303 S8
S0
G1 X211.430 S2
S0
G1 X211.557 S5
S0
G1 X211.684 S12
S0
G1 X212.065 S2
S0
G1 X212.192 S7
S0
G1 X212.319 S5
S0
G1 X212.446 S2
S0
G1 X212.573 S9
S0
G1 X213.843 S5
S0
G1 X214.097 S9
S0
G1 X214.224 S7
S0
G1 X214.478 S5
S0
G1 X214.605 S6
S0
G1 X214.732 S3
S0
G1 X214.859 S5
S0
G1 X214.986 S6
S0
G1 X215.113 S10
S0
G1 X215.240 S7
S0
G1 X215.367 S5
S0
G1 X215.494 S148
S0
G1 X215.621 S279
S0
G1 X215.748 S38
S0
G1 X215.875 S11
S0
G1 X216.129 S5
S0
G1 X216.256 S2
S0
G1 X216.383 S5
S0
G1 X216.510 S7
S0
G1 X216.637 S3
S0
G1 X216.764 S4
S0
G1 X217.018 S5
S0
G1 X217.145 S4
S0
G1 X217.272 S13
S0
G1 X217.399 S7
S0
G1 X217.526 S8
S0
G1 X217.653 S7
S0
G1 X217.780 S6
S0
G1 X218.034 S5
S0
G1 X218.161 S4
S0
G1 X218.288 S5
S0
G1 X218.415 S3
S0
G1 X218.923 S5
S0
G1 X219.050 S1
S0
G1 X219.685 S5
S0
G1 X219.939 S3
S0
G1 X220.066 S5
S0
G1 X220.193 S2
S0
G1 X220.320 S5
S0
G1 X220.447 S3
S0
G1 X220.828 S5
S0
G1 X220.955 S2
S0
G1 X221.082 S9
S0
G0 X221.209 S0
G1 X224.130 S5
S0
G1 X224.257 S4
S0
G1 X224.384 S8
S0
G1 X224.511 S11
S0
G0 X224.638 S0
G1 X224.765 S130
S0
G1 X224.892 S639
S0
G1 X225.019 S792
S0
G1 X225.146 S700
S0
G1 X225.273 S662
S0
G1 X225.400 S756
S0
G1 X225.527 S985
S0
G1 X225.654 S483
S0
G0 X225.781 S0
G1 X225.908 S2
S0
G1 X226.035 S12
S0
G1 X226.162 S9
S0
G1 X226.289 S2
S0
G1 X235.433 S5
S0
G0 Y44.831
G0 X235.433 S0
G1 X226.162 S5
S0
G1 X226.035 S2
S0
G1 X225.908 S8
S0
G1 X225.781 S15
S0
G1 X225.654 S2
S0
G1 X225.527 S16
S0
G1 X225.400 S521
S0
G1 X225.273 S972
S0
G1 X225.146 S804
S0
G1 X225.019 S670
S0
G1 X224.892 S686
S0
G1 X224.765 S781
S0
G1 X224.638 S738
S0
G1 X224.511 S254
S0
G0 X224.384 S0
G1 X224.257 S2
S0
G1 X224.130 S5
S0
G1 X224.003 S3
S0
G1 X223.876 S7
S0
G1 X223.749 S2
S0
G1 X223.622 S9
S0
G1 X223.495 S5
S0
G1 X223.368 S2
S0
G1 X221.209 S5
S0
G1 X221.082 S6
S0
G1 X220.955 S2
S0
G1 X220.701 S5
S0
G1 X220.574 S2
S0
G1 X220.320 S5
S0
G0 X220.193 S0
G1 X220.066 S9
S0
G1 X219.939 S2
S0
G1 X219.812 S9
S0
G1 X219.685 S2
S0
G1 X219.558 S7
S0
G1 X219.431 S5
S0
G1 X219.304 S3
S0
G1 X219.177 S9
S0
G1 X219.050 S3
S0
G1 X218.796 S5
S0
G1 X218.669 S3
S0
G1 X218.542 S5
S0
G1 X218.415 S1
S0
G1 X218.161 S5
S0
G1 X218.034 S8
S0
G1 X217.653 S5
S0
G1 X217.526 S9
S0
G1 X217.399 S4
S0
G1 X217.272 S8
S0
G1 X217.145 S7
S0
G1 X217.018 S10
S0
G1 X216.891 S5
S0
G1 X216.764 S7
S0
G1 X216.637 S1
S0
G1 X216.510 S4
S0
G1 X216.383 S9
S0
G1 X216.256 S5
S0
G1 X216.129 S9
S0
G1 X216.002 S1
S0
G1 X215.875 S5
S0
G1 X215.748 S1
S0
G1 X215.621 S102
S0
G1 X215.494 S423
S0
G1 X215.367 S186
S0
G1 X215.240 S2
S0
G1 X215.113 S8
S0
G1 X214.986 S14
S0
G1 X214.859 S11
S0
G1 X214.732 S9
S0
G1 X214.478 S5
S0
G1 X214.351 S3
S0
G1 X213.208 S5
S0
G1 X213.081 S2
S0
G1 X212.954 S7
S0
G1 X212.827 S2
S0
G1 X212.700 S9
S0
G1 X212.446 S5
S0
G1 X212.319 S8
S0
G1 X212.192 S12
S0
G1 X212.065 S15
S0
G0 X211.938 S0
G1 X211.811 S7
S0
G1 X211.557 S9
S0
G1 X211.176 S7
S0
G1 X211.049 S11
S0
G1 X210.922 S20
S0
G1 X210.541 S5
S0
G1 X210.414 S8
S0
G1 X200.000 S5
S0
G0 Y44.704
G0 X200.000 S0
G1 X210.160 S5
S0
G1 X210.287 S9
S0
G1 X210.541 S7
S0
G1 X210.668 S3
S0
G1 X210.795 S15
S0
G1 X210.922 S7
S0
G0 X211.176 S0
G1 X211.811 S2
S0
G0 X212.192 S0
G1 X212.446 S3
S0
G1 X212.573 S9
S0
G1 X212.827 S2
S0
G1 X214.732 S5
S0
G1 X214.859 S13
S0
G1 X215.113 S16
S0
G1 X215.240 S9
S0
G1 X215.367 S2
S0
G1 X215.494 S221
S0
G1 X215.621 S485
S0
G1 X215.748 S203
S0
G1 X215.875 S2
S0
G1 X216.002 S5
S0
G1 X216.129 S8
S0
G1 X216.256 S1
S0
G1 X216.510 S5
S0
G1 X216.764 S7
S0
G1 X216.891 S8
S0
G1 X217.018 S5
S0
G1 X217.145 S14
S0
G1 X217.272 S8
S0
G1 X217.399 S13
S0
G1 X217.526 S15
S0
G1 X217.780 S2
S0
G1 X217.907 S5
S0
G1 X218.034 S2
S0
G1 X218.161 S10
S0
G0 X218.288 S0
G1 X218.542 S5
S0
G1 X218.669 S7
S0
G1 X218.796 S3
S0
G1 X219.050 S5
S0
G1 X219.177 S8
S0
G1 X219.558 S5
S0
G1 X219.685 S7
S0
G1 X219.939 S5
S0
G1 X220.066 S8
S0
G1 X220.193 S2
S0
G1 X220.447 S5
S0
G1 X220.574 S2
S0
G1 X220.828 S5
S0
G1 X220.955 S4
S0
G1 X221.082 S7
S0
G1 X221.209 S6
S0
G1 X223.241 S5
S0
G1 X223.368 S3
S0
G1 X223.495 S9
S0
G1 X223.622 S5
S0
G1 X223.749 S2
S0
G1 X223.876 S16
S0
G1 X224.003 S3
S0
G1 X224.130 S11
S0
G1 X224.384 S2
S0
G1 X224.511 S376
S0
G1 X224.638 S777
S0
G1 X224.765 S752
S0
G1 X224.892 S662
S0
G1 X225.019 S693
S0
G1 X225.146 S871
S0
G1 X225.273 S898
S0
G1 X225.400 S365
S0
G1 X225.527 S2
S0
G1 X225.654 S5
S0
G1 X225.781 S8
S0
G1 X225.908 S2
S0
G1 X226.035 S8
S0
G1 X226.162 S9
S0
G1 X226.416 S5
S0
G1 X226.543 S2
S0
G1 X227.178 S5
S0
G1 X227.305 S9
S0
G1 X235.433 S5
S0
G0 Y44.577
G0 X235.433 S0
G1 X226.797 S5
S0
G1 X226.543 S2
S0
G1 X226.289 S5
S0
G1 X226.162 S3
S0
G1 X226.035 S2
S0
G1 X225.908 S12
S0
G1 X225.781 S5
S0
G1 X225.654 S8
S0
G1 X225.527 S5
S0
G1 X225.400 S2
S0
G1 X225.273 S5
S0
G1 X225.146 S212
S0
G1 X225.019 S791
S0
G1 X224.892 S925
S0
G1 X224.765 S696
S0
G1 X224.638 S663
S0
G1 X224.511 S721
S0
G1 X224.384 S780
S0
G1 X224.257 S518
S0
G1 X224.130 S63
S0
G1 X224.003 S2
S0
G1 X223.876 S8
S0
G1 X223.749 S9
S0
G1 X223.622 S2
S0
G1 X221.463 S5
S0
G1 X221.336 S3
S0
G1 X221.209 S7
S0
G1 X221.082 S4
S0
G1 X220.955 S7
S0
G1 X220.701 S3
S0
G1 X220.574 S4
S0
G1 X220.447 S5
S0
G1 X220.320 S6
S0
G1 X219.939 S5
S0
G1 X219.812 S2
S0
G1 X219.685 S9
S0
G1 X219.558 S1
S0
G1 X219.177 S5
S0
G1 X219.050 S6
S0
G1 X218.923 S5
S0
G1 X218.796 S1
S0
G1 X218.161 S5
S0
G1 X218.034 S2
S0
G1 X217.907 S1
S0
G1 X217.653 S5
S0
G1 X217.399 S4
S0
G1 X217.272 S3
S0
G1 X217.145 S14
S0
G1 X217.018 S20
S0
G1 X216.891 S2
S0
G1 X216.637 S5
S0
G1 X216.510 S1
S0
G1 X216.383 S5
S0
G1 X216.256 S2
S0
G1 X216.129 S9
S0
G1 X216.002 S3
S0
G0 X215.875 S0
G1 X215.748 S12
S0
G1 X215.621 S297
S0
G1 X215.494 S448
S0
G1 X215.367 S258
S0
G1 X215.240 S13
S0
G1 X215.113 S7
S0
G1 X214.986 S17
S0
G1 X214.859 S15
S0
G1 X214.732 S13
S0
G1 X214.605 S5
S0
G1 X214.478 S7
S0
G1 X213.081 S5
S0
G1 X212.954 S2
S0
G1 X212.827 S5
S0
G1 X212.700 S2
S0
G1 X212.573 S3
S0
G1 X212.446 S2
S0
G1 X212.319 S7
S0
G1 X212.192 S4
S0
G1 X212.065 S5
S0
G1 X211.938 S3
S0
G1 X211.811 S145
S0
G1 X211.684 S282
S0
G1 X211.430 S326
S0
G1 X211.303 S298
S0
G1 X211.176 S215
S0
G1 X211.049 S67
S0
G1 X210.541 S2
S0
G1 X210.414 S7
S0
G1 X210.160 S4
S0
G1 X200.000 S5
S0
G0 Y44.450
G0 X200.000 S0
G1 X210.160 S5
S0
G1 X210.287 S12
S0
G1 X210.414 S9
S0
G1 X210.541 S2
S0
G0 X210.668 S0
G1 X210.795 S3
S0
G1 X210.922 S154
S0
G1 X211.049 S529
S0
G1 X211.176 S769
S0
G1 X211.303 S870
S0
G1 X211.430 S880
S0
G1 X211.557 S906
S0
G1 X211.684 S901
S0
G1 X211.811 S887
S0
G1 X211.938 S828
S0
G1 X212.065 S670
S0
G1 X212.192 S341
S0
G1 X212.319 S23
S0
G1 X212.446 S2
S0
G1 X212.573 S1
S0
G1 X212.700 S12
S0
G1 X212.827 S15
S0
G1 X212.954 S16
S0
G1 X213.081 S5
S0
G1 X213.208 S2
S0
G1 X214.097 S5
S0
G1 X214.351 S7
S0
G1 X214.732 S5
S0
G1 X214.859 S13
S0
G1 X214.986 S14
S0
G1 X215.113 S17
S0
G1 X215.240 S9
S0
G1 X215.367 S30
S0
G1 X215.494 S295
S0
G1 X215.621 S389
S0
G1 X215.748 S387
S0
G1 X215.875 S104
S0
G1 X216.002 S2
S0
G1 X216.129 S17
S0
G1 X216.256 S5
S0
G1 X216.383 S6
S0
G1 X216.510 S7
S0
G1 X216.637 S9
S0
G1 X216.764 S8
S0
G1 X217.018 S6
S0
G1 X217.145 S83
S0
G1 X217.272 S260
S0
G1 X217.399 S83
S0
G1 X217.526 S5
S0
G1 X217.780 S17
S0
G1 X217.907 S14
S0
G1 X218.161 S17
S0
G1 X218.288 S12
S0
G1 X218.415 S9
S0
G1 X218.542 S13
S0
G0 X218.669 S0
G1 X218.796 S5
S0
G1 X218.923 S11
S0
G1 X219.050 S16
S0
G1 X219.177 S6
S0
G1 X219.304 S13
S0
G1 X219.431 S4
S0
G1 X219.558 S12
S0
G1 X219.685 S13
S0
G1 X219.812 S5
S0
G1 X220.066 S11
S0
G1 X220.193 S8
S0
G0 X220.320 S0
G1 X220.447 S2
S0
G1 X220.574 S23
S0
G1 X220.701 S21
S0
G1 X220.828 S5
S0
G1 X220.955 S9
S0
G1 X221.082 S8
S0
G1 X221.336 S5
S0
G1 X221.463 S8
S0
G1 X221.590 S3
S0
G1 X222.606 S5
S0
G1 X222.987 S3
S0
G1 X223.368 S5
S0
G1 X223.495 S8
S0
G1 X223.622 S9
S0
G1 X223.749 S5
S0
G1 X223.876 S2
S0
G1 X224.003 S5
S0
G1 X224.130 S140
S0
G1 X224.257 S638
S0
G1 X224.384 S793
S0
G1 X224.511 S695
S0
G1 X224.638 S670
S0
G1 X224.765 S793
S0
G1 X224.892 S966
S0
G1 X225.019 S659
S0
G1 X225.146 S97
S0
G0 X225.273 S0
G1 X225.400 S2
S0
G1 X225.527 S9
S0
G1 X225.654 S12
S0
G1 X225.781 S9
S0
G1 X225.908 S3
S0
G1 X226.035 S11
S0
G1 X226.162 S12
S0
G1 X226.289 S5
S0
G1 X226.416 S2
S0
G1 X226.543 S5
S0
G1 X226.797 S9
S0
G1 X226.924 S2
S0
G1 X227.051 S5
S0
G1 X227.178 S9
S0
G1 X227.432 S5
S0
G1 X227.686 S8
S0
G1 X227.940 S5
S0
G1 X228.448 S3
S0
G1 X235.433 S5
S0
G0 Y44.323
G0 X235.433 S0
G1 X228.448 S5
S0
G1 X227.940 S3
S0
G1 X227.686 S9
S0
G1 X227.432 S12
S0
G1 X227.305 S5
S0
G1 X227.178 S12
S0
G1 X227.051 S9
S0
G1 X226.416 S2
S0
G1 X226.289 S5
S0
G1 X225.908 S2
S0
G1 X225.781 S16
S0
G1 X225.654 S8
S0
G1 X225.527 S5
S0
G1 X225.400 S9
S0
G1 X225.273 S3
S0
G1 X225.146 S5
S0
G1 X225.019 S2
S0
G1 X224.892 S32
S0
G1 X224.765 S431
S0
G1 X224.638 S769
S0
G1 X224.511 S860
S0
G1 X224.384 S729
S0
G1 X224.257 S678
S0
G1 X224.130 S777
S0
G1 X224.003 S722
S0
G1 X223.876 S353
S0
G1 X223.749 S86
S0
G0 X223.622 S0
G1 X223.495 S12
S0
G1 X223.368 S19
S0
G1 X223.241 S16
S0
G1 X223.114 S9
S0
G1 X222.987 S5
S0
G1 X222.606 S3
S0
G1 X221.590 S5
S0
G1 X221.463 S8
S0
G1 X221.336 S9
S0
G1 X221.209 S3
S0
G1 X221.082 S5
S0
G1 X220.955 S7
S0
G1 X220.701 S5
S0
G1 X220.574 S25
S0
G1 X220.447 S186
S0
G1 X220.320 S187
S0
G1 X220.193 S17
S0
G1 X220.066 S11
S0
G1 X219.939 S20
S0
G1 X219.812 S10
S0
G1 X219.685 S13
S0
G1 X219.558 S21
S0
G1 X219.431 S7
S0
G1 X219.304 S8
S0
G1 X219.177 S16
S0
G1 X219.050 S21
S0
G1 X218.923 S30
S0
G1 X218.796 S13
S0
G1 X218.669 S95
S0
G1 X218.542 S160
S0
G1 X218.415 S39
S0
G1 X218.288 S11
S0
G1 X218.161 S31
S0
G1 X218.034 S17
S0
G1 X217.907 S35
S0
G1 X217.780 S23
S0
G1 X217.653 S10
S0
G1 X217.526 S7
S0
G1 X217.399 S79
S0
G1 X217.272 S313
S0
G1 X217.145 S426
S0
G1 X217.018 S142
S0
G1 X216.891 S6
S0
G1 X216.764 S11
S0
G1 X216.637 S16
S0
G1 X216.510 S20
S0
G1 X216.383 S11
S0
G1 X216.256 S114
S0
G1 X216.129 S110
S0
G1 X216.002 S12
S0
G1 X215.875 S2
S0
G1 X215.748 S237
S0
G1 X215.621 S350
S0
G1 X215.494 S304
S0
G1 X215.367 S323
S0
G1 X215.240 S69
S0
G1 X215.113 S13
S0
G1 X214.859 S19
S0
G1 X214.732 S13
S0
G1 X214.351 S5
S0
G1 X214.224 S4
S0
G1 X214.097 S8
S0
G1 X213.970 S9
S0
G1 X213.843 S7
S0
G1 X213.589 S4
S0
G1 X213.208 S5
S0
G1 X213.081 S2
S0
G1 X212.954 S7
S0
G1 X212.827 S28
S0
G1 X212.700 S24
S0
G1 X212.573 S3
S0
G1 X212.446 S36
S0
G1 X212.319 S304
S0
G1 X212.192 S695
S0
G1 X212.065 S958
S0
G1 X211.938 S937
S0
G1 X211.811 S875
S0
G1 X211.684 S858
S0
G1 X211.557 S855
S0
G1 X211.430 S851
S0
G1 X211.303 S855
S0
G1 X211.176 S866
S0
G1 X211.049 S893
S0
G1 X210.922 S951
S0
G1 X210.795 S859
S0
G1 X210.668 S502
S0
G1 X210.541 S169
S0
G0 X210.414 S0
G1 X210.287 S19
S0
G1 X210.160 S14
S0
G1 X200.000 S5
S0
G0 Y44.196
G0 X200.000 S0
G1 X210.287 S5
S0
G0 X210.414 S0
G1 X210.541 S364
S0
G1 X210.668 S934
S0
G1 X210.795 S971
S0
G1 X210.922 S875
S0
G1 X211.176 S839
S0
G1 X211.303 S827
S0
G1 X211.430 S836
S0
G1 X211.557 S840
S0
G1 X211.684 S836
S0
G1 X211.811 S838
S0
G1 X211.938 S832
S0
G1 X212.065 S828
S0
G1 X212.192 S839
S0
G1 X212.319 S911
S0
G1 X212.446 S988
S0
G1 X212.573 S667
S0
G1 X212.700 S24
S0
G1 X212.827 S5
S0
G1 X212.954 S27
S0
G1 X213.081 S2
S0
G1 X213.970 S5
S0
G1 X214.097 S6
S0
G1 X214.224 S5
S0
G1 X214.351 S4
S0
G1 X214.478 S3
S0
G1 X214.732 S5
S0
G1 X214.859 S12
S0
G1 X214.986 S16
S0
G1 X215.113 S21
S0
G1 X215.240 S8
S0
G1 X215.367 S74
S0
G1 X215.494 S355
S0
G1 X215.748 S222
S0
G1 X215.875 S343
S0
G1 X216.002 S54
S0
G0 X216.129 S0
G1 X216.256 S247
S0
G1 X216.383 S416
S0
G1 X216.510 S198
S0
G1 X216.637 S3
S0
G1 X216.764 S5
S0
G1 X217.018 S7
S0
G1 X217.145 S183
S0
G1 X217.272 S317
S0
G1 X217.399 S315
S0
G1 X217.526 S356
S0
G1 X217.653 S66
S0
G1 X217.780 S11
S0
G1 X217.907 S14
S0
G1 X218.034 S23
S0
G1 X218.161 S28
S0
G1 X218.288 S13
S0
G1 X218.415 S54
S0
G1 X218.542 S280
S0
G1 X218.669 S419
S0
G1 X218.796 S241
S0
G1 X219.050 S11
S0
G1 X219.177 S21
S0
G1 X219.304 S25
S0
G1 X219.431 S5
S0
G1 X219.558 S3
S0
G1 X219.685 S16
S0
G1 X219.812 S10
S0
G1 X219.939 S12
S0
G1 X220.066 S1
S0
G1 X220.193 S60
S0
G1 X220.320 S340
S0
G1 X220.447 S465
S0
G1 X220.574 S122
S0
G1 X220.701 S7
S0
G1 X220.828 S4
S0
G1 X220.955 S5
S0
G1 X221.082 S4
S0
G1 X221.209 S2
S0
G1 X221.336 S7
S0
G1 X221.463 S9
S0
G1 X221.590 S8
S0
G1 X222.606 S5
S0
G1 X222.860 S3
S0
G1 X223.114 S5
S0
G1 X223.241 S12
S0
G1 X223.368 S16
S0
G1 X223.495 S2
S0
G0 X223.622 S0
G1 X223.749 S224
S0
G1 X223.876 S714
S0
G1 X224.003 S824
S0
G1 X224.130 S726
S0
G1 X224.257 S671
S0
G1 X224.384 S797
S0
G1 X224.511 S949
S0
G1 X224.638 S564
S0
G1 X224.765 S35
S0
G1 X224.892 S2
S0
G1 X225.146 S5
S0
G1 X225.273 S20
S0
G1 X225.400 S5
S0
G1 X225.527 S8
S0
G1 X225.654 S5
S0
G1 X225.908 S2
S0
G1 X226.035 S3
S0
G1 X226.162 S82
S0
G1 X226.289 S211
S0
G1 X226.416 S274
S0
G1 X226.543 S268
S0
G1 X226.670 S276
S0
G1 X226.797 S221
S0
G1 X226.924 S80
S0
G1 X227.051 S4
S0
G1 X227.178 S3
S0
G1 X227.305 S2
S0
G1 X227.432 S8
S0
G1 X227.559 S5
S0
G1 X227.686 S9
S0
G1 X228.067 S7
S0
G1 X228.448 S3
S0
G1 X235.433 S5
S0
G0 Y44.069
G0 X235.433 S0
G1 X228.194 S5
S0
G1 X227.686 S3
S0
G1 X227.432 S7
S0
G1 X227.305 S4
S0
G1 X227.178 S7
S0
G1 X227.051 S272
S0
G1 X226.924 S577
S0
G1 X226.797 S776
S0
G1 X226.670 S889
S0
G1 X226.543 S886
S0
G1 X226.416 S870
S0
G1 X226.289 S901
S0
G1 X226.162 S882
S0
G1 X226.035 S797
S0
G1 X225.908 S604
S0
G1 X225.781 S315
S0
G1 X225.654 S20
S0
G1 X225.527 S3
S0
G1 X225.400 S2
S0
G1 X225.273 S5
S0
G1 X225.146 S8
S0
G1 X225.019 S5
S0
G1 X224.892 S16
S0
G1 X224.765 S36
S0
G1 X224.638 S2
S0
G0 X224.511 S0
G1 X224.384 S405
S0
G1 X224.257 S905
S0
G1 X224.130 S840
S0
G1 X224.003 S679
S0
G1 X223.876 S667
S0
G1 X223.749 S737
S0
G1 X223.622 S773
S0
G1 X223.495 S369
S0
G0 X223.368 S0
G1 X223.241 S2
S0
G1 X221.590 S5
S0
G1 X221.463 S8
S0
G1 X221.336 S9
S0
G1 X221.209 S5
S0
G1 X221.082 S10
S0
G1 X220.955 S4
S0
G1 X220.701 S5
S0
G1 X220.574 S12
S0
G1 X220.447 S5
S0
G1 X220.320 S214
S0
G1 X220.193 S493
S0
G1 X220.066 S357
S0
G1 X219.939 S129
S0
G1 X219.812 S5
S0
G1 X219.685 S9
S0
G1 X219.558 S19
S0
G1 X219.431 S18
S0
G1 X219.304 S6
S0
G1 X219.177 S20
S0
G1 X219.050 S11
S0
G1 X218.923 S5
S0
G1 X218.796 S20
S0
G1 X218.669 S269
S0
G1 X218.542 S278
S0
G1 X218.288 S328
S0
G1 X218.161 S86
S0
G1 X218.034 S11
S0
G1 X217.907 S25
S0
G1 X217.780 S15
S0
G1 X217.653 S29
S0
G1 X217.526 S301
S0
G1 X217.399 S327
S0
G1 X217.272 S137
S0
G1 X217.145 S268
S0
G1 X217.018 S235
S0
G1 X216.891 S8
S0
G1 X216.764 S6
S0
G1 X216.637 S8
S0
G1 X216.510 S202
S0
G1 X216.383 S343
S0
G1 X216.256 S339
S0
G1 X216.129 S214
S0
G1 X216.002 S5
S0
G1 X215.875 S163
S0
G1 X215.748 S353
S0
G1 X215.621 S127
S0
G1 X215.494 S209
S0
G1 X215.367 S352
S0
G1 X215.240 S78
S0
G1 X215.113 S8
S0
G1 X214.986 S16
S0
G1 X214.859 S12
S0
G1 X214.732 S7
S0
G1 X214.605 S4
S0
G1 X214.478 S5
S0
G1 X214.351 S1
S0
G1 X214.224 S6
S0
G1 X214.097 S5
S0
G1 X213.970 S4
S0
G1 X213.081 S5
S0
G1 X212.954 S8
S0
G0 X212.700 S0
G1 X212.573 S557
S0
G1 X212.446 S969
S0
G1 X212.319 S847
S0
G1 X212.192 S819
S0
G1 X212.065 S827
S0
G1 X211.938 S836
S0
G1 X211.811 S840
S0
G1 X211.684 S836
S0
G1 X211.557 S834
S0
G1 X211.430 S835
S0
G1 X211.303 S831
S0
G1 X211.176 S839
S0
G1 X211.049 S836
S0
G1 X210.795 S834
S0
G1 X210.668 S832
S0
G1 X210.541 S899
S0
G1 X210.414 S903
S0
G1 X210.287 S239
S0
G1 X210.160 S2
S0
G1 X200.000 S5
S0
G0 Y43.942
G0 X200.000 S0
G1 X209.652 S5
S0
G1 X209.779 S9
S0
G1 X210.033 S5
S0
G1 X210.160 S2
S0
G1 X210.287 S35
S0
G1 X210.414 S734
S0
G1 X210.541 S918
S0
G1 X210.668 S835
S0
G1 X210.795 S836
S0
G1 X210.922 S832
S0
G1 X211.049 S839
S0
G1 X211.176 S835
S0
G1 X211.303 S832
S0
G1 X211.430 S834
S0
G1 X211.557 S838
S0
G1 X211.811 S834
S0
G1 X211.938 S836
S0
G1 X212.065 S832
S0
G1 X212.192 S827
S0
G1 X212.319 S844
S0
G1 X212.446 S831
S0
G1 X212.573 S850
S0
G1 X212.700 S921
S0
G1 X212.827 S298
S0
G1 X212.954 S2
S0
G1 X213.081 S7
S0
G1 X213.208 S5
S0
G1 X213.335 S8
S0
G1 X213.462 S5
S0
G1 X213.589 S3
S0
G1 X213.716 S9
S0
G1 X213.843 S10
S0
G1 X213.970 S6
S0
G1 X214.097 S8
S0
G1 X214.224 S9
S0
G1 X214.478 S5
S0
G1 X214.605 S4
S0
G1 X214.732 S9
S0
G1 X214.859 S5
S0
G1 X214.986 S13
S0
G1 X215.113 S12
S0
G1 X215.240 S13
S0
G1 X215.367 S77
S0
G1 X215.494 S348
S0
G1 X215.621 S213
S0
G1 X215.748 S93
S0
G1 X215.875 S265
S0
G1 X216.002 S280
S0
G1 X216.129 S22
S0
G1 X216.256 S216
S0
G1 X216.383 S262
S0
G1 X216.510 S170
S0
G1 X216.637 S333
S0
G1 X216.764 S231
S0
G1 X216.891 S13
S0
G1 X217.018 S3
S0
G1 X217.145 S271
S0
G1 X217.272 S257
S0
G1 X217.399 S78
S0
G1 X217.526 S160
S0
G1 X217.653 S363
S0
G1 X217.780 S175
S0
G1 X217.907 S2
S0
G1 X218.034 S5
S0
G1 X218.161 S94
S0
G1 X218.288 S328
S0
G1 X218.415 S281
S0
G1 X218.542 S120
S0
G1 X218.669 S223
S0
G1 X218.796 S278
S0
G1 X218.923 S32
S0
G1 X219.050 S12
S0
G1 X219.177 S4
S0
G1 X219.431 S10
S0
G1 X219.558 S17
S0
G1 X219.685 S13
S0
G1 X219.812 S12
S0
G1 X219.939 S176
S0
G1 X220.066 S363
S0
G1 X220.193 S466
S0
G1 X220.320 S324
S0
G1 X220.447 S32
S0
G1 X220.574 S5
S0
G1 X220.701 S9
S0
G1 X221.082 S8
S0
G1 X221.336 S5
S0
G1 X221.463 S7
S0
G1 X221.590 S12
S0
G1 X221.717 S2
S0
G1 X221.844 S5
S0
G1 X222.098 S3
S0
G1 X222.225 S9
S0
G1 X222.606 S5
S0
G1 X222.733 S3
S0
G1 X222.987 S5
S0
G1 X223.241 S2
S0
G1 X223.368 S50
S0
G1 X223.495 S502
S0
G1 X223.622 S788
S0
G1 X223.749 S714
S0
G1 X223.876 S666
S0
G1 X224.003 S687
S0
G1 X224.130 S878
S0
G1 X224.257 S808
S0
G1 X224.384 S254
S0
G0 X224.511 S0
G1 X224.638 S1
S0
G1 X224.765 S8
S0
G1 X224.892 S12
S0
G1 X225.019 S2
S0
G1 X225.146 S10
S0
G1 X225.273 S5
S0
G1 X225.527 S2
S0
G1 X225.654 S157
S0
G1 X225.781 S709
S0
G1 X225.908 S904
S0
G1 X226.035 S921
S0
G1 X226.162 S878
S0
G1 X226.289 S847
S0
G1 X226.416 S835
S0
G1 X226.543 S839
S0
G1 X226.797 S843
S0
G1 X226.924 S866
S0
G1 X227.051 S941
S0
G1 X227.178 S909
S0
G1 X227.305 S656
S0
G1 X227.432 S196
S0
G1 X227.559 S2
S0
G1 X227.686 S1
S0
G1 X227.813 S2
S0
G1 X228.067 S3
S0
G1 X228.321 S8
S0
G1 X235.433 S5
S0
G0 Y43.815
G0 X235.433 S0
G1 X228.448 S5
S0
G1 X228.321 S2
S0
G1 X228.194 S7
S0
G1 X228.067 S12
S0
G1 X227.940 S11
S0
G1 X227.813 S3
S0
G1 X227.686 S1
S0
G1 X227.559 S3
S0
G1 X227.432 S337
S0
G1 X227.305 S870
S0
G1 X227.178 S950
S0
G1 X227.051 S851
S0
G1 X226.924 S826
S0
G1 X226.797 S836
S0
G1 X226.543 S832
S0
G1 X226.416 S840
S0
G1 X226.289 S836
S0
G1 X226.162 S840
S0
G1 X226.035 S833
S0
G1 X225.908 S834
S0
G1 X225.781 S839
S0
G1 X225.654 S971
S0
G1 X225.527 S746
S0
G1 X225.400 S86
S0
G1 X225.273 S2
S0
G1 X225.146 S12
S0
G1 X225.019 S19
S0
G1 X224.892 S9
S0
G1 X224.765 S5
S0
G1 X224.638 S9
S0
G1 X224.257 S2
S0
G1 X224.130 S118
S0
G1 X224.003 S670
S0
G1 X223.876 S886
S0
G1 X223.749 S710
S0
G1 X223.622 S643
S0
G1 X223.495 S709
S0
G1 X223.368 S801
S0
G1 X223.241 S627
S0
G1 X223.114 S137
S0
G1 X222.860 S2
S0
G1 X222.733 S12
S0
G1 X222.606 S5
S0
G1 X222.479 S8
S0
G1 X222.352 S9
S0
G1 X222.225 S2
S0
G1 X222.098 S12
S0
G1 X221.971 S5
S0
G1 X221.844 S2
S0
G1 X221.717 S9
S0
G1 X221.463 S2
S0
G1 X221.336 S5
S0
G1 X221.209 S2
S0
G1 X220.955 S5
S0
G1 X220.828 S2
S0
G1 X220.701 S5
S0
G1 X220.574 S13
S0
G1 X220.447 S4
S0
G1 X220.320 S2
S0
G1 X220.193 S105
S0
G1 X220.066 S394
S0
G1 X219.939 S377
S0
G1 X219.812 S368
S0
G1 X219.685 S233
S0
G1 X219.558 S26
S0
G1 X219.431 S2
S0
G1 X219.304 S16
S0
G1 X219.177 S8
S0
G1 X219.050 S20
S0
G1 X218.923 S13
S0
G1 X218.796 S38
S0
G1 X218.669 S292
S0
G1 X218.542 S207
S0
G1 X218.415 S75
S0
G1 X218.288 S97
S0
G1 X218.161 S269
S0
G1 X218.034 S364
S0
G1 X217.907 S114
S0
G1 X217.780 S27
S0
G1 X217.653 S274
S0
G1 X217.526 S235
S0
G1 X217.399 S78
S0
G1 X217.272 S62
S0
G1 X217.145 S202
S0
G1 X217.018 S277
S0
G1 X216.891 S108
S0
G1 X216.764 S247
S0
G1 X216.637 S339
S0
G1 X216.510 S169
S0
G1 X216.383 S81
S0
G1 X216.256 S242
S0
G1 X216.129 S207
S0
G1 X216.002 S100
S0
G1 X215.875 S327
S0
G1 X215.748 S163
S0
G1 X215.621 S68
S0
G1 X215.494 S203
S0
G1 X215.367 S328
S0
G1 X215.240 S82
S0
G1 X215.113 S4
S0
G1 X214.986 S8
S0
G1 X214.859 S9
S0
G1 X214.732 S17
S0
G1 X214.605 S2
S0
G1 X214.478 S9
S0
G1 X214.351 S11
S0
G1 X214.224 S12
S0
G1 X213.970 S3
S0
G1 X213.589 S6
S0
G1 X213.462 S3
S0
G1 X213.208 S5
S0
G1 X213.081 S3
S0
G1 X212.954 S2
S0
G1 X212.827 S23
S0
G1 X212.700 S691
S0
G1 X212.573 S926
S0
G1 X212.446 S832
S0
G1 X212.319 S828
S0
G1 X212.065 S834
S0
G1 X211.811 S836
S0
G1 X211.430 S834
S0
G1 X211.176 S836
S0
G1 X211.049 S839
S0
G1 X210.922 S827
S0
G1 X210.795 S832
S0
G1 X210.668 S839
S0
G1 X210.541 S840
S0
G1 X210.414 S834
S0
G1 X210.287 S940
S0
G1 X210.160 S377
S0
G1 X210.033 S2
S0
G1 X209.906 S16
S0
G1 X209.779 S9
S0
G1 X209.652 S2
S0
G1 X209.525 S5
S0
G1 X209.398 S9
S0
G1 X200.000 S5
S0
G0 Y43.688
G0 X200.000 S0
G1 X209.144 S5
S0
G1 X209.271 S9
S0
G1 X209.398 S2
S0
G1 X209.525 S5
S0
G1 X209.652 S9
S0
G1 X209.779 S2
S0
G1 X209.906 S9
S0
G1 X210.160 S2
S0
G1 X210.287 S694
S0
G1 X210.414 S920
S0
G1 X210.541 S823
S0
G1 X210.668 S819
S0
G1 X210.795 S843
S0
G1 X210.922 S831
S0
G1 X211.049 S840
S0
G1 X211.303 S836
S0
G1 X211.430 S835
S0
G1 X211.557 S836
S0
G1 X211.938 S834
S0
G1 X212.065 S831
S0
G1 X212.319 S835
S0
G1 X212.446 S831
S0
G1 X212.573 S827
S0
G1 X212.700 S866
S0
G1 X212.827 S910
S0
G1 X212.954 S294
S0
G1 X213.081 S2
S0
G1 X213.208 S5
S0
G1 X214.097 S3
S0
G1 X214.224 S5
S0
G1 X214.351 S11
S0
G1 X214.478 S6
S0
G1 X214.605 S11
S0
G1 X214.732 S5
S0
G1 X214.859 S7
S0
G1 X214.986 S15
S0
G1 X215.113 S5
S0
G1 X215.240 S32
S0
G1 X215.367 S254
S0
G1 X215.494 S371
S0
G1 X215.621 S184
S0
G1 X215.748 S59
S0
G1 X215.875 S100
S0
G1 X216.002 S284
S0
G1 X216.129 S183
S0
G1 X216.256 S187
S0
G1 X216.383 S242
S0
G1 X216.510 S70
S0
G1 X216.637 S68
S0
G1 X216.764 S139
S0
G1 X216.891 S304
S0
G1 X217.018 S352
S0
G1 X217.145 S331
S0
G1 X217.272 S155
S0
G1 X217.399 S63
S0
G1 X217.526 S59
S0
G1 X217.653 S81
S0
G1 X217.780 S289
S0
G1 X217.907 S323
S0
G1 X218.034 S322
S0
G1 X218.161 S269
S0
G1 X218.288 S92
S0
G1 X218.415 S58
S0
G1 X218.542 S67
S0
G1 X218.669 S182
S0
G1 X218.796 S304
S0
G1 X218.923 S54
S0
G1 X219.050 S9
S0
G1 X219.177 S18
S0
G1 X219.304 S13
S0
G1 X219.431 S1
S0
G1 X219.558 S61
S0
G1 X219.685 S270
S0
G1 X219.812 S323
S0
G1 X219.939 S304
S0
G1 X220.066 S424
S0
G1 X220.193 S211
S0
G1 X220.320 S12
S0
G1 X220.447 S20
S0
G1 X220.574 S9
S0
G1 X220.701 S5
S0
G1 X220.828 S4
S0
G1 X220.955 S5
S0
G1 X221.082 S1
S0
G1 X221.336 S5
S0
G1 X221.463 S2
S0
G1 X221.590 S3
S0
G1 X221.717 S7
S0
G1 X221.844 S2
S0
G1 X221.971 S8
S0
G1 X222.225 S5
S0
G1 X222.352 S12
S0
G1 X222.479 S2
S0
G1 X222.606 S3
S0
G1 X222.860 S5
S0
G1 X222.987 S3
S0
G1 X223.114 S224
S0
G1 X223.241 S711
S0
G1 X223.368 S796
S0
G1 X223.495 S674
S0
G1 X223.622 S651
S0
G1 X223.749 S765
S0
G1 X223.876 S874
S0
G1 X224.003 S521
S0
G1 X224.130 S15
S0
G1 X224.257 S2
S0
G0 X224.384 S0
G1 X224.511 S7
S0
G1 X225.019 S5
S0
G1 X225.146 S16
S0
G1 X225.273 S2
S0
G1 X225.400 S60
S0
G1 X225.527 S741
S0
G1 X225.654 S942
S0
G1 X225.781 S823
S0
G1 X226.035 S831
S0
G1 X226.162 S839
S0
G1 X226.416 S836
S0
G1 X226.543 S833
S0
G1 X227.051 S836
S0
G1 X227.178 S833
S0
G1 X227.305 S836
S0
G1 X227.432 S897
S0
G1 X227.559 S933
S0
G1 X227.686 S367
S0
G1 X227.813 S2
S0
G1 X227.940 S1
S0
G1 X228.067 S7
S0
G1 X228.194 S11
S0
G1 X228.321 S2
S0
G1 X235.433 S5
S0
G0 Y43.561
G0 X235.433 S0
G1 X228.448 S5
S0
G1 X228.194 S9
S0
G1 X228.067 S2
S0
G1 X227.940 S11
S0
G1 X227.813 S2
S0
G1 X227.686 S244
S0
G1 X227.559 S870
S0
G1 X227.432 S902
S0
G1 X227.178 S832
S0
G1 X227.051 S838
S0
G1 X226.924 S834
S0
G1 X226.797 S835
S0
G1 X226.416 S836
S0
G1 X226.289 S835
S0
G1 X226.162 S839
S0
G1 X226.035 S827
S0
G1 X225.908 S852
S0
G1 X225.781 S824
S0
G1 X225.654 S835
S0
G1 X225.527 S834
S0
G1 X225.400 S964
S0
G1 X225.273 S627
S0
G1 X225.146 S2
S0
G1 X225.019 S5
S0
G1 X224.892 S16
S0
G1 X224.765 S3
S0
G1 X224.257 S5
S0
G1 X224.130 S8
S0
G1 X224.003 S5
S0
G0 X223.876 S0
G1 X223.749 S384
S0
G1 X223.622 S878
S0
G1 X223.495 S806
S0
G1 X223.368 S653
S0
G1 X223.241 S667
S0
G1 X223.114 S744
S0
G1 X222.987 S773
S0
G1 X222.860 S361
S0
G1 X222.733 S2
S0
G1 X222.606 S5
S0
G1 X222.352 S11
S0
G1 X222.098 S5
S0
G1 X221.971 S2
S0
G1 X221.844 S9
S0
G1 X221.717 S5
S0
G0 X221.590 S0
G1 X221.463 S3
S0
G1 X221.209 S5
S0
G1 X221.082 S3
S0
G1 X220.955 S5
S0
G1 X220.828 S7
S0
G1 X220.574 S5
S0
G1 X220.447 S7
S0
G1 X220.320 S23
S0
G1 X220.193 S19
S0
G1 X220.066 S15
S0
G1 X219.939 S324
S0
G1 X219.812 S398
S0
G1 X219.685 S217
S0
G1 X219.558 S261
S0
G1 X219.431 S312
S0
G1 X219.304 S119
S0
G1 X219.177 S5
S0
G1 X218.923 S2
S0
G1 X218.796 S81
S0
G1 X218.669 S324
S0
G1 X218.542 S168
S0
G1 X218.415 S78
S0
G1 X218.288 S69
S0
G1 X218.161 S58
S0
G1 X218.034 S116
S0
G1 X217.907 S244
S0
G1 X217.780 S372
S0
G1 X217.653 S182
S0
G1 X217.526 S45
S0
G1 X217.399 S55
S0
G1 X217.272 S50
S0
G1 X217.145 S150
S0
G1 X217.018 S332
S0
G1 X216.891 S296
S0
G1 X216.764 S110
S0
G1 X216.637 S73
S0
G1 X216.510 S51
S0
G1 X216.383 S74
S0
G1 X216.256 S257
S0
G1 X216.129 S247
S0
G1 X216.002 S272
S0
G1 X215.875 S205
S0
G1 X215.748 S69
S0
G1 X215.621 S58
S0
G1 X215.494 S174
S0
G1 X215.367 S423
S0
G1 X215.240 S313
S0
G1 X215.113 S13
S0
G1 X214.986 S8
S0
G1 X214.859 S17
S0
G0 X214.732 S0
G1 X214.605 S19
S0
G1 X214.478 S14
S0
G1 X214.351 S13
S0
G1 X214.224 S4
S0
G1 X214.097 S7
S0
G1 X213.843 S5
S0
G1 X213.716 S7
S0
G1 X213.589 S9
S0
G1 X213.208 S3
S0
G1 X213.081 S2
S0
G1 X212.954 S7
S0
G1 X212.827 S503
S0
G1 X212.700 S942
S0
G1 X212.573 S828
S0
G1 X212.446 S847
S0
G1 X212.319 S831
S0
G1 X212.065 S836
S0
G1 X211.811 S835
S0
G1 X211.684 S834
S0
G1 X211.557 S836
S0
G1 X211.430 S835
S0
G1 X211.303 S836
S0
G1 X211.176 S834
S0
G1 X211.049 S836
S0
G1 X210.922 S828
S0
G1 X210.795 S836
S0
G1 X210.668 S828
S0
G1 X210.541 S838
S0
G1 X210.414 S835
S0
G1 X210.287 S861
S0
G1 X210.160 S835
S0
G1 X210.033 S176
S0
G1 X209.906 S2
S0
G1 X209.525 S5
S0
G1 X209.271 S9
S0
G1 X209.144 S2
S0
G1 X200.000 S5
S0
G0 Y43.434
G0 X200.000 S0
G1 X209.525 S5
S0
G1 X209.652 S2
S0
G1 X209.906 S9
S0
G1 X210.033 S2
S0
G1 X210.160 S321
S0
G1 X210.287 S902
S0
G1 X210.414 S844
S0
G1 X210.541 S832
S0
G1 X210.668 S834
S0
G1 X210.922 S836
S0
G1 X211.176 S835
S0
G1 X211.303 S838
S0
G1 X211.430 S836
S0
G1 X211.557 S835
S0
G1 X211.684 S836
S0
G1 X211.938 S834
S0
G1 X212.065 S835
S0
G1 X212.446 S836
S0
G1 X212.573 S834
S0
G1 X212.700 S850
S0
G1 X212.827 S917
S0
G1 X212.954 S635
S0
G0 X213.081 S0
G1 X213.208 S3
S0
G1 X213.335 S6
S0
G1 X213.462 S3
S0
G1 X213.589 S5
S0
G1 X213.716 S7
S0
G1 X213.843 S9
S0
G1 X213.970 S4
S0
G1 X214.097 S5
S0
G1 X214.224 S13
S0
G1 X214.351 S16
S0
G1 X214.478 S4
S0
G1 X214.605 S66
S0
G1 X214.732 S118
S0
G1 X214.859 S6
S0
G1 X214.986 S8
S0
G1 X215.113 S7
S0
G0 X215.240 S0
G1 X215.367 S203
S0
G1 X215.494 S417
S0
G1 X215.621 S203
S0
G1 X215.748 S62
S0
G1 X215.875 S55
S0
G1 X216.002 S118
S0
G1 X216.129 S329
S0
G1 X216.256 S391
S0
G1 X216.383 S228
S0
G1 X216.510 S89
S0
G1 X216.637 S64
S0
G1 X216.891 S62
S0
G1 X217.018 S89
S0
G1 X217.145 S171
S0
G1 X217.272 S124
S0
G1 X217.399 S61
S0
G1 X217.526 S54
S0
G1 X217.653 S58
S0
G1 X217.780 S104
S0
G1 X217.907 S183
S0
G1 X218.034 S109
S0
G1 X218.161 S62
S0
G1 X218.288 S58
S0
G1 X218.415 S67
S0
G1 X218.542 S58
S0
G1 X218.669 S143
S0
G1 X218.796 S323
S0
G1 X218.923 S211
S0
G1 X219.050 S125
S0
G1 X219.177 S192
S0
G1 X219.304 S290
S0
G1 X219.431 S313
S0
G1 X219.558 S184
S0
G1 X219.685 S155
S0
G1 X219.812 S328
S0
G1 X219.939 S399
S0
G1 X220.066 S94
S0
G1 X220.193 S5
S0
G1 X220.320 S21
S0
G1 X220.447 S11
S0
G1 X220.574 S5
S0
G1 X220.701 S9
S0
G1 X221.082 S5
S0
G1 X221.209 S2
S0
G1 X221.463 S5
S0
G1 X221.590 S8
S0
G1 X221.844 S5
S0
G1 X221.971 S2
S0
G1 X222.098 S7
S0
G1 X222.225 S2
S0
G1 X222.352 S9
S0
G1 X222.479 S12
S0
G1 X222.606 S2
S0
G1 X222.733 S36
S0
G1 X222.860 S491
S0
G1 X222.987 S785
S0
G1 X223.114 S712
S0
G1 X223.241 S658
S0
G1 X223.368 S685
S0
G1 X223.495 S861
S0
G1 X223.622 S796
S0
G1 X223.749 S247
S0
G1 X224.003 S2
S0
G1 X224.130 S12
S0
G1 X224.257 S7
S0
G1 X224.638 S5
S0
G1 X224.765 S2
S0
G1 X224.892 S4
S0
G1 X225.019 S2
S0
G0 X225.146 S0
G1 X225.273 S388
S0
G1 X225.400 S950
S0
G1 X225.527 S850
S0
G1 X225.654 S819
S0
G1 X225.781 S834
S0
G1 X225.908 S848
S0
G1 X226.035 S823
S0
G1 X226.162 S840
S0
G1 X226.289 S831
S0
G1 X226.670 S835
S0
G1 X226.924 S836
S0
G1 X227.051 S831
S0
G1 X227.305 S836
S0
G1 X227.432 S827
S0
G1 X227.559 S836
S0
G1 X227.686 S922
S0
G1 X227.813 S729
S0
G1 X227.940 S44
S0
G1 X228.067 S2
S0
G1 X228.194 S16
S0
G1 X228.321 S12
S0
G1 X228.448 S1
S0
G1 X235.433 S5
S0
G0 Y43.307
G0 X235.433 S0
G1 X228.448 S5
S0
G1 X228.321 S3
S0
G1 X228.194 S5
S0
G1 X228.067 S3
S0
G1 X227.940 S2
S0
G1 X227.813 S414
S0
G1 X227.686 S934
S0
G1 X227.559 S836
S0
G1 X227.432 S832
S0
G1 X227.305 S839
S0
G1 X227.178 S831
S0
G1 X226.924 S836
S0
G1 X226.797 S840
S0
G1 X226.670 S832
S0
G1 X226.543 S840
S0
G1 X226.416 S835
S0
G1 X226.035 S836
S0
G1 X225.781 S828
S0
G1 X225.654 S831
S0
G1 X225.527 S834
S0
G1 X225.400 S836
S0
G1 X225.273 S912
S0
G1 X225.146 S780
S0
G1 X225.019 S84
S0
G1 X224.892 S5
S0
G1 X224.765 S1
S0
G1 X224.638 S8
S0
G1 X224.511 S6
S0
G1 X224.384 S7
S0
G1 X224.257 S9
S0
G1 X224.130 S13
S0
G1 X224.003 S20
S0
G1 X223.876 S2
S0
G1 X223.749 S5
S0
G0 X223.622 S0
G1 X223.495 S118
S0
G1 X223.368 S666
S0
G1 X223.241 S878
S0
G1 X223.114 S718
S0
G1 X222.987 S623
S0
G1 X222.860 S658
S0
G1 X222.733 S756
S0
G1 X222.606 S576
S0
G1 X222.479 S139
S0
G1 X222.225 S2
S0
G1 X222.098 S12
S0
G1 X221.971 S8
S0
G1 X221.844 S9
S0
G1 X221.590 S5
S0
G1 X221.463 S9
S0
G1 X221.336 S8
S0
G1 X221.209 S9
S0
G1 X220.955 S4
S0
G1 X220.701 S3
S0
G1 X220.447 S5
S0
G1 X220.320 S21
S0
G1 X220.193 S24
S0
G1 X220.066 S5
S0
G1 X219.939 S8
S0
G1 X219.812 S160
S0
G1 X219.685 S414
S0
G1 X219.558 S264
S0
G1 X219.431 S118
S0
G1 X219.304 S131
S0
G1 X219.177 S319
S0
G1 X219.050 S371
S0
G1 X218.923 S287
S0
G1 X218.796 S275
S0
G1 X218.669 S264
S0
G1 X218.542 S112
S0
G1 X218.415 S50
S0
G1 X218.288 S70
S0
G1 X218.161 S65
S0
G1 X218.034 S63
S0
G1 X217.907 S55
S0
G1 X217.780 S74
S0
G1 X217.653 S66
S0
G1 X217.526 S58
S0
G1 X217.272 S67
S0
G1 X217.145 S78
S0
G1 X217.018 S69
S0
G1 X216.891 S47
S0
G1 X216.764 S59
S0
G1 X216.637 S69
S0
G1 X216.510 S54
S0
G1 X216.383 S84
S0
G1 X216.256 S157
S0
G1 X216.129 S320
S0
G1 X216.002 S232
S0
G1 X215.875 S68
S0
G1 X215.748 S55
S0
G1 X215.621 S72
S0
G1 X215.494 S246
S0
G1 X215.367 S398
S0
G1 X215.240 S96
S0
G1 X215.113 S6
S0
G1 X214.986 S15
S0
G0 X214.859 S0
G1 X214.732 S152
S0
G1 X214.605 S329
S0
G1 X214.478 S71
S0
G1 X214.351 S4
S0
G1 X214.224 S9
S0
G1 X214.097 S8
S0
G1 X213.843 S5
S0
G1 X213.716 S9
S0
G1 X213.589 S7
S0
G1 X213.335 S5
S0
G1 X213.208 S9
S0
G1 X213.081 S2
S0
G1 X212.954 S28
S0
G1 X212.827 S690
S0
G1 X212.700 S904
S0
G1 X212.573 S834
S0
G1 X212.446 S840
S0
G1 X212.319 S839
S0
G1 X212.192 S836
S0
G1 X212.065 S831
S0
G1 X211.557 S834
S0
G1 X211.430 S836
S0
G1 X211.303 S835
S0
G1 X211.176 S832
S0
G1 X211.049 S835
S0
G1 X210.795 S839
S0
G1 X210.668 S831
S0
G1 X210.541 S835
S0
G1 X210.414 S842
S0
G1 X210.287 S827
S0
G1 X210.160 S921
S0
G1 X210.033 S404
S0
G1 X209.906 S5
S0
G1 X209.652 S9
S0
G1 X209.525 S2
S0
G1 X209.398 S5
S0
G1 X209.271 S2
S0
G1 X209.144 S9
S0
G1 X200.000 S5
S0
G0 Y43.180
G0 X200.000 S0
G1 X209.398 S5
S0
G1 X209.652 S2
S0
G1 X209.779 S12
S0
G1 X210.033 S2
S0
G1 X210.160 S428
S0
G1 X210.287 S908
S0
G1 X210.414 S836
S0
G1 X210.668 S827
S0
G1 X210.922 S834
S0
G1 X211.049 S832
S0
G1 X211.176 S834
S0
G1 X211.303 S831
S0
G1 X211.811 S834
S0
G1 X212.065 S840
S0
G1 X212.192 S834
S0
G1 X212.319 S835
S0
G1 X212.446 S836
S0
G1 X212.573 S843
S0
G1 X212.700 S834
S0
G1 X212.827 S905
S0
G1 X212.954 S690
S0
G1 X213.081 S27
S0
G1 X213.208 S2
S0
G1 X213.589 S5
S0
G1 X213.843 S4
S0
G1 X214.224 S5
S0
G1 X214.351 S13
S0
G1 X214.478 S6
S0
G1 X214.605 S23
S0
G1 X214.732 S325
S0
G1 X214.859 S406
S0
G1 X214.986 S98
S0
G0 X215.113 S0
G1 X215.240 S18
S0
G1 X215.367 S26
S0
G1 X215.494 S307
S0
G1 X215.621 S310
S0
G1 X215.748 S83
S0
G1 X215.875 S62
S0
G1 X216.002 S50
S0
G1 X216.129 S135
S0
G1 X216.256 S249
S0
G1 X216.383 S109
S0
G1 X216.510 S51
S0
G1 X216.637 S58
S0
G1 X216.764 S55
S0
G1 X216.891 S62
S0
G1 X217.018 S70
S0
G1 X217.145 S55
S0
G1 X217.272 S59
S0
G1 X217.399 S63
S0
G1 X217.526 S61
S0
G1 X217.653 S65
S0
G1 X217.780 S60
S0
G1 X217.907 S55
S0
G1 X218.034 S61
S0
G1 X218.161 S66
S0
G1 X218.288 S64
S0
G1 X218.415 S50
S0
G1 X218.542 S63
S0
G1 X218.669 S77
S0
G1 X218.796 S89
S0
G1 X218.923 S150
S0
G1 X219.050 S257
S0
G1 X219.177 S222
S0
G1 X219.304 S77
S0
G1 X219.431 S61
S0
G1 X219.558 S198
S0
G1 X219.685 S371
S0
G1 X219.812 S254
S0
G1 X219.939 S8
S0
G1 X220.066 S2
S0
G1 X220.193 S89
S0
G1 X220.320 S124
S0
G1 X220.447 S10
S0
G1 X220.574 S3
S0
G1 X220.828 S8
S0
G1 X221.082 S4
S0
G1 X221.209 S7
S0
G1 X221.336 S8
S0
G1 X221.463 S5
S0
G1 X221.590 S9
S0
G1 X221.717 S5
S0
G1 X221.844 S7
S0
G1 X221.971 S5
S0
G1 X222.098 S8
S0
G1 X222.225 S2
S0
G1 X222.352 S1
S0
G1 X222.479 S231
S0
G1 X222.606 S651
S0
G1 X222.733 S701
S0
G1 X222.860 S623
S0
G1 X222.987 S603
S0
G1 X223.114 S734
S0
G1 X223.241 S844
S0
G1 X223.368 S503
S0
G1 X223.495 S23
S0
G0 X223.622 S0
G1 X223.749 S8
S0
G1 X223.876 S7
S0
G1 X224.003 S9
S0
G1 X224.130 S4
S0
G1 X224.257 S16
S0
G1 X224.384 S7
S0
G1 X224.511 S3
S0
G1 X224.638 S7
S0
G1 X224.765 S5
S0
G1 X224.892 S3
S0
G1 X225.019 S2
S0
G1 X225.146 S368
S0
G1 X225.273 S944
S0
G1 X225.400 S835
S0
G1 X225.527 S847
S0
G1 X225.654 S835
S0
G1 X225.781 S831
S0
G1 X225.908 S834
S0
G1 X226.035 S838
S0
G1 X226.162 S831
S0
G1 X226.289 S838
S0
G1 X226.416 S836
S0
G1 X226.670 S834
S0
G1 X226.797 S838
S0
G1 X226.924 S831
S0
G1 X227.051 S838
S0
G1 X227.305 S836
S0
G1 X227.432 S835
S0
G1 X227.559 S834
S0
G1 X227.686 S831
S0
G1 X227.813 S917
S0
G1 X227.940 S733
S0
G1 X228.067 S21
S0
G0 X228.194 S0
G1 X228.321 S9
S0
G1 X228.448 S11
S0
G1 X235.433 S5
S0
G0 Y43.053
G0 X235.433 S0
G1 X228.321 S5
S0
G1 X228.194 S9
S0
G1 X228.067 S2
S0
G1 X227.940 S225
S0
G1 X227.813 S894
S0
G1 X227.686 S854
S0
G1 X227.432 S832
S0
G1 X227.305 S831
S0
G1 X227.178 S832
S0
G1 X227.051 S835
S0
G1 X226.924 S836
S0
G1 X226.797 S838
S0
G1 X226.670 S836
S0
G1 X226.543 S834
S0
G1 X226.416 S835
S0
G1 X226.289 S836
S0
G1 X226.162 S834
S0
G1 X226.035 S838
S0
G1 X225.908 S834
S0
G1 X225.781 S838
S0
G1 X225.400 S831
S0
G1 X225.273 S835
S0
G1 X225.146 S937
S0
G1 X225.019 S600
S0
G1 X224.892 S5
S0
G1 X224.765 S1
S0
G1 X224.638 S5
S0
G1 X224.511 S6
S0
G0 X224.384 S0
G1 X224.257 S7
S0
G1 X224.130 S5
S0
G1 X224.003 S7
S0
G1 X223.876 S13
S0
G1 X223.749 S11
S0
G1 X223.622 S5
S0
G1 X223.495 S12
S0
G1 X223.241 S2
S0
G1 X223.114 S365
S0
G1 X222.987 S812
S0
G1 X222.860 S721
S0
G1 X222.733 S573
S0
G1 X222.606 S585
S0
G1 X222.479 S650
S0
G1 X222.352 S701
S0
G1 X222.225 S358
S0
G1 X222.098 S4
S0
G0 X221.971 S0
G1 X221.844 S8
S0
G1 X221.717 S6
S0
G1 X221.590 S13
S0
G1 X221.463 S8
S0
G1 X221.209 S5
S0
G1 X221.082 S6
S0
G1 X220.955 S4
S0
G1 X220.828 S8
S0
G1 X220.574 S9
S0
G1 X220.447 S8
S0
G1 X220.320 S2
S0
G1 X220.193 S196
S0
G1 X220.066 S359
S0
G1 X219.939 S75
S0
G1 X219.812 S2
S0
G1 X219.685 S53
S0
G1 X219.558 S328
S0
G1 X219.431 S304
S0
G1 X219.304 S112
S0
G1 X219.177 S51
S0
G1 X219.050 S65
S0
G1 X218.923 S156
S0
G1 X218.796 S221
S0
G1 X218.669 S97
S0
G1 X218.542 S49
S0
G1 X218.415 S55
S0
G1 X218.288 S67
S0
G1 X218.161 S61
S0
G1 X218.034 S63
S0
G1 X217.907 S67
S0
G1 X217.780 S66
S0
G1 X217.526 S61
S0
G1 X217.399 S65
S0
G1 X217.145 S61
S0
G1 X217.018 S65
S0
G1 X216.891 S62
S0
G1 X216.764 S65
S0
G1 X216.637 S63
S0
G1 X216.510 S58
S0
G1 X216.383 S44
S0
G1 X216.256 S159
S0
G1 X216.129 S231
S0
G1 X216.002 S75
S0
G1 X215.875 S52
S0
G1 X215.748 S59
S0
G1 X215.621 S93
S0
G1 X215.494 S329
S0
G1 X215.367 S207
S0
G1 X215.240 S5
S0
G1 X215.113 S2
S0
G1 X214.986 S48
S0
G1 X214.859 S336
S0
G1 X214.732 S449
S0
G1 X214.605 S183
S0
G1 X214.478 S6
S0
G1 X214.351 S15
S0
G1 X214.224 S2
S0
G1 X214.097 S5
S0
G1 X213.970 S10
S0
G1 X213.843 S7
S0
G1 X213.716 S3
S0
G1 X213.589 S4
S0
G1 X213.208 S5
S0
G1 X213.081 S2
S0
G1 X212.954 S4
S0
G1 X212.827 S667
S0
G1 X212.700 S897
S0
G1 X212.573 S836
S0
G1 X212.446 S840
S0
G1 X212.319 S831
S0
G1 X211.557 S834
S0
G1 X211.303 S836
S0
G1 X210.795 S834
S0
G1 X210.668 S832
S0
G1 X210.414 S831
S0
G1 X210.287 S830
S0
G1 X210.160 S905
S0
G1 X210.033 S361
S0
G1 X209.906 S2
S0
G1 X209.779 S9
S0
G1 X209.652 S12
S0
G1 X209.398 S5
S0
G1 X209.271 S2
S0
G1 X200.000 S5
S0
G0 Y42.926
G0 X200.000 S0
G1 X209.144 S5
S0
G1 X209.271 S8
S0
G1 X209.398 S2
S0
G1 X209.525 S5
S0
G1 X209.779 S2
S0
G1 X209.906 S9
S0
G1 X210.033 S2
S0
G1 X210.160 S244
S0
G1 X210.287 S870
S0
G1 X210.414 S847
S0
G1 X210.541 S831
S0
G1 X210.668 S832
S0
G1 X210.795 S831
S0
G1 X210.922 S835
S0
G1 X211.049 S831
S0
G1 X211.303 S836
S0
G1 X211.430 S834
S0
G1 X211.684 S836
S0
G1 X211.811 S840
S0
G1 X212.192 S834
S0
G1 X212.319 S836
S0
G1 X212.446 S835
S0
G1 X212.573 S831
S0
G1 X212.700 S834
S0
G1 X212.827 S941
S0
G1 X212.954 S552
S0
G0 X213.081 S0
G1 X213.208 S2
S0
G1 X213.589 S5
S0
G1 X213.716 S3
S0
G1 X213.843 S8
S0
G1 X213.970 S11
S0
G1 X214.097 S7
S0
G1 X214.351 S5
S0
G1 X214.478 S12
S0
G1 X214.605 S3
S0
G1 X214.732 S86
S0
G1 X214.859 S336
S0
G1 X214.986 S380
S0
G1 X215.113 S289
S0
G1 X215.240 S44
S0
G0 X215.367 S0
G1 X215.494 S137
S0
G1 X215.621 S307
S0
G1 X215.748 S127
S0
G1 X215.875 S50
S0
G1 X216.002 S67
S0
G1 X216.129 S50
S0
G1 X216.256 S136
S0
G1 X216.383 S223
S0
G1 X216.510 S62
S0
G1 X216.637 S54
S0
G1 X216.764 S61
S0
G1 X216.891 S62
S0
G1 X217.018 S60
S0
G1 X217.145 S65
S0
G1 X217.272 S61
S0
G1 X217.399 S65
S0
G1 X217.526 S57
S0
G1 X217.653 S67
S0
G1 X217.780 S62
S0
G1 X217.907 S63
S0
G1 X218.034 S62
S0
G1 X218.161 S61
S0
G1 X218.288 S59
S0
G1 X218.415 S51
S0
G1 X218.542 S49
S0
G1 X218.669 S125
S0
G1 X218.796 S198
S0
G1 X218.923 S94
S0
G1 X219.050 S46
S0
G1 X219.177 S55
S0
G1 X219.304 S75
S0
G1 X219.431 S229
S0
G1 X219.558 S367
S0
G1 X219.685 S152
S0
G1 X219.812 S2
S0
G1 X219.939 S98
S0
G1 X220.066 S379
S0
G1 X220.193 S371
S0
G1 X220.320 S43
S0
G1 X220.447 S1
S0
G1 X220.574 S9
S0
G1 X220.701 S4
S0
G1 X220.828 S9
S0
G1 X220.955 S4
S0
G1 X221.082 S5
S0
G1 X221.209 S3
S0
G1 X221.336 S6
S0
G1 X221.463 S5
S0
G1 X221.590 S8
S0
G1 X221.717 S12
S0
G1 X221.844 S14
S0
G1 X221.971 S3
S0
G1 X222.098 S58
S0
G1 X222.225 S468
S0
G1 X222.352 S697
S0
G1 X222.479 S604
S0
G1 X222.606 S553
S0
G1 X222.733 S564
S0
G1 X222.860 S732
S0
G1 X222.987 S705
S0
G1 X223.114 S225
S0
G1 X223.241 S3
S0
G1 X223.368 S2
S0
G1 X223.495 S7
S0
G1 X223.622 S15
S0
G1 X223.749 S20
S0
G1 X223.876 S12
S0
G1 X224.003 S9
S0
G1 X224.130 S7
S0
G1 X224.257 S10
S0
G1 X224.892 S5
S0
G1 X225.019 S75
S0
G1 X225.146 S745
S0
G1 X225.273 S897
S0
G1 X225.400 S831
S0
G1 X225.527 S838
S0
G1 X225.781 S835
S0
G1 X226.162 S834
S0
G1 X226.416 S838
S0
G1 X227.051 S834
S0
G1 X227.178 S836
S0
G1 X227.432 S832
S0
G1 X227.559 S836
S0
G1 X227.686 S829
S0
G1 X227.813 S840
S0
G1 X227.940 S945
S0
G1 X228.067 S413
S0
G1 X228.194 S2
S0
G1 X228.321 S9
S0
G1 X228.448 S2
S0
G1 X235.433 S5
S0
G0 Y42.799
G0 X235.433 S0
G1 X228.321 S5
S0
G1 X228.194 S2
S0
G1 X228.067 S5
S0
G1 X227.940 S499
S0
G1 X227.813 S956
S0
G1 X227.686 S824
S0
G1 X227.305 S836
S0
G1 X227.178 S832
S0
G1 X226.035 S834
S0
G1 X225.781 S838
S0
G1 X225.654 S835
S0
G1 X225.400 S831
S0
G1 X225.273 S827
S0
G1 X225.146 S871
S0
G1 X225.019 S831
S0
G1 X224.892 S139
S0
G1 X224.765 S2
S0
G1 X224.638 S13
S0
G1 X224.511 S7
S0
G1 X224.384 S4
S0
G1 X224.257 S5
S0
G1 X224.130 S8
S0
G1 X224.003 S5
S0
G1 X223.876 S12
S0
G1 X223.749 S6
S0
G1 X223.622 S24
S0
G1 X223.495 S7
S0
G1 X223.368 S11
S0
G1 X223.241 S12
S0
G1 X223.114 S7
S0
G1 X222.987 S2
S0
G1 X222.860 S108
S0
G1 X222.733 S585
S0
G1 X222.606 S712
S0
G1 X222.479 S567
S0
G1 X222.352 S536
S0
G1 X222.225 S577
S0
G1 X222.098 S675
S0
G1 X221.971 S537
S0
G1 X221.844 S124
S0
G1 X221.717 S2
S0
G1 X221.590 S9
S0
G1 X221.463 S12
S0
G1 X221.336 S5
S0
G1 X221.209 S9
S0
G1 X221.082 S7
S0
G1 X220.955 S2
S0
G1 X220.828 S9
S0
G1 X220.701 S1
S0
G1 X220.574 S9
S0
G1 X220.447 S7
S0
G1 X220.320 S13
S0
G1 X220.193 S11
S0
G1 X220.066 S206
S0
G1 X219.939 S430
S0
G1 X219.812 S346
S0
G1 X219.685 S152
S0
G1 X219.558 S35
S0
G1 X219.431 S309
S0
G1 X219.304 S370
S0
G1 X219.177 S132
S0
G1 X219.050 S61
S0
G1 X218.923 S55
S0
G1 X218.796 S46
S0
G1 X218.669 S58
S0
G1 X218.542 S164
S0
G1 X218.415 S156
S0
G1 X218.288 S43
S0
G1 X218.161 S46
S0
G1 X218.034 S66
S0
G1 X217.780 S61
S0
G1 X217.653 S65
S0
G1 X217.526 S61
S0
G1 X217.399 S65
S0
G1 X217.272 S63
S0
G1 X217.145 S67
S0
G1 X217.018 S58
S0
G1 X216.891 S61
S0
G1 X216.764 S69
S0
G1 X216.637 S63
S0
G1 X216.510 S39
S0
G1 X216.383 S124
S0
G1 X216.256 S211
S0
G1 X216.129 S57
S0
G1 X215.875 S54
S0
G1 X215.748 S66
S0
G1 X215.621 S159
S0
G1 X215.494 S344
S0
G1 X215.367 S167
S0
G1 X215.240 S94
S0
G1 X215.113 S283
S0
G1 X214.986 S276
S0
G1 X214.859 S303
S0
G1 X214.732 S253
S0
G1 X214.605 S20
S0
G1 X214.478 S12
S0
G1 X214.351 S5
S0
G1 X214.224 S13
S0
G1 X213.970 S8
S0
G1 X213.843 S12
S0
G1 X213.716 S9
S0
G1 X213.589 S3
S0
G1 X213.081 S5
S0
G1 X212.954 S2
S0
G1 X212.827 S364
S0
G1 X212.700 S925
S0
G1 X212.573 S857
S0
G1 X212.446 S831
S0
G1 X212.319 S839
S0
G1 X211.557 S834
S0
G1 X211.430 S835
S0
G1 X211.303 S834
S0
G1 X211.176 S840
S0
G1 X211.049 S835
S0
G1 X210.922 S839
S0
G1 X210.795 S836
S0
G1 X210.668 S827
S0
G1 X210.541 S836
S0
G1 X210.414 S831
S0
G1 X210.287 S899
S0
G1 X210.160 S758
S0
G1 X210.033 S79
S0
G1 X209.906 S2
S0
G1 X209.779 S12
S0
G1 X209.652 S9
S0
G1 X209.398 S2
S0
G1 X200.000 S5
S0
G0 Y42.672
G0 X200.000 S0
G1 X209.525 S5
S0
G1 X209.652 S12
S0
G1 X209.779 S5
S0
G1 X209.906 S11
S0
G1 X210.160 S2
S0
G1 X210.287 S532
S0
G1 X210.414 S925
S0
G1 X210.541 S831
S0
G1 X210.668 S844
S0
G1 X210.795 S834
S0
G1 X210.922 S835
S0
G1 X211.049 S827
S0
G1 X211.176 S840
S0
G1 X211.303 S836
S0
G1 X211.430 S838
S0
G1 X211.557 S835
S0
G1 X211.684 S831
S0
G1 X211.938 S838
S0
G1 X212.319 S831
S0
G1 X212.446 S834
S0
G1 X212.573 S819
S0
G1 X212.700 S899
S0
G1 X212.827 S801
S0
G1 X212.954 S107
S0
G1 X213.081 S2
S0
G1 X213.335 S5
S0
G1 X213.462 S9
S0
G1 X213.589 S3
S0
G1 X213.716 S5
S0
G1 X213.843 S11
S0
G1 X213.970 S12
S0
G1 X214.224 S8
S0
G1 X214.351 S13
S0
G1 X214.478 S7
S0
G1 X214.605 S2
S0
G1 X214.732 S10
S0
G1 X214.859 S265
S0
G1 X214.986 S419
S0
G1 X215.113 S180
S0
G1 X215.240 S214
S0
G1 X215.367 S344
S0
G1 X215.494 S340
S0
G1 X215.621 S372
S0
G1 X215.748 S202
S0
G1 X215.875 S69
S0
G1 X216.002 S47
S0
G1 X216.129 S54
S0
G1 X216.256 S44
S0
G1 X216.383 S128
S0
G1 X216.510 S183
S0
G1 X216.637 S54
S0
G1 X216.764 S52
S0
G1 X216.891 S61
S0
G1 X217.018 S65
S0
G1 X217.145 S59
S0
G1 X217.272 S61
S0
G1 X217.399 S63
S0
G1 X217.526 S67
S0
G1 X218.034 S61
S0
G1 X218.161 S59
S0
G1 X218.288 S82
S0
G1 X218.415 S165
S0
G1 X218.542 S145
S0
G1 X218.669 S48
S0
G1 X218.796 S49
S0
G1 X218.923 S62
S0
G1 X219.050 S57
S0
G1 X219.177 S85
S0
G1 X219.304 S232
S0
G1 X219.431 S386
S0
G1 X219.558 S311
S0
G1 X219.685 S281
S0
G1 X219.812 S352
S0
G1 X219.939 S342
S0
G1 X220.066 S389
S0
G1 X220.193 S317
S0
G1 X220.320 S176
S0
G1 X220.447 S16
S0
G0 X220.574 S0
G1 X220.955 S9
S0
G1 X221.082 S8
S0
G1 X221.209 S2
S0
G1 X221.463 S13
S0
G1 X221.590 S3
S0
G1 X221.717 S2
S0
G1 X221.844 S232
S0
G1 X221.971 S615
S0
G1 X222.098 S635
S0
G1 X222.225 S547
S0
G1 X222.352 S520
S0
G1 X222.479 S576
S0
G1 X222.606 S694
S0
G1 X222.733 S443
S0
G1 X222.860 S42
S0
G0 X222.987 S0
G1 X223.114 S12
S0
G1 X223.241 S9
S0
G1 X223.368 S11
S0
G1 X223.495 S6
S0
G1 X223.622 S13
S0
G1 X223.749 S6
S0
G1 X223.876 S15
S0
G1 X224.003 S9
S0
G1 X224.130 S5
S0
G1 X224.384 S4
S0
G1 X224.638 S5
S0
G1 X224.765 S11
S0
G1 X224.892 S1
S0
G1 X225.019 S189
S0
G1 X225.146 S856
S0
G1 X225.273 S858
S0
G1 X225.400 S835
S0
G1 X225.527 S838
S0
G1 X225.781 S835
S0
G1 X226.035 S838
S0
G1 X226.416 S834
S0
G1 X226.543 S838
S0
G1 X227.178 S834
S0
G1 X227.305 S832
S0
G1 X227.432 S836
S0
G1 X227.559 S835
S0
G1 X227.686 S839
S0
G1 X227.813 S828
S0
G1 X227.940 S942
S0
G1 X228.067 S546
S0
G1 X228.321 S2
S0
G1 X228.448 S7
S0
G1 X235.433 S5
S0
G0 Y42.545
G0 X235.433 S0
G1 X228.448 S5
S0
G1 X228.067 S2
S0
G1 X227.940 S540
S0
G1 X227.813 S934
S0
G1 X227.686 S839
S0
G1 X227.559 S831
S0
G1 X227.432 S840
S0
G1 X227.178 S836
S0
G1 X227.051 S840
S0
G1 X226.924 S838
S0
G1 X226.035 S834
S0
G1 X225.908 S838
S0
G1 X225.781 S834
S0
G1 X225.527 S835
S0
G1 X225.400 S842
S0
G1 X225.273 S832
S0
G1 X225.146 S858
S0
G1 X225.019 S850
S0
G1 X224.892 S181
S0
G1 X224.765 S2
S0
G1 X224.638 S7
S0
G1 X224.511 S9
S0
G1 X224.384 S4
S0
G1 X224.257 S43
S0
G1 X224.130 S62
S0
G1 X224.003 S40
S0
G1 X223.876 S13
S0
G1 X223.749 S4
S0
G1 X223.495 S2
S0
G1 X223.241 S5
S0
G1 X223.114 S9
S0
G1 X222.987 S5
S0
G1 X222.860 S4
S0
G1 X222.733 S3
S0
G1 X222.606 S5
S0
G1 X222.479 S323
S0
G1 X222.352 S677
S0
G1 X222.225 S599
S0
G1 X222.098 S519
S0
G1 X221.971 S537
S0
G1 X221.844 S607
S0
G1 X221.717 S662
S0
G1 X221.590 S192
S0
G1 X221.463 S4
S0
G1 X221.336 S8
S0
G1 X221.209 S17
S0
G1 X220.828 S5
S0
G1 X220.701 S9
S0
G1 X220.574 S5
S0
G1 X220.447 S4
S0
G1 X220.320 S7
S0
G1 X220.193 S201
S0
G1 X220.066 S402
S0
G1 X219.939 S375
S0
G1 X219.812 S342
S0
G1 X219.685 S232
S0
G1 X219.558 S312
S0
G1 X219.431 S331
S0
G1 X219.304 S301
S0
G1 X219.177 S311
S0
G1 X219.050 S150
S0
G1 X218.923 S67
S0
G1 X218.796 S62
S0
G1 X218.669 S61
S0
G1 X218.542 S63
S0
G1 X218.415 S46
S0
G1 X218.288 S116
S0
G1 X218.161 S136
S0
G1 X218.034 S62
S0
G1 X217.907 S55
S0
G1 X217.780 S65
S0
G1 X217.526 S61
S0
G1 X217.399 S59
S0
G1 X217.145 S67
S0
G1 X217.018 S74
S0
G1 X216.891 S54
S0
G1 X216.764 S59
S0
G1 X216.637 S47
S0
G1 X216.510 S137
S0
G1 X216.383 S163
S0
G1 X216.256 S39
S0
G1 X216.129 S67
S0
G1 X216.002 S55
S0
G1 X215.875 S59
S0
G1 X215.748 S82
S0
G1 X215.621 S250
S0
G1 X215.494 S391
S0
G1 X215.367 S307
S0
G1 X215.240 S178
S0
G1 X215.113 S111
S0
G1 X214.986 S313
S0
G1 X214.859 S453
S0
G1 X214.732 S176
S0
G1 X214.605 S1
S0
G1 X214.478 S5
S0
G1 X214.351 S2
S0
G1 X214.224 S13
S0
G1 X214.097 S5
S0
G1 X213.970 S9
S0
G1 X213.843 S10
S0
G1 X213.589 S5
S0
G1 X213.335 S3
S0
G1 X213.081 S5
S0
G1 X212.954 S2
S0
G1 X212.827 S6
S0
G1 X212.700 S463
S0
G1 X212.573 S944
S0
G1 X212.446 S844
S0
G1 X212.319 S827
S0
G1 X212.192 S834
S0
G1 X211.938 S831
S0
G1 X211.811 S834
S0
G1 X211.684 S838
S0
G1 X211.557 S834
S0
G1 X211.430 S838
S0
G1 X211.303 S836
S0
G1 X211.176 S835
S0
G1 X211.049 S832
S0
G1 X210.922 S839
S0
G1 X210.795 S832
S0
G1 X210.668 S835
S0
G1 X210.541 S820
S0
G1 X210.414 S874
S0
G1 X210.287 S855
S0
G1 X210.160 S174
S0
G1 X210.033 S2
S0
G1 X209.906 S7
S0
G0 X209.779 S0
G1 X209.652 S9
S0
G1 X200.000 S5
S0
G0 Y42.418
G0 X200.000 S0
G1 X209.144 S5
S0
G1 X209.271 S2
S0
G1 X209.525 S5
S0
G1 X209.652 S2
S0
G1 X209.779 S9
S0
G1 X209.906 S7
S0
G1 X210.033 S3
S0
G1 X210.160 S2
S0
G1 X210.287 S3
S0
G1 X210.414 S483
S0
G1 X210.541 S973
S0
G1 X210.668 S846
S0
G1 X210.795 S826
S0
G1 X210.922 S840
S0
G1 X211.049 S835
S0
G1 X211.176 S831
S0
G1 X211.303 S835
S0
G1 X211.430 S836
S0
G1 X211.557 S838
S0
G1 X211.811 S834
S0
G1 X211.938 S838
S0
G1 X212.065 S834
S0
G1 X212.192 S832
S0
G1 X212.319 S835
S0
G1 X212.446 S823
S0
G1 X212.573 S946
S0
G1 X212.700 S773
S0
G1 X212.827 S62
S0
G1 X212.954 S3
S0
G1 X213.081 S17
S0
G1 X213.208 S9
S0
G1 X213.462 S5
S0
G1 X213.589 S3
S0
G1 X213.716 S6
S0
G1 X213.843 S4
S0
G1 X213.970 S9
S0
G1 X214.097 S10
S0
G1 X214.224 S3
S0
G1 X214.351 S9
S0
G1 X214.478 S11
S0
G1 X214.605 S6
S0
G1 X214.732 S8
S0
G1 X214.859 S2
S0
G1 X214.986 S211
S0
G1 X215.113 S406
S0
G1 X215.240 S186
S0
G1 X215.367 S66
S0
G1 X215.494 S121
S0
G1 X215.621 S323
S0
G1 X215.748 S330
S0
G1 X215.875 S93
S0
G1 X216.002 S50
S0
G1 X216.129 S69
S0
G1 X216.256 S57
S0
G1 X216.383 S51
S0
G1 X216.510 S90
S0
G1 X216.637 S132
S0
G1 X216.764 S55
S0
G1 X216.891 S57
S0
G1 X217.018 S60
S0
G1 X217.145 S69
S0
G1 X217.399 S61
S0
G1 X217.526 S65
S0
G1 X217.653 S66
S0
G1 X217.780 S58
S0
G1 X217.907 S61
S0
G1 X218.034 S62
S0
G1 X218.161 S66
S0
G1 X218.288 S73
S0
G1 X218.415 S49
S0
G1 X218.542 S47
S0
G1 X218.669 S67
S0
G1 X218.796 S59
S0
G1 X218.923 S61
S0
G1 X219.050 S74
S0
G1 X219.177 S280
S0
G1 X219.304 S327
S0
G1 X219.431 S211
S0
G1 X219.558 S167
S0
G1 X219.685 S99
S0
G1 X219.812 S246
S0
G1 X219.939 S335
S0
G1 X220.066 S340
S0
G1 X220.193 S231
S0
G1 X220.320 S10
S0
G1 X220.447 S5
S0
G1 X220.574 S8
S0
G1 X220.701 S5
S0
G1 X220.828 S8
S0
G1 X220.955 S9
S0
G1 X221.082 S12
S0
G1 X221.209 S17
S0
G1 X221.336 S4
S0
G1 X221.463 S2
S0
G1 X221.590 S216
S0
G1 X221.717 S592
S0
G1 X221.844 S587
S0
G1 X221.971 S510
S0
G1 X222.098 S489
S0
G1 X222.225 S600
S0
G1 X222.352 S591
S0
G1 X222.479 S191
S0
G1 X222.606 S2
S0
G1 X222.733 S4
S0
G1 X222.860 S10
S0
G1 X222.987 S24
S0
G1 X223.114 S42
S0
G1 X223.241 S50
S0
G1 X223.368 S62
S0
G1 X223.495 S78
S0
G1 X223.622 S114
S0
G1 X223.749 S166
S0
G1 X223.876 S211
S0
G1 X224.003 S277
S0
G1 X224.130 S316
S0
G1 X224.257 S328
S0
G1 X224.384 S368
S0
G1 X224.511 S263
S0
G1 X224.638 S17
S0
G1 X224.892 S2
S0
G1 X225.019 S109
S0
G1 X225.146 S804
S0
G1 X225.273 S874
S0
G1 X225.527 S834
S0
G1 X225.781 S835
S0
G1 X227.051 S834
S0
G1 X227.178 S840
S0
G1 X227.559 S836
S0
G1 X227.686 S839
S0
G1 X227.813 S824
S0
G1 X227.940 S959
S0
G1 X228.067 S483
S0
G1 X228.194 S3
S0
G1 X228.448 S2
S0
G1 X235.433 S5
S0
G0 Y42.291
G0 X235.433 S0
G1 X228.321 S5
S0
G1 X228.067 S3
S0
G1 X227.940 S325
S0
G1 X227.813 S933
S0
G1 X227.686 S846
S0
G1 X227.559 S834
S0
G1 X227.432 S838
S0
G1 X227.305 S832
S0
G1 X227.051 S836
S0
G1 X226.035 S834
S0
G1 X225.908 S836
S0
G1 X225.781 S834
S0
G1 X225.527 S835
S0
G1 X225.400 S834
S0
G1 X225.273 S832
S0
G1 X225.146 S906
S0
G1 X225.019 S703
S0
G1 X224.892 S39
S0
G1 X224.765 S2
S0
G1 X224.638 S6
S0
G1 X224.511 S15
S0
G1 X224.384 S277
S0
G1 X224.257 S484
S0
G1 X224.130 S464
S0
G1 X224.003 S374
S0
G1 X223.876 S370
S0
G1 X223.749 S355
S0
G1 X223.622 S323
S0
G1 X223.495 S328
S0
G1 X223.368 S333
S0
G1 X223.241 S327
S0
G1 X223.114 S288
S0
G1 X222.987 S278
S0
G1 X222.860 S238
S0
G1 X222.733 S199
S0
G1 X222.606 S161
S0
G1 X222.479 S126
S0
G1 X222.352 S33
S0
G1 X222.225 S145
S0
G1 X222.098 S482
S0
G1 X221.971 S564
S0
G1 X221.844 S473
S0
G1 X221.717 S453
S0
G1 X221.590 S556
S0
G1 X221.463 S623
S0
G1 X221.336 S317
S0
G1 X221.209 S5
S0
G1 X221.082 S2
S0
G1 X220.955 S9
S0
G1 X220.828 S12
S0
G1 X220.701 S7
S0
G1 X220.574 S6
S0
G1 X220.447 S12
S0
G1 X220.320 S13
S0
G1 X220.193 S7
S0
G1 X220.066 S35
S0
G1 X219.939 S251
S0
G1 X219.812 S336
S0
G1 X219.685 S341
S0
G1 X219.558 S139
S0
G1 X219.431 S34
S0
G1 X219.304 S70
S0
G1 X219.177 S139
S0
G1 X219.050 S296
S0
G1 X218.923 S171
S0
G1 X218.796 S42
S0
G1 X218.669 S58
S0
G1 X218.415 S63
S0
G1 X218.161 S62
S0
G1 X218.034 S65
S0
G1 X217.907 S57
S0
G1 X217.780 S65
S0
G1 X217.653 S61
S0
G1 X217.526 S62
S0
G1 X217.399 S63
S0
G1 X217.272 S62
S0
G1 X217.145 S67
S0
G1 X217.018 S57
S0
G1 X216.891 S66
S0
G1 X216.764 S54
S0
G1 X216.637 S61
S0
G1 X216.510 S71
S0
G1 X216.383 S55
S0
G1 X216.256 S63
S0
G1 X216.129 S54
S0
G1 X216.002 S63
S0
G1 X215.875 S46
S0
G1 X215.748 S179
S0
G1 X215.621 S303
S0
G1 X215.494 S103
S0
G1 X215.367 S47
S0
G1 X215.240 S121
S0
G1 X215.113 S308
S0
G1 X214.986 S243
S0
G1 X214.859 S12
S0
G1 X214.732 S16
S0
G1 X214.605 S4
S0
G1 X214.478 S5
S0
G1 X214.224 S9
S0
G1 X214.097 S3
S0
G1 X213.970 S9
S0
G1 X213.843 S8
S0
G1 X213.716 S6
S0
G1 X213.462 S9
S0
G1 X213.208 S5
S0
G1 X213.081 S7
S0
G1 X212.954 S9
S0
G1 X212.827 S11
S0
G1 X212.700 S4
S0
G1 X212.573 S192
S0
G1 X212.446 S870
S0
G1 X212.319 S937
S0
G1 X212.192 S831
S0
G1 X212.065 S832
S0
G1 X211.938 S831
S0
G1 X211.811 S834
S0
G1 X211.684 S838
S0
G1 X211.430 S835
S0
G1 X211.303 S834
S0
G1 X211.176 S830
S0
G1 X211.049 S835
S0
G1 X210.922 S834
S0
G1 X210.795 S832
S0
G1 X210.668 S847
S0
G1 X210.541 S980
S0
G1 X210.414 S643
S0
G1 X210.287 S23
S0
G1 X210.160 S2
S0
G1 X210.033 S7
S0
G1 X209.906 S3
S0
G1 X209.779 S15
S0
G1 X209.652 S2
S0
G1 X209.525 S9
S0
G1 X209.398 S5
S0
G1 X209.271 S2
S0
G1 X200.000 S5
S0
G0 Y42.164
G0 X200.000 S0
G1 X209.525 S5
S0
G1 X209.652 S2
S0
G1 X209.779 S5
S0
G1 X209.906 S3
S0
G1 X210.033 S15
S0
G1 X210.160 S5
S0
G1 X210.287 S12
S0
G1 X210.414 S2
S0
G1 X210.541 S56
S0
G1 X210.668 S607
S0
G1 X210.795 S964
S0
G1 X210.922 S898
S0
G1 X211.049 S830
S0
G1 X211.176 S842
S0
G1 X211.303 S839
S0
G1 X211.430 S832
S0
G1 X211.557 S830
S0
G1 X211.684 S835
S0
G1 X211.811 S834
S0
G1 X211.938 S831
S0
G1 X212.065 S838
S0
G1 X212.192 S850
S0
G1 X212.319 S932
S0
G1 X212.446 S785
S0
G1 X212.573 S208
S0
G1 X212.700 S3
S0
G0 X212.827 S0
G1 X212.954 S9
S0
G1 X213.081 S2
S0
G1 X213.208 S9
S0
G1 X213.335 S5
S0
G1 X213.589 S3
S0
G1 X213.843 S7
S0
G1 X214.097 S3
S0
G1 X214.224 S5
S0
G1 X214.351 S3
S0
G1 X214.478 S13
S0
G1 X214.605 S8
S0
G1 X214.732 S6
S0
G1 X214.859 S7
S0
G1 X214.986 S10
S0
G1 X215.113 S221
S0
G1 X215.240 S402
S0
G1 X215.367 S217
S0
G1 X215.494 S80
S0
G1 X215.621 S36
S0
G1 X215.748 S216
S0
G1 X215.875 S261
S0
G1 X216.002 S80
S0
G1 X216.129 S49
S0
G1 X216.256 S74
S0
G1 X216.383 S47
S0
G1 X216.510 S59
S0
G1 X216.637 S55
S0
G1 X216.764 S59
S0
G1 X217.145 S67
S0
G1 X217.272 S63
S0
G1 X217.399 S65
S0
G1 X217.526 S62
S0
G1 X217.653 S67
S0
G1 X217.907 S61
S0
G1 X218.034 S67
S0
G1 X218.161 S62
S0
G1 X218.288 S71
S0
G1 X218.415 S54
S0
G1 X218.542 S61
S0
G1 X218.669 S65
S0
G1 X218.796 S45
S0
G1 X218.923 S97
S0
G1 X219.050 S281
S0
G1 X219.177 S144
S0
G1 X219.304 S34
S0
G1 X219.431 S62
S0
G1 X219.558 S66
S0
G1 X219.685 S284
S0
G1 X219.812 S359
S0
G1 X219.939 S317
S0
G1 X220.066 S105
S0
G1 X220.193 S2
S0
G1 X220.320 S16
S0
G1 X220.447 S23
S0
G1 X220.701 S9
S0
G1 X220.828 S4
S0
G0 X220.955 S0
G1 X221.082 S5
S0
G1 X221.209 S46
S0
G1 X221.336 S399
S0
G1 X221.463 S572
S0
G1 X221.590 S469
S0
G1 X221.717 S405
S0
G1 X221.844 S348
S0
G1 X221.971 S398
S0
G1 X222.098 S471
S0
G1 X222.225 S308
S0
G1 X222.352 S198
S0
G1 X222.479 S250
S0
G1 X222.733 S257
S0
G1 X222.860 S239
S0
G1 X222.987 S195
S0
G1 X223.114 S186
S0
G1 X223.241 S187
S0
G1 X223.368 S195
S0
G1 X223.495 S207
S0
G1 X223.622 S168
S0
G1 X223.749 S174
S0
G1 X223.876 S264
S0
G1 X224.003 S335
S0
G1 X224.130 S355
S0
G1 X224.257 S272
S0
G1 X224.384 S131
S0
G1 X224.511 S15
S0
G1 X224.638 S4
S0
G1 X224.765 S11
S0
G1 X225.019 S2
S0
G1 X225.146 S526
S0
G1 X225.273 S948
S0
G1 X225.400 S823
S0
G1 X225.527 S834
S0
G1 X225.654 S835
S0
G1 X225.781 S834
S0
G1 X226.035 S835
S0
G1 X226.162 S836
S0
G1 X227.051 S834
S0
G1 X227.178 S838
S0
G1 X227.305 S840
S0
G1 X227.432 S836
S0
G1 X227.559 S834
S0
G1 X227.686 S832
S0
G1 X227.813 S882
S0
G1 X227.940 S832
S0
G1 X228.067 S144
S0
G1 X228.194 S2
S0
G1 X228.321 S4
S0
G1 X235.433 S5
S0
G0 Y42.037
G0 X235.433 S0
G1 X228.448 S5
S0
G1 X228.321 S1
S0
G1 X228.194 S7
S0
G1 X228.067 S5
S0
G1 X227.940 S4
S0
G1 X227.813 S614
S0
G1 X227.686 S946
S0
G1 X227.559 S815
S0
G1 X227.432 S838
S0
G1 X227.305 S831
S0
G1 X227.178 S838
S0
G1 X226.924 S834
S0
G1 X226.797 S838
S0
G1 X226.670 S834
S0
G1 X226.543 S838
S0
G1 X226.289 S834
S0
G1 X226.162 S838
S0
G1 X226.035 S835
S0
G1 X225.908 S831
S0
G1 X225.781 S835
S0
G1 X225.654 S834
S0
G1 X225.400 S831
S0
G1 X225.273 S878
S0
G1 X225.146 S901
S0
G1 X225.019 S251
S0
G1 X224.892 S3
S0
G1 X224.765 S7
S0
G1 X224.638 S3
S0
G1 X224.511 S7
S0
G1 X224.384 S4
S0
G1 X224.130 S3
S0
G1 X224.003 S156
S0
G1 X223.876 S352
S0
G1 X223.749 S316
S0
G1 X223.622 S176
S0
G1 X223.495 S63
S0
G1 X223.368 S54
S0
G1 X223.241 S59
S0
G1 X223.114 S81
S0
G1 X222.987 S170
S0
G1 X222.860 S266
S0
G1 X222.733 S291
S0
G1 X222.606 S289
S0
G1 X222.479 S245
S0
G1 X222.352 S224
S0
G1 X222.225 S268
S0
G1 X222.098 S272
S0
G1 X221.844 S238
S0
G1 X221.717 S206
S0
G1 X221.590 S195
S0
G1 X221.463 S276
S0
G1 X221.336 S344
S0
G1 X221.209 S493
S0
G1 X221.082 S474
S0
G1 X220.955 S162
S0
G1 X220.828 S19
S0
G1 X220.574 S2
S0
G1 X220.447 S11
S0
G1 X220.320 S15
S0
G1 X220.193 S6
S0
G1 X220.066 S46
S0
G1 X219.939 S231
S0
G1 X219.812 S292
S0
G1 X219.685 S155
S0
G1 X219.558 S312
S0
G1 X219.431 S211
S0
G1 X219.304 S53
S0
G1 X219.177 S49
S0
G1 X219.050 S34
S0
G1 X218.923 S218
S0
G1 X218.796 S234
S0
G1 X218.669 S50
S0
G1 X218.542 S65
S0
G1 X218.415 S55
S0
G1 X218.288 S63
S0
G1 X218.161 S67
S0
G1 X218.034 S59
S0
G1 X217.907 S62
S0
G1 X217.653 S63
S0
G1 X217.526 S61
S0
G1 X217.399 S67
S0
G1 X217.145 S63
S0
G1 X217.018 S62
S0
G1 X216.891 S59
S0
G1 X216.764 S54
S0
G1 X216.637 S59
S0
G1 X216.510 S62
S0
G1 X216.383 S50
S0
G1 X216.256 S59
S0
G1 X216.129 S56
S0
G1 X216.002 S60
S0
G1 X215.875 S182
S0
G1 X215.748 S297
S0
G1 X215.621 S82
S0
G1 X215.494 S49
S0
G1 X215.367 S162
S0
G1 X215.240 S307
S0
G1 X215.113 S277
S0
G1 X214.986 S273
S0
G1 X214.859 S254
S0
G1 X214.732 S98
S0
G1 X214.605 S11
S0
G1 X214.478 S4
S0
G1 X214.351 S6
S0
G1 X214.224 S1
S0
G1 X214.097 S5
S0
G1 X213.970 S1
S0
G1 X213.843 S6
S0
G1 X213.716 S7
S0
G1 X213.589 S3
S0
G1 X213.462 S6
S0
G1 X213.208 S5
S0
G1 X213.081 S3
S0
G1 X212.827 S9
S0
G1 X212.446 S2
S0
G1 X212.319 S82
S0
G1 X212.192 S584
S0
G1 X212.065 S905
S0
G1 X211.938 S930
S0
G1 X211.811 S897
S0
G1 X211.684 S850
S0
G1 X211.557 S843
S0
G1 X211.430 S838
S0
G1 X211.303 S842
S0
G1 X211.176 S865
S0
G1 X211.049 S901
S0
G1 X210.922 S950
S0
G1 X210.795 S820
S0
G1 X210.668 S428
S0
G1 X210.541 S16
S0
G0 X210.414 S0
G1 X210.287 S16
S0
G1 X210.160 S8
S0
G1 X210.033 S5
S0
G0 X209.906 S0
G1 X209.779 S2
S0
G1 X209.652 S5
S0
G1 X209.525 S9
S0
G1 X200.000 S5
S0
G0 Y41.910
G0 X200.000 S0
G1 X210.160 S5
S0
G1 X210.287 S13
S0
G1 X210.414 S9
S0
G1 X210.541 S11
S0
G1 X210.668 S3
S0
G1 X210.795 S4
S0
G1 X210.922 S109
S0
G1 X211.049 S459
S0
G1 X211.176 S719
S0
G1 X211.303 S843
S0
G1 X211.430 S875
S0
G1 X211.557 S897
S0
G1 X211.684 S894
S0
G1 X211.811 S839
S0
G1 X211.938 S775
S0
G1 X212.065 S567
S0
G1 X212.192 S234
S0
G1 X212.319 S2
S0
G1 X212.446 S5
S0
G1 X212.700 S2
S0
G1 X213.589 S5
S0
G1 X213.716 S3
S0
G1 X213.843 S6
S0
G1 X214.097 S9
S0
G1 X214.351 S2
S0
G1 X214.478 S8
S0
G1 X214.605 S2
S0
G1 X214.732 S71
S0
G1 X214.859 S328
S0
G1 X214.986 S435
S0
G1 X215.113 S300
S0
G1 X215.240 S210
S0
G1 X215.367 S323
S0
G1 X215.494 S307
S0
G1 X215.621 S139
S0
G1 X215.748 S52
S0
G1 X215.875 S179
S0
G1 X216.002 S285
S0
G1 X216.129 S111
S0
G1 X216.256 S50
S0
G1 X216.383 S62
S0
G1 X216.510 S58
S0
G1 X216.637 S54
S0
G1 X216.764 S59
S0
G1 X217.018 S54
S0
G1 X217.145 S65
S0
G1 X217.272 S67
S0
G1 X217.399 S65
S0
G1 X217.526 S58
S0
G1 X217.780 S61
S0
G1 X217.907 S63
S0
G1 X218.034 S65
S0
G1 X218.161 S69
S0
G1 X218.288 S54
S0
G1 X218.415 S55
S0
G1 X218.542 S66
S0
G1 X218.669 S44
S0
G1 X218.796 S158
S0
G1 X218.923 S265
S0
G1 X219.050 S81
S0
G1 X219.177 S47
S0
G1 X219.304 S44
S0
G1 X219.431 S132
S0
G1 X219.558 S323
S0
G1 X219.685 S159
S0
G1 X219.812 S71
S0
G1 X219.939 S125
S0
G1 X220.066 S293
S0
G1 X220.193 S296
S0
G1 X220.320 S99
S0
G1 X220.447 S4
S0
G1 X220.574 S11
S0
G1 X220.701 S81
S0
G1 X220.828 S175
S0
G1 X220.955 S297
S0
G1 X221.082 S418
S0
G1 X221.209 S315
S0
G1 X221.336 S171
S0
G1 X221.463 S106
S0
G1 X221.590 S101
S0
G1 X221.717 S165
S0
G1 X221.844 S226
S0
G1 X221.971 S264
S0
G1 X222.098 S331
S0
G1 X222.225 S334
S0
G1 X222.352 S376
S0
G1 X222.479 S347
S0
G1 X222.606 S274
S0
G1 X222.733 S277
S0
G1 X222.860 S343
S0
G1 X222.987 S402
S0
G1 X223.114 S349
S0
G1 X223.241 S257
S0
G1 X223.368 S182
S0
G1 X223.495 S142
S0
G1 X223.622 S147
S0
G1 X223.749 S214
S0
G1 X223.876 S320
S0
G1 X224.003 S375
S0
G1 X224.130 S279
S0
G1 X224.257 S42
S0
G1 X224.384 S2
S0
G1 X224.511 S7
S0
G1 X224.638 S8
S0
G1 X224.765 S6
S0
G1 X224.892 S3
S0
G1 X225.146 S2
S0
G1 X225.273 S639
S0
G1 X225.400 S940
S0
G1 X225.527 S824
S0
G1 X225.654 S835
S0
G1 X225.908 S836
S0
G1 X226.289 S835
S0
G1 X226.416 S839
S0
G1 X226.543 S836
S0
G1 X226.797 S835
S0
G1 X226.924 S838
S0
G1 X227.051 S836
S0
G1 X227.178 S838
S0
G1 X227.305 S824
S0
G1 X227.432 S839
S0
G1 X227.559 S838
S0
G1 X227.686 S870
S0
G1 X227.813 S890
S0
G1 X227.940 S251
S0
G0 X228.067 S0
G1 X228.194 S15
S0
G1 X228.321 S1
S0
G1 X228.448 S7
S0
G1 X235.433 S5
S0
G0 Y41.783
G0 X235.433 S0
G1 X228.194 S5
S0
G1 X228.067 S15
S0
G0 X227.940 S0
G1 X227.813 S3
S0
G1 X227.686 S558
S0
G1 X227.559 S951
S0
G1 X227.432 S832
S0
G1 X227.305 S834
S0
G1 X227.178 S844
S0
G1 X227.051 S839
S0
G1 X226.924 S835
S0
G1 X226.797 S830
S0
G1 X226.670 S834
S0
G1 X226.543 S830
S0
G1 X226.289 S831
S0
G1 X226.162 S838
S0
G1 X225.908 S835
S0
G1 X225.781 S836
S0
G1 X225.654 S838
S0
G1 X225.527 S832
S0
G1 X225.400 S889
S0
G1 X225.273 S891
S0
G1 X225.146 S180
S0
G1 X225.019 S2
S0
G1 X224.892 S9
S0
G0 X224.765 S0
G1 X224.638 S7
S0
G1 X224.511 S4
S0
G1 X224.384 S12
S0
G1 X224.257 S15
S0
G1 X224.130 S8
S0
G1 X224.003 S137
S0
G1 X223.876 S337
S0
G1 X223.749 S372
S0
G1 X223.622 S324
S0
G1 X223.495 S312
S0
G1 X223.368 S350
S0
G1 X223.241 S343
S0
G1 X223.114 S246
S0
G1 X222.987 S268
S0
G1 X222.860 S271
S0
G1 X222.733 S113
S0
G1 X222.606 S12
S0
G1 X222.479 S36
S0
G1 X222.352 S105
S0
G1 X222.225 S119
S0
G1 X222.098 S113
S0
G1 X221.971 S320
S0
G1 X221.844 S406
S0
G1 X221.717 S374
S0
G1 X221.590 S319
S0
G1 X221.463 S166
S0
G1 X221.336 S83
S0
G1 X221.209 S85
S0
G1 X221.082 S89
S0
G1 X220.955 S137
S0
G1 X220.828 S230
S0
G1 X220.701 S319
S0
G1 X220.574 S340
S0
G1 X220.447 S261
S0
G1 X220.320 S188
S0
G1 X220.193 S321
S0
G1 X220.066 S348
S0
G1 X219.939 S258
S0
G1 X219.812 S206
S0
G1 X219.685 S152
S0
G1 X219.558 S51
S0
G1 X219.431 S199
S0
G1 X219.304 S307
S0
G1 X219.177 S97
S0
G1 X219.050 S58
S0
G1 X218.923 S41
S0
G1 X218.796 S128
S0
G1 X218.669 S252
S0
G1 X218.542 S109
S0
G1 X218.415 S47
S0
G1 X218.288 S62
S0
G1 X218.161 S61
S0
G1 X218.034 S70
S0
G1 X217.780 S63
S0
G1 X217.653 S67
S0
G1 X217.526 S58
S0
G1 X217.399 S70
S0
G1 X217.272 S62
S0
G1 X217.018 S61
S0
G1 X216.764 S58
S0
G1 X216.637 S55
S0
G1 X216.510 S59
S0
G1 X216.383 S53
S0
G1 X216.256 S59
S0
G1 X216.129 S82
S0
G1 X216.002 S253
S0
G1 X215.875 S231
S0
G1 X215.748 S64
S0
G1 X215.621 S111
S0
G1 X215.494 S277
S0
G1 X215.367 S283
S0
G1 X215.240 S233
S0
G1 X215.113 S355
S0
G1 X214.986 S264
S0
G1 X214.859 S176
S0
G1 X214.732 S116
S0
G1 X214.605 S28
S0
G1 X214.351 S4
S0
G1 X213.970 S5
S0
G1 X213.843 S6
S0
G1 X213.716 S4
S0
G1 X213.589 S6
S0
G1 X212.954 S5
S0
G1 X212.700 S2
S0
G1 X212.573 S5
S0
G1 X212.319 S12
S0
G1 X212.192 S5
S0
G1 X212.065 S2
S0
G1 X211.938 S3
S0
G1 X211.811 S60
S0
G1 X211.684 S204
S0
G1 X211.557 S315
S0
G1 X211.430 S326
S0
G1 X211.303 S284
S0
G1 X211.176 S173
S0
G1 X211.049 S19
S0
G0 X210.922 S0
G1 X210.668 S2
S0
G1 X210.541 S5
S0
G1 X210.414 S20
S0
G1 X210.287 S12
S0
G1 X210.160 S16
S0
G1 X200.000 S5
S0
G0 Y41.656
G0 X200.000 S0
G1 X210.160 S5
S0
G1 X210.287 S9
S0
G1 X210.414 S20
S0
G1 X210.795 S5
S0
G1 X210.922 S12
S0
G1 X211.049 S5
S0
G1 X211.303 S2
S0
G1 X211.430 S3
S0
G0 X211.684 S0
G1 X211.811 S2
S0
G1 X211.938 S5
S0
G1 X212.065 S2
S0
G1 X212.192 S16
S0
G1 X212.319 S5
S0
G1 X212.446 S12
S0
G1 X212.573 S9
S0
G1 X212.954 S2
S0
G1 X213.081 S5
S0
G1 X213.208 S9
S0
G1 X213.589 S5
S0
G1 X213.716 S6
S0
G1 X213.843 S4
S0
G1 X214.097 S2
S0
G1 X214.224 S8
S0
G1 X214.351 S5
S0
G1 X214.605 S7
S0
G1 X214.732 S5
S0
G1 X214.859 S4
S0
G1 X214.986 S2
S0
G1 X215.113 S183
S0
G1 X215.240 S308
S0
G1 X215.367 S109
S0
G1 X215.494 S105
S0
G1 X215.621 S272
S0
G1 X215.748 S253
S0
G1 X215.875 S119
S0
G1 X216.002 S81
S0
G1 X216.129 S218
S0
G1 X216.256 S274
S0
G1 X216.383 S136
S0
G1 X216.510 S51
S0
G1 X216.637 S61
S0
G1 X216.764 S57
S0
G1 X216.891 S62
S0
G1 X217.018 S55
S0
G1 X217.145 S66
S0
G1 X217.272 S65
S0
G1 X217.399 S63
S0
G1 X217.526 S62
S0
G1 X217.653 S58
S0
G1 X217.780 S61
S0
G1 X217.907 S63
S0
G1 X218.034 S66
S0
G1 X218.161 S58
S0
G1 X218.288 S62
S0
G1 X218.415 S54
S0
G1 X218.542 S116
S0
G1 X218.669 S199
S0
G1 X218.796 S97
S0
G1 X218.923 S41
S0
G1 X219.050 S43
S0
G1 X219.177 S84
S0
G1 X219.304 S297
S0
G1 X219.431 S245
S0
G1 X219.558 S59
S0
G1 X219.685 S72
S0
G1 X219.812 S215
S0
G1 X219.939 S401
S0
G1 X220.066 S343
S0
G1 X220.193 S356
S0
G1 X220.320 S347
S0
G1 X220.447 S344
S0
G1 X220.574 S288
S0
G1 X220.701 S183
S0
G1 X220.828 S107
S0
G1 X220.955 S69
S0
G1 X221.082 S65
S0
G1 X221.209 S90
S0
G1 X221.336 S175
S0
G1 X221.463 S300
S0
G1 X221.590 S370
S0
G1 X221.717 S348
S0
G1 X221.844 S243
S0
G1 X221.971 S145
S0
G1 X222.098 S46
S0
G1 X222.225 S2
S0
G1 X222.479 S5
S0
G1 X222.606 S9
S0
G1 X222.733 S8
S0
G1 X222.860 S5
S0
G1 X222.987 S2
S0
G1 X223.114 S8
S0
G1 X223.241 S28
S0
G1 X223.368 S250
S0
G1 X223.495 S415
S0
G1 X223.622 S371
S0
G1 X223.749 S348
S0
G1 X223.876 S215
S0
G1 X224.003 S59
S0
G1 X224.130 S6
S0
G1 X224.257 S14
S0
G1 X224.384 S9
S0
G1 X224.511 S4
S0
G1 X224.638 S7
S0
G1 X224.765 S4
S0
G1 X224.892 S6
S0
G1 X225.146 S5
S0
G1 X225.273 S2
S0
G1 X225.400 S381
S0
G1 X225.527 S948
S0
G1 X225.654 S878
S0
G1 X225.781 S828
S0
G1 X225.908 S831
S0
G1 X226.162 S827
S0
G1 X226.289 S835
S0
G1 X226.416 S834
S0
G1 X226.797 S835
S0
G1 X226.924 S838
S0
G1 X227.051 S835
S0
G1 X227.178 S824
S0
G1 X227.305 S827
S0
G1 X227.432 S836
S0
G1 X227.559 S951
S0
G1 X227.686 S726
S0
G1 X227.813 S58
S0
G1 X227.940 S2
S0
G1 X228.067 S11
S0
G1 X228.321 S12
S0
G0 X228.448 S0
G1 X235.433 S5
S0
G0 Y41.529
G0 X235.433 S0
G1 X227.940 S5
S0
G1 X227.813 S11
S0
G1 X227.686 S3
S0
G1 X227.559 S137
S0
G1 X227.432 S757
S0
G1 X227.305 S949
S0
G1 X227.178 S847
S0
G1 X227.051 S831
S0
G1 X226.924 S827
S0
G1 X226.797 S828
S0
G1 X226.670 S838
S0
G1 X226.543 S831
S0
G1 X226.416 S835
S0
G1 X226.289 S848
S0
G1 X226.162 S834
S0
G1 X226.035 S839
S0
G1 X225.908 S835
S0
G1 X225.781 S831
S0
G1 X225.654 S866
S0
G1 X225.527 S905
S0
G1 X225.400 S462
S0
G1 X225.273 S2
S0
G1 X225.146 S5
S0
G1 X225.019 S12
S0
G1 X224.892 S9
S0
G1 X224.638 S3
S0
G1 X224.511 S5
S0
G1 X224.384 S8
S0
G1 X224.130 S7
S0
G1 X224.003 S13
S0
G1 X223.876 S11
S0
G1 X223.749 S21
S0
G1 X223.622 S52
S0
G1 X223.495 S110
S0
G1 X223.368 S114
S0
G1 X223.241 S55
S0
G1 X223.114 S15
S0
G1 X222.987 S10
S0
G1 X222.860 S12
S0
G1 X222.733 S9
S0
G1 X222.606 S15
S0
G1 X222.479 S14
S0
G1 X222.352 S10
S0
G1 X222.225 S5
S0
G1 X222.098 S8
S0
G1 X221.971 S6
S0
G1 X221.844 S2
S0
G1 X221.717 S3
S0
G1 X221.590 S86
S0
G1 X221.463 S210
S0
G1 X221.336 S289
S0
G1 X221.209 S403
S0
G1 X221.082 S375
S0
G1 X220.955 S214
S0
G1 X220.828 S147
S0
G1 X220.701 S109
S0
G1 X220.574 S108
S0
G1 X220.447 S113
S0
G1 X220.320 S149
S0
G1 X220.193 S188
S0
G1 X220.066 S205
S0
G1 X219.939 S293
S0
G1 X219.812 S327
S0
G1 X219.685 S143
S0
G1 X219.558 S57
S0
G1 X219.431 S53
S0
G1 X219.304 S61
S0
G1 X219.177 S219
S0
G1 X219.050 S249
S0
G1 X218.923 S155
S0
G1 X218.796 S74
S0
G1 X218.669 S69
S0
G1 X218.542 S73
S0
G1 X218.415 S86
S0
G1 X218.161 S58
S0
G1 X218.034 S61
S0
G1 X217.907 S67
S0
G1 X217.780 S69
S0
G1 X217.653 S70
S0
G1 X217.526 S61
S0
G1 X217.399 S67
S0
G1 X217.272 S62
S0
G1 X217.145 S63
S0
G1 X217.018 S66
S0
G1 X216.891 S62
S0
G1 X216.764 S61
S0
G1 X216.637 S65
S0
G1 X216.510 S58
S0
G1 X216.383 S56
S0
G1 X216.256 S117
S0
G1 X216.129 S190
S0
G1 X216.002 S179
S0
G1 X215.875 S213
S0
G1 X215.748 S327
S0
G1 X215.621 S312
S0
G1 X215.494 S120
S0
G1 X215.240 S77
S0
G1 X215.113 S158
S0
G1 X214.986 S321
S0
G1 X214.859 S103
S0
G1 X214.732 S5
S0
G1 X214.605 S6
S0
G1 X214.478 S10
S0
G1 X214.351 S8
S0
G1 X214.224 S5
S0
G1 X214.097 S8
S0
G1 X213.843 S2
S0
G1 X213.716 S4
S0
G1 X213.589 S6
S0
G1 X211.811 S5
S0
G0 X211.684 S0
G1 X211.557 S3
S0
G0 X211.430 S0
G1 X211.303 S5
S0
G1 X211.176 S9
S0
G1 X211.049 S5
S0
G1 X210.922 S8
S0
G1 X210.795 S5
S0
G1 X210.541 S9
S0
G1 X210.287 S2
S0
G1 X200.000 S5
S0
G0 Y41.402
G0 X200.000 S0
G1 X210.287 S5
S0
G1 X210.414 S1
S0
G1 X210.541 S5
S0
G1 X210.668 S2
S0
G1 X211.049 S5
S0
G1 X211.176 S8
S0
G1 X211.557 S5
S0
G1 X211.684 S9
S0
G1 X211.811 S2
S0
G1 X211.938 S5
S0
G1 X212.065 S9
S0
G1 X212.192 S2
S0
G1 X213.589 S5
S0
G1 X213.716 S6
S0
G1 X213.843 S4
S0
G1 X213.970 S6
S0
G1 X214.224 S5
S0
G1 X214.351 S2
S0
G1 X214.478 S9
S0
G1 X214.605 S7
S0
G1 X214.732 S2
S0
G1 X214.859 S84
S0
G1 X214.986 S315
S0
G1 X215.113 S294
S0
G1 X215.367 S186
S0
G1 X215.494 S209
S0
G1 X215.621 S234
S0
G1 X215.748 S242
S0
G1 X215.875 S236
S0
G1 X216.002 S162
S0
G1 X216.129 S100
S0
G1 X216.256 S76
S0
G1 X216.383 S82
S0
G1 X216.510 S98
S0
G1 X216.637 S67
S0
G1 X216.764 S58
S0
G1 X216.891 S61
S0
G1 X217.018 S65
S0
G1 X217.145 S58
S0
G1 X217.399 S66
S0
G1 X217.526 S63
S0
G1 X217.653 S59
S0
G1 X217.780 S65
S0
G1 X217.907 S69
S0
G1 X218.034 S61
S0
G1 X218.161 S54
S0
G1 X218.288 S50
S0
G1 X218.415 S57
S0
G1 X218.542 S59
S0
G1 X218.669 S51
S0
G1 X218.796 S77
S0
G1 X218.923 S157
S0
G1 X219.050 S274
S0
G1 X219.177 S225
S0
G1 X219.304 S85
S0
G1 X219.431 S58
S0
G1 X219.685 S77
S0
G1 X219.812 S80
S0
G1 X219.939 S228
S0
G1 X220.066 S260
S0
G1 X220.193 S167
S0
G1 X220.320 S153
S0
G1 X220.447 S180
S0
G1 X220.574 S230
S0
G1 X220.701 S276
S0
G1 X220.828 S311
S0
G1 X220.955 S418
S0
G1 X221.082 S552
S0
G1 X221.209 S434
S0
G1 X221.336 S129
S0
G1 X221.463 S9
S0
G1 X221.717 S5
S0
G1 X221.844 S12
S0
G1 X221.971 S14
S0
G1 X222.098 S13
S0
G1 X222.225 S16
S0
G1 X222.352 S9
S0
G1 X222.479 S5
S0
G1 X222.606 S6
S0
G1 X222.860 S8
S0
G1 X222.987 S6
S0
G1 X223.241 S7
S0
G1 X223.495 S6
S0
G1 X223.622 S4
S0
G1 X223.749 S7
S0
G1 X223.876 S13
S0
G1 X224.130 S12
S0
G1 X224.257 S13
S0
G1 X224.384 S9
S0
G1 X224.511 S7
S0
G1 X224.638 S9
S0
G1 X224.765 S7
S0
G1 X225.019 S5
S0
G1 X225.146 S12
S0
G1 X225.273 S19
S0
G1 X225.527 S2
S0
G1 X225.654 S499
S0
G1 X225.781 S966
S0
G1 X225.908 S904
S0
G1 X226.035 S839
S0
G1 X226.162 S840
S0
G1 X226.416 S835
S0
G1 X226.543 S827
S0
G1 X226.670 S835
S0
G1 X226.797 S839
S0
G1 X226.924 S827
S0
G1 X227.051 S840
S0
G1 X227.178 S917
S0
G1 X227.305 S942
S0
G1 X227.432 S634
S0
G1 X227.559 S83
S0
G1 X227.686 S2
S0
G1 X227.813 S11
S0
G1 X227.940 S3
S0
G1 X235.433 S5
S0
G0 Y41.275
G0 X235.433 S0
G1 X228.448 S5
S0
G1 X228.321 S1
S0
G1 X228.194 S9
S0
G1 X228.067 S5
S0
G1 X227.813 S2
S0
G1 X227.686 S11
S0
G1 X227.559 S16
S0
G1 X227.432 S2
S0
G1 X227.305 S5
S0
G1 X227.178 S341
S0
G1 X227.051 S721
S0
G1 X226.924 S894
S0
G1 X226.797 S941
S0
G1 X226.670 S905
S0
G1 X226.543 S902
S0
G1 X226.416 S890
S0
G1 X226.289 S882
S0
G1 X226.162 S909
S0
G1 X226.035 S933
S0
G1 X225.908 S910
S0
G1 X225.781 S746
S0
G1 X225.654 S372
S0
G1 X225.527 S5
S0
G1 X225.400 S2
S0
G1 X225.273 S7
S0
G1 X225.146 S8
S0
G1 X225.019 S7
S0
G1 X224.892 S15
S0
G1 X224.765 S4
S0
G1 X224.638 S8
S0
G1 X224.384 S7
S0
G1 X224.257 S3
S0
G1 X224.130 S11
S0
G1 X224.003 S7
S0
G1 X223.876 S14
S0
G1 X223.749 S11
S0
G1 X223.622 S16
S0
G1 X223.495 S9
S0
G1 X223.368 S12
S0
G1 X223.241 S8
S0
G1 X223.114 S7
S0
G1 X222.987 S12
S0
G1 X222.860 S21
S0
G1 X222.733 S20
S0
G1 X222.479 S17
S0
G1 X222.352 S18
S0
G1 X222.225 S12
S0
G1 X221.971 S9
S0
G1 X221.844 S11
S0
G1 X221.717 S12
S0
G1 X221.590 S15
S0
G1 X221.463 S23
S0
G1 X221.336 S13
S0
G1 X221.209 S1
S0
G1 X221.082 S14
S0
G1 X220.955 S346
S0
G1 X220.828 S610
S0
G1 X220.701 S533
S0
G1 X220.574 S417
S0
G1 X220.447 S415
S0
G1 X220.320 S404
S0
G1 X220.193 S406
S0
G1 X220.066 S418
S0
G1 X219.939 S320
S0
G1 X219.812 S245
S0
G1 X219.685 S238
S0
G1 X219.558 S278
S0
G1 X219.431 S153
S0
G1 X219.304 S63
S0
G1 X219.177 S89
S0
G1 X219.050 S80
S0
G1 X218.923 S70
S0
G1 X218.796 S65
S0
G1 X218.669 S47
S0
G1 X218.542 S105
S0
G1 X218.415 S113
S0
G1 X218.288 S96
S0
G1 X218.161 S102
S0
G1 X217.907 S90
S0
G1 X217.780 S81
S0
G1 X217.653 S71
S0
G1 X217.526 S67
S0
G1 X217.399 S63
S0
G1 X217.272 S65
S0
G1 X217.145 S61
S0
G1 X217.018 S66
S0
G1 X216.891 S54
S0
G1 X216.764 S51
S0
G1 X216.637 S61
S0
G1 X216.510 S94
S0
G1 X216.383 S101
S0
G1 X216.256 S104
S0
G1 X216.129 S136
S0
G1 X216.002 S97
S0
G1 X215.875 S43
S0
G1 X215.748 S60
S0
G1 X215.621 S107
S0
G1 X215.494 S205
S0
G1 X215.367 S299
S0
G1 X215.240 S356
S0
G1 X215.113 S301
S0
G1 X214.986 S316
S0
G1 X214.859 S418
S0
G1 X214.732 S293
S0
G1 X214.605 S25
S0
G1 X214.478 S4
S0
G1 X214.351 S6
S0
G1 X214.224 S1
S0
G1 X213.970 S5
S0
G1 X213.716 S6
S0
G1 X213.589 S3
S0
G1 X212.446 S5
S0
G1 X212.192 S7
S0
G1 X212.065 S8
S0
G1 X211.938 S2
S0
G1 X211.684 S5
S0
G1 X211.557 S3
S0
G1 X211.430 S9
S0
G1 X211.303 S5
S0
G1 X211.176 S2
S0
G1 X211.049 S1
S0
G1 X210.922 S5
S0
G1 X210.795 S1
S0
G1 X210.668 S5
S0
G1 X210.541 S9
S0
G1 X210.414 S5
S0
G1 X210.287 S8
S0
G1 X200.000 S5
S0
G0 Y41.148
G0 X200.000 S0
G1 X210.160 S5
S0
G1 X210.287 S8
S0
G1 X210.414 S5
S0
G1 X210.541 S1
S0
G1 X210.668 S8
S0
G1 X210.795 S1
S0
G1 X210.922 S5
S0
G1 X211.049 S6
S0
G1 X211.176 S9
S0
G1 X211.303 S4
S0
G1 X211.430 S3
S0
G1 X211.557 S2
S0
G1 X211.684 S8
S0
G1 X211.811 S5
S0
G1 X211.938 S2
S0
G1 X212.065 S7
S0
G1 X212.192 S4
S0
G1 X212.573 S3
S0
G1 X213.589 S5
S0
G1 X213.843 S3
S0
G1 X214.351 S5
S0
G1 X214.478 S6
S0
G1 X214.605 S3
S0
G1 X214.732 S43
S0
G1 X214.859 S184
S0
G1 X214.986 S168
S0
G1 X215.113 S118
S0
G1 X215.240 S71
S0
G1 X215.367 S266
S0
G1 X215.494 S311
S0
G1 X215.621 S140
S0
G1 X215.748 S67
S0
G1 X215.875 S55
S0
G1 X216.002 S58
S0
G1 X216.129 S57
S0
G1 X216.256 S152
S0
G1 X216.383 S145
S0
G1 X216.510 S47
S0
G1 X216.637 S53
S0
G1 X216.764 S61
S0
G1 X216.891 S66
S0
G1 X217.018 S62
S0
G1 X217.145 S65
S0
G1 X217.272 S55
S0
G1 X217.399 S43
S0
G1 X217.526 S52
S0
G1 X217.653 S48
S0
G1 X217.780 S63
S0
G1 X217.907 S77
S0
G1 X218.034 S82
S0
G1 X218.161 S74
S0
G1 X218.288 S70
S0
G1 X218.415 S136
S0
G1 X218.542 S162
S0
G1 X218.669 S144
S0
G1 X218.796 S97
S0
G1 X218.923 S35
S0
G1 X219.050 S50
S0
G1 X219.177 S45
S0
G1 X219.304 S42
S0
G1 X219.431 S62
S0
G1 X219.558 S212
S0
G1 X219.685 S350
S0
G1 X219.812 S172
S0
G1 X219.939 S283
S0
G1 X220.066 S427
S0
G1 X220.193 S419
S0
G1 X220.320 S477
S0
G1 X220.447 S451
S0
G1 X220.574 S457
S0
G1 X220.701 S621
S0
G1 X220.828 S623
S0
G1 X220.955 S240
S0
G1 X221.082 S2
S0
G1 X221.209 S5
S0
G1 X221.590 S15
S0
G1 X221.717 S14
S0
G1 X221.844 S16
S0
G1 X221.971 S17
S0
G1 X222.098 S12
S0
G1 X222.225 S13
S0
G1 X222.479 S12
S0
G1 X222.606 S16
S0
G1 X222.733 S15
S0
G1 X222.860 S16
S0
G1 X222.987 S13
S0
G1 X223.114 S16
S0
G1 X223.368 S15
S0
G1 X223.495 S4
S0
G1 X223.622 S16
S0
G1 X223.749 S23
S0
G1 X223.876 S13
S0
G1 X224.003 S5
S0
G1 X224.130 S17
S0
G1 X224.257 S14
S0
G1 X224.511 S7
S0
G1 X224.638 S17
S0
G1 X224.892 S5
S0
G1 X225.019 S16
S0
G1 X225.146 S3
S0
G1 X225.273 S15
S0
G1 X225.400 S9
S0
G1 X225.527 S7
S0
G1 X225.654 S8
S0
G1 X225.781 S4
S0
G1 X225.908 S24
S0
G1 X226.035 S305
S0
G1 X226.162 S533
S0
G1 X226.289 S671
S0
G1 X226.416 S750
S0
G1 X226.543 S764
S0
G1 X226.670 S729
S0
G1 X226.797 S674
S0
G1 X226.924 S522
S0
G1 X227.051 S267
S0
G1 X227.178 S21
S0
G1 X227.305 S5
S0
G1 X227.432 S7
S0
G1 X227.559 S8
S0
G1 X227.686 S15
S0
G1 X227.813 S12
S0
G1 X227.940 S5
S0
G1 X228.067 S6
S0
G1 X228.194 S5
S0
G1 X228.321 S1
S0
G1 X228.448 S9
S0
G1 X235.433 S5
S0
G0 Y41.021
G0 X235.433 S0
G1 X228.448 S5
S0
G1 X228.321 S2
S0
G1 X228.194 S9
S0
G1 X227.813 S5
S0
G1 X227.686 S3
S0
G1 X227.432 S5
S0
G1 X227.305 S12
S0
G1 X227.178 S9
S0
G1 X226.670 S2
S0
G1 X226.543 S51
S0
G1 X226.416 S75
S0
G1 X226.289 S59
S0
G1 X226.162 S8
S0
G1 X226.035 S3
S0
G1 X225.781 S2
S0
G1 X225.400 S8
S0
G1 X225.273 S5
S0
G1 X225.146 S2
S0
G1 X225.019 S7
S0
G1 X224.765 S9
S0
G1 X224.638 S2
S0
G1 X224.384 S9
S0
G1 X224.257 S3
S0
G1 X224.130 S11
S0
G1 X224.003 S4
S0
G1 X223.876 S9
S0
G1 X223.749 S2
S0
G1 X223.622 S16
S0
G1 X223.495 S12
S0
G1 X223.368 S4
S0
G1 X223.241 S2
S0
G1 X223.114 S5
S0
G1 X222.987 S10
S0
G1 X222.860 S9
S0
G1 X222.733 S13
S0
G1 X222.606 S8
S0
G1 X222.479 S7
S0
G1 X222.225 S11
S0
G1 X222.098 S16
S0
G1 X221.971 S14
S0
G1 X221.717 S5
S0
G1 X221.336 S8
S0
G1 X221.209 S11
S0
G1 X221.082 S12
S0
G1 X220.955 S6
S0
G1 X220.828 S1
S0
G1 X220.701 S138
S0
G1 X220.574 S564
S0
G1 X220.447 S658
S0
G1 X220.320 S506
S0
G1 X220.193 S462
S0
G1 X220.066 S439
S0
G1 X219.939 S478
S0
G1 X219.812 S423
S0
G1 X219.685 S133
S0
G1 X219.558 S248
S0
