; GCODE generated by Laserweb
; Laser Min: 0%
; Laser Max: 100%
; Black Speed: 200mm/min
; White Speed: 800mm/min
; Resolution (mm per pixel): 0.12699999999999187mm
; Laser Spot Size: NaNmm
; Laser Feedrate: 2000mm/min
; X Offset: 200mm
; Y Offset: 0mm 

G1 F1000
; Start GCode
G92
G90
G1Z0
M3S0

G0 Y38.100
G0 X200.000 S0
G1 X200.127 S643
S0
G1 X200.254 S651
S0
G1 X200.508 S661
S0
G1 X200.762 S654
S0
G1 X200.889 S658
S0
G1 X201.016 S644
S0
G1 X201.143 S657
S0
G1 X201.270 S649
S0
G1 X201.397 S653
S0
G1 X201.524 S655
S0
G1 X201.651 S657
S0
G1 X201.778 S650
S0
G1 X201.905 S645
S0
G1 X202.032 S647
S0
G1 X202.159 S631
S0
G1 X202.286 S647
S0
G1 X202.540 S640
S0
G1 X202.667 S656
S0
G1 X202.794 S636
S0
G1 X202.921 S635
S0
G1 X203.048 S615
S0
G1 X203.175 S612
S0
G1 X203.302 S607
S0
G1 X203.429 S576
S0
G1 X203.556 S575
S0
G1 X203.683 S585
S0
G1 X203.810 S581
S0
G1 X203.937 S583
S0
G1 X204.064 S596
S0
G1 X204.191 S579
S0
G1 X204.318 S597
S0
G1 X204.445 S595
S0
G1 X204.572 S594
S0
G1 X204.699 S609
S0
G1 X204.826 S588
S0
G1 X204.953 S604
S0
G1 X205.080 S625
S0
G1 X205.207 S644
S0
G1 X205.334 S664
S0
G1 X205.461 S701
S0
G1 X205.588 S702
S0
G1 X205.715 S710
S0
G1 X205.842 S717
S0
G1 X205.969 S735
S0
G1 X206.096 S749
S0
G1 X206.223 S800
S0
G1 X206.350 S823
S0
G1 X206.477 S828
S0
G1 X206.604 S830
S0
G1 X206.731 S839
S0
G1 X206.858 S884
S0
G1 X206.985 S883
S0
G1 X207.112 S895
S0
G1 X207.239 S877
S0
G1 X207.366 S806
S0
G1 X207.493 S603
S0
G1 X207.620 S396
S0
G1 X207.747 S366
S0
G1 X207.874 S376
S0
G1 X208.001 S413
S0
G1 X208.128 S459
S0
G1 X208.255 S741
S0
G1 X208.382 S785
S0
G1 X208.509 S728
S0
G1 X208.636 S733
S0
G1 X208.763 S726
S0
G1 X209.017 S696
S0
G1 X209.144 S786
S0
G1 X209.271 S780
S0
G1 X209.398 S842
S0
G1 X209.525 S849
S0
G1 X209.652 S873
S0
G1 X209.779 S882
S0
G1 X209.906 S918
S0
G1 X210.033 S903
S0
G1 X210.160 S895
S0
G1 X210.287 S794
S0
G1 X210.414 S662
S0
G1 X210.541 S697
S0
G1 X210.668 S690
S0
G1 X210.795 S678
S0
G1 X210.922 S698
S0
G1 X211.049 S686
S0
G1 X211.303 S683
S0
G1 X211.430 S737
S0
G1 X211.557 S727
S0
G1 X211.684 S721
S0
G1 X211.811 S732
S0
G1 X211.938 S743
S0
G1 X212.065 S724
S0
G1 X212.192 S736
S0
G1 X212.319 S729
S0
G1 X212.446 S734
S0
G1 X212.573 S713
S0
G1 X212.700 S761
S0
G1 X212.827 S742
S0
G1 X212.954 S744
S0
G1 X213.081 S780
S0
G1 X213.208 S764
S0
G1 X213.335 S770
S0
G1 X213.462 S766
S0
G1 X213.589 S745
S0
G1 X213.716 S757
S0
G1 X213.843 S788
S0
G1 X213.970 S792
S0
G1 X214.097 S801
S0
G1 X214.224 S798
S0
G1 X214.351 S824
S0
G1 X214.478 S819
S0
G1 X214.605 S779
S0
G1 X214.732 S816
S0
G1 X214.859 S809
S0
G1 X214.986 S829
S0
G1 X215.113 S863
S0
G1 X215.367 S862
S0
G1 X215.494 S832
S0
G1 X215.621 S850
S0
G1 X215.875 S846
S0
G1 X216.002 S843
S0
G1 X216.129 S882
S0
G1 X216.256 S911
S0
G1 X216.383 S877
S0
G1 X216.510 S906
S0
G1 X216.637 S867
S0
G1 X216.764 S880
S0
G1 X216.891 S877
S0
G1 X217.018 S884
S0
G1 X217.145 S880
S0
G1 X217.272 S894
S0
G1 X217.399 S920
S0
G1 X217.526 S899
S0
G1 X217.653 S884
S0
G1 X217.907 S883
S0
G1 X218.034 S886
S0
G1 X218.161 S876
S0
G1 X218.288 S902
S0
G1 X218.415 S906
S0
G1 X218.542 S925
S0
G1 X218.669 S936
S0
G1 X218.796 S942
S0
G1 X218.923 S938
S0
G1 X219.050 S957
S0
G1 X219.177 S942
S0
G1 X219.304 S951
S0
G1 X219.431 S953
S0
G1 X219.558 S963
S0
G1 X219.685 S966
S0
G1 X219.812 S961
S0
G1 X219.939 S943
S0
G1 X220.066 S930
S0
G1 X220.193 S955
S0
G1 X220.320 S956
S0
G1 X220.447 S953
S0
G1 X220.574 S960
S0
G1 X220.701 S965
S0
G1 X220.828 S953
S0
G1 X220.955 S961
S0
G1 X221.082 S953
S0
G1 X221.209 S918
S0
G1 X221.336 S876
S0
G1 X221.463 S783
S0
G1 X221.590 S640
S0
G1 X221.717 S703
S0
G1 X221.844 S739
S0
G1 X221.971 S741
S0
G1 X222.098 S735
S0
G1 X222.225 S736
S0
G1 X222.352 S732
S0
G1 X222.479 S739
S0
G1 X222.606 S747
S0
G1 X222.987 S735
S0
G1 X223.241 S751
S0
G1 X223.368 S743
S0
G1 X223.495 S745
S0
G1 X223.622 S753
S0
G1 X223.749 S748
S0
G1 X223.876 S747
S0
G1 X224.003 S751
S0
G1 X224.130 S738
S0
G1 X224.257 S730
S0
G1 X224.384 S738
S0
G1 X224.511 S740
S0
G1 X224.638 S730
S0
G1 X224.765 S734
S0
G1 X224.892 S732
S0
G1 X225.019 S717
S0
G1 X225.146 S741
S0
G1 X225.273 S734
S0
G1 X225.400 S718
S0
G1 X225.527 S726
S0
G1 X225.654 S734
S0
G1 X225.781 S722
S0
G1 X225.908 S718
S0
G1 X226.416 S722
S0
G1 X226.543 S710
S0
G1 X226.670 S713
S0
G1 X226.797 S709
S0
G1 X227.051 S718
S0
G1 X227.178 S704
S0
G1 X227.305 S705
S0
G1 X227.432 S717
S0
G1 X227.686 S713
S0
G1 X227.940 S705
S0
G1 X228.067 S710
S0
G1 X228.194 S718
S0
G1 X228.321 S722
S0
G1 X228.448 S730
S0
G1 X228.575 S718
S0
G1 X228.702 S706
S0
G1 X228.829 S726
S0
G1 X228.956 S722
S0
G1 X229.083 S726
S0
G1 X229.210 S718
S0
G1 X229.337 S722
S0
G1 X229.464 S706
S0
G1 X229.591 S722
S0
G1 X229.718 S713
S0
G1 X229.972 S698
S0
G1 X230.099 S705
S0
G1 X230.226 S717
S0
G1 X230.353 S725
S0
G1 X230.607 S721
S0
G1 X230.734 S728
S0
G1 X230.861 S705
S0
G1 X230.988 S728
S0
G1 X231.115 S732
S0
G1 X231.242 S725
S0
G1 X231.369 S721
S0
G1 X231.496 S725
S0
G1 X231.623 S722
S0
G1 X231.750 S726
S0
G1 X231.877 S721
S0
G1 X232.004 S724
S0
G1 X232.131 S708
S0
G1 X232.258 S720
S0
G1 X232.385 S716
S0
G1 X232.512 S730
S0
G1 X232.639 S734
S0
G1 X232.766 S730
S0
G1 X232.893 S725
S0
G1 X233.020 S748
S0
G1 X233.147 S735
S0
G1 X233.274 S728
S0
G1 X233.401 S732
S0
G1 X233.528 S735
S0
G1 X233.655 S736
S0
G1 X233.782 S745
S0
G1 X233.909 S737
S0
G1 X234.036 S726
S0
G1 X234.163 S730
S0
G1 X234.290 S739
S0
G1 X234.417 S745
S0
G1 X234.544 S739
S0
G1 X234.671 S742
S0
G1 X234.798 S735
S0
G1 X235.052 S733
S0
G1 X235.179 S741
S0
G1 X235.433 S732
S0
G1 X235.687 S725
S0
G1 X235.814 S732
S0
G1 X235.941 S717
S0
G1 X236.068 S727
S0
G1 X236.195 S729
S0
G1 X236.322 S731
S0
G1 X236.449 S726
S0
G0 Y37.973
G0 X236.449 S0
G1 X236.322 S732
S0
G1 X236.195 S745
S0
G1 X236.068 S756
S0
G1 X235.941 S724
S0
G1 X235.814 S732
S0
G1 X235.687 S725
S0
G1 X235.560 S732
S0
G1 X235.433 S729
S0
G1 X235.306 S740
S0
G1 X234.798 S735
S0
G1 X234.671 S747
S0
G1 X234.544 S751
S0
G1 X234.417 S748
S0
G1 X234.290 S734
S0
G1 X234.163 S737
S0
G1 X234.036 S728
S0
G1 X233.909 S741
S0
G1 X233.782 S734
S0
G1 X233.655 S730
S0
G1 X233.528 S736
S0
G1 X233.401 S743
S0
G1 X233.274 S728
S0
G1 X233.147 S735
S0
G1 X233.020 S747
S0
G1 X232.893 S740
S0
G1 X232.766 S729
S0
G1 X232.639 S734
S0
G1 X232.512 S730
S0
G1 X232.385 S738
S0
G1 X232.258 S724
S0
G1 X232.131 S716
S0
G1 X231.877 S724
S0
G1 X231.750 S716
S0
G1 X231.623 S728
S0
G1 X231.496 S725
S0
G1 X231.369 S728
S0
G1 X231.242 S717
S0
G1 X231.115 S728
S0
G1 X230.988 S740
S0
G1 X230.861 S732
S0
G1 X230.734 S726
S0
G1 X230.607 S721
S0
G1 X230.480 S728
S0
G1 X230.353 S725
S0
G1 X230.099 S721
S0
G1 X229.972 S709
S0
G1 X229.845 S721
S0
G1 X229.718 S727
S0
G1 X229.591 S708
S0
G1 X229.464 S722
S0
G1 X229.337 S718
S0
G1 X229.083 S730
S0
G1 X228.956 S726
S0
G1 X228.829 S722
S0
G1 X228.702 S718
S0
G1 X228.575 S702
S0
G1 X228.448 S734
S0
G1 X228.194 S726
S0
G1 X228.067 S734
S0
G1 X227.940 S730
S0
G1 X227.813 S714
S0
G1 X227.686 S721
S0
G1 X227.559 S725
S0
G1 X227.432 S717
S0
G1 X227.305 S713
S0
G1 X226.924 S716
S0
G1 X226.797 S726
S0
G1 X226.670 S713
S0
G1 X226.543 S725
S0
G1 X226.416 S703
S0
G1 X226.289 S722
S0
G1 X226.162 S734
S0
G1 X226.035 S737
S0
G1 X225.908 S734
S0
G1 X225.654 S741
S0
G1 X225.527 S734
S0
G1 X225.400 S722
S0
G1 X225.273 S741
S0
G1 X225.146 S730
S0
G1 X225.019 S741
S0
G1 X224.892 S735
S0
G1 X224.638 S740
S0
G1 X224.511 S736
S0
G1 X224.384 S743
S0
G1 X224.257 S742
S0
G1 X224.130 S741
S0
G1 X224.003 S750
S0
G1 X223.749 S765
S0
G1 X223.622 S769
S0
G1 X223.495 S765
S0
G1 X223.368 S755
S0
G1 X223.241 S757
S0
G1 X223.114 S763
S0
G1 X222.987 S739
S0
G1 X222.860 S743
S0
G1 X222.733 S740
S0
G1 X222.606 S751
S0
G1 X222.479 S755
S0
G1 X222.352 S732
S0
G1 X222.225 S735
S0
G1 X222.098 S736
S0
G1 X221.844 S732
S0
G1 X221.717 S729
S0
G1 X221.590 S612
S0
G1 X221.463 S711
S0
G1 X221.336 S777
S0
G1 X221.209 S917
S0
G1 X221.082 S953
S0
G1 X220.955 S969
S0
G1 X220.828 S965
S0
G1 X220.701 S961
S0
G1 X220.574 S957
S0
G1 X220.447 S958
S0
G1 X220.320 S964
S0
G1 X220.193 S961
S0
G1 X220.066 S952
S0
G1 X219.939 S946
S0
G1 X219.685 S964
S0
G1 X219.431 S957
S0
G1 X219.304 S961
S0
G1 X219.177 S962
S0
G1 X219.050 S969
S0
G1 X218.923 S953
S0
G1 X218.796 S934
S0
G1 X218.669 S936
S0
G1 X218.542 S929
S0
G1 X218.415 S913
S0
G1 X218.288 S877
S0
G1 X218.161 S878
S0
G1 X218.034 S898
S0
G1 X217.907 S892
S0
G1 X217.780 S913
S0
G1 X217.653 S905
S0
G1 X217.526 S894
S0
G1 X217.399 S876
S0
G1 X217.272 S885
S0
G1 X217.145 S882
S0
G1 X217.018 S892
S0
G1 X216.891 S876
S0
G1 X216.764 S878
S0
G1 X216.637 S883
S0
G1 X216.510 S898
S0
G1 X216.383 S929
S0
G1 X216.256 S899
S0
G1 X216.129 S881
S0
G1 X216.002 S869
S0
G1 X215.875 S861
S0
G1 X215.748 S854
S0
G1 X215.494 S850
S0
G1 X215.367 S822
S0
G1 X215.240 S873
S0
G1 X215.113 S848
S0
G1 X214.986 S826
S0
G1 X214.859 S810
S0
G1 X214.732 S797
S0
G1 X214.605 S786
S0
G1 X214.478 S785
S0
G1 X214.351 S811
S0
G1 X214.224 S806
S0
G1 X214.097 S771
S0
G1 X213.970 S778
S0
G1 X213.843 S776
S0
G1 X213.716 S760
S0
G1 X213.589 S806
S0
G1 X213.462 S759
S0
G1 X213.335 S739
S0
G1 X213.208 S748
S0
G1 X213.081 S794
S0
G1 X212.954 S798
S0
G1 X212.827 S771
S0
G1 X212.700 S774
S0
G1 X212.573 S694
S0
G1 X212.446 S732
S0
G1 X212.319 S733
S0
G1 X212.192 S768
S0
G1 X212.065 S704
S0
G1 X211.938 S735
S0
G1 X211.811 S704
S0
G1 X211.684 S684
S0
G1 X211.557 S720
S0
G1 X211.430 S702
S0
G1 X211.303 S716
S0
G1 X211.176 S696
S0
G1 X210.922 S669
S0
G1 X210.795 S697
S0
G1 X210.668 S714
S0
G1 X210.541 S692
S0
G1 X210.414 S682
S0
G1 X210.287 S612
S0
G1 X210.160 S641
S0
G1 X210.033 S870
S0
G1 X209.906 S932
S0
G1 X209.779 S956
S0
G1 X209.652 S939
S0
G1 X209.525 S892
S0
G1 X209.398 S859
S0
G1 X209.271 S801
S0
G1 X209.144 S713
S0
G1 X209.017 S794
S0
G1 X208.890 S684
S0
G1 X208.763 S712
S0
G1 X208.636 S709
S0
G1 X208.509 S722
S0
G1 X208.382 S765
S0
G1 X208.255 S810
S0
G1 X208.128 S740
S0
G1 X208.001 S525
S0
G1 X207.874 S423
S0
G1 X207.747 S384
S0
G1 X207.620 S324
S0
G1 X207.493 S309
S0
G1 X207.366 S383
S0
G1 X207.239 S742
S0
G1 X207.112 S895
S0
G1 X206.985 S898
S0
G1 X206.858 S892
S0
G1 X206.731 S906
S0
G1 X206.604 S876
S0
G1 X206.477 S873
S0
G1 X206.350 S841
S0
G1 X206.223 S842
S0
G1 X206.096 S840
S0
G1 X205.969 S808
S0
G1 X205.842 S715
S0
G1 X205.715 S708
S0
G1 X205.588 S719
S0
G1 X205.461 S705
S0
G1 X205.334 S690
S0
G1 X205.207 S657
S0
G1 X205.080 S633
S0
G1 X204.953 S629
S0
G1 X204.826 S598
S0
G1 X204.699 S604
S0
G1 X204.572 S594
S0
G1 X204.445 S591
S0
G1 X204.318 S598
S0
G1 X204.191 S601
S0
G1 X204.064 S600
S0
G1 X203.937 S586
S0
G1 X203.810 S598
S0
G1 X203.683 S596
S0
G1 X203.556 S588
S0
G1 X203.429 S600
S0
G1 X203.302 S611
S0
G1 X203.048 S619
S0
G1 X202.921 S631
S0
G1 X202.667 S650
S0
G1 X202.540 S646
S0
G1 X202.413 S638
S0
G1 X202.286 S646
S0
G1 X202.032 S662
S0
G1 X201.905 S650
S0
G1 X201.778 S666
S0
G1 X201.651 S669
S0
G1 X201.524 S665
S0
G1 X201.397 S676
S0
G1 X201.143 S674
S0
G1 X201.016 S671
S0
G1 X200.889 S675
S0
G1 X200.762 S666
S0
G1 X200.635 S679
S0
G1 X200.381 S682
S0
G1 X200.254 S665
S0
G1 X200.127 S663
S0
G1 X200.000 S679
S0
G0 Y37.846
G0 X200.000 S0
G1 X200.127 S660
S0
G1 X200.254 S666
S0
G1 X200.381 S669
S0
G1 X200.508 S664
S0
G1 X200.635 S672
S0
G1 X200.762 S666
S0
G1 X201.016 S677
S0
G1 X201.143 S666
S0
G1 X201.270 S671
S0
G1 X201.397 S663
S0
G1 X201.524 S675
S0
G1 X201.651 S671
S0
G1 X201.905 S678
S0
G1 X202.032 S665
S0
G1 X202.159 S650
S0
G1 X202.286 S651
S0
G1 X202.413 S647
S0
G1 X202.540 S639
S0
G1 X202.667 S634
S0
G1 X202.794 S635
S0
G1 X202.921 S632
S0
G1 X203.048 S623
S0
G1 X203.175 S602
S0
G1 X203.302 S596
S0
G1 X203.429 S589
S0
G1 X203.556 S584
S0
G1 X203.683 S600
S0
G1 X203.810 S576
S0
G1 X203.937 S591
S0
G1 X204.064 S590
S0
G1 X204.191 S596
S0
G1 X204.318 S600
S0
G1 X204.445 S619
S0
G1 X204.572 S622
S0
G1 X204.699 S611
S0
G1 X204.826 S621
S0
G1 X204.953 S620
S0
G1 X205.080 S617
S0
G1 X205.207 S635
S0
G1 X205.334 S648
S0
G1 X205.461 S668
S0
G1 X205.588 S712
S0
G1 X205.715 S711
S0
G1 X205.842 S709
S0
G1 X205.969 S784
S0
G1 X206.096 S824
S0
G1 X206.223 S839
S0
G1 X206.350 S859
S0
G1 X206.477 S886
S0
G1 X206.604 S893
S0
G1 X206.731 S906
S0
G1 X206.858 S920
S0
G1 X206.985 S907
S0
G1 X207.112 S911
S0
G1 X207.239 S869
S0
G1 X207.366 S554
S0
G1 X207.493 S282
S0
G1 X207.620 S263
S0
G1 X207.747 S282
S0
G1 X207.874 S384
S0
G1 X208.001 S419
S0
G1 X208.128 S481
S0
G1 X208.255 S758
S0
G1 X208.382 S864
S0
G1 X208.509 S781
S0
G1 X208.636 S757
S0
G1 X208.763 S701
S0
G1 X208.890 S692
S0
G1 X209.017 S640
S0
G1 X209.144 S735
S0
G1 X209.271 S715
S0
G1 X209.398 S842
S0
G1 X209.525 S901
S0
G1 X209.652 S886
S0
G1 X209.779 S933
S0
G1 X209.906 S956
S0
G1 X210.033 S908
S0
G1 X210.160 S703
S0
G1 X210.287 S707
S0
G1 X210.414 S702
S0
G1 X210.541 S680
S0
G1 X210.668 S688
S0
G1 X210.795 S705
S0
G1 X210.922 S674
S0
G1 X211.049 S697
S0
G1 X211.176 S678
S0
G1 X211.303 S662
S0
G1 X211.430 S720
S0
G1 X211.557 S716
S0
G1 X211.684 S686
S0
G1 X211.811 S677
S0
G1 X211.938 S705
S0
G1 X212.065 S749
S0
G1 X212.192 S686
S0
G1 X212.319 S699
S0
G1 X212.446 S694
S0
G1 X212.573 S731
S0
G1 X212.827 S734
S0
G1 X212.954 S748
S0
G1 X213.081 S813
S0
G1 X213.208 S786
S0
G1 X213.335 S793
S0
G1 X213.462 S755
S0
G1 X213.589 S761
S0
G1 X213.716 S813
S0
G1 X213.843 S855
S0
G1 X213.970 S801
S0
G1 X214.097 S790
S0
G1 X214.224 S785
S0
G1 X214.351 S738
S0
G1 X214.478 S788
S0
G1 X214.605 S851
S0
G1 X214.732 S849
S0
G1 X214.859 S815
S0
G1 X214.986 S818
S0
G1 X215.113 S828
S0
G1 X215.240 S786
S0
G1 X215.367 S836
S0
G1 X215.494 S884
S0
G1 X215.621 S818
S0
G1 X215.748 S879
S0
G1 X215.875 S880
S0
G1 X216.002 S862
S0
G1 X216.129 S852
S0
G1 X216.256 S850
S0
G1 X216.383 S879
S0
G1 X216.510 S874
S0
G1 X216.637 S875
S0
G1 X216.764 S918
S0
G1 X216.891 S881
S0
G1 X217.018 S903
S0
G1 X217.145 S891
S0
G1 X217.272 S900
S0
G1 X217.399 S901
S0
G1 X217.526 S890
S0
G1 X217.653 S878
S0
G1 X217.780 S889
S0
G1 X217.907 S902
S0
G1 X218.034 S906
S0
G1 X218.161 S902
S0
G1 X218.288 S907
S0
G1 X218.415 S866
S0
G1 X218.542 S862
S0
G1 X218.669 S884
S0
G1 X218.796 S913
S0
G1 X218.923 S931
S0
G1 X219.050 S927
S0
G1 X219.177 S941
S0
G1 X219.304 S957
S0
G1 X219.431 S969
S0
G1 X219.558 S961
S0
G1 X219.812 S960
S0
G1 X219.939 S976
S0
G1 X220.066 S968
S0
G1 X220.193 S972
S0
G1 X220.320 S963
S0
G1 X220.447 S964
S0
G1 X220.574 S970
S0
G1 X220.701 S957
S0
G1 X220.828 S953
S0
G1 X220.955 S957
S0
G1 X221.209 S961
S0
G1 X221.336 S914
S0
G1 X221.463 S897
S0
G1 X221.590 S694
S0
G1 X221.717 S575
S0
G1 X221.844 S675
S0
G1 X221.971 S741
S0
G1 X222.098 S717
S0
G1 X222.225 S749
S0
G1 X222.352 S755
S0
G1 X222.479 S768
S0
G1 X222.606 S763
S0
G1 X222.733 S768
S0
G1 X222.860 S767
S0
G1 X222.987 S770
S0
G1 X223.114 S749
S0
G1 X223.241 S772
S0
G1 X223.368 S761
S0
G1 X223.495 S759
S0
G1 X223.749 S776
S0
G1 X223.876 S763
S0
G1 X224.003 S759
S0
G1 X224.130 S743
S0
G1 X224.384 S735
S0
G1 X224.765 S732
S0
G1 X224.892 S748
S0
G1 X225.019 S737
S0
G1 X225.146 S734
S0
G1 X225.273 S741
S0
G1 X225.400 S737
S0
G1 X225.527 S741
S0
G1 X225.908 S730
S0
G1 X226.035 S737
S0
G1 X226.162 S726
S0
G1 X226.289 S741
S0
G1 X226.543 S734
S0
G1 X226.670 S719
S0
G1 X226.797 S713
S0
G1 X226.924 S734
S0
G1 X227.051 S731
S0
G1 X227.178 S716
S0
G1 X227.305 S689
S0
G1 X227.559 S717
S0
G1 X227.686 S709
S0
G1 X227.813 S721
S0
G1 X227.940 S729
S0
G1 X228.067 S718
S0
G1 X228.194 S734
S0
G1 X228.321 S718
S0
G1 X228.448 S722
S0
G1 X228.575 S726
S0
G1 X228.702 S718
S0
G1 X228.829 S726
S0
G1 X228.956 S730
S0
G1 X229.083 S718
S0
G1 X229.464 S722
S0
G1 X229.591 S726
S0
G1 X229.718 S714
S0
G1 X229.845 S726
S0
G1 X229.972 S718
S0
G1 X230.226 S726
S0
G1 X230.353 S725
S0
G1 X230.607 S721
S0
G1 X230.734 S728
S0
G1 X230.861 S734
S0
G1 X230.988 S722
S0
G1 X231.115 S737
S0
G1 X231.242 S734
S0
G1 X231.369 S730
S0
G1 X231.623 S741
S0
G1 X231.750 S730
S0
G1 X231.877 S734
S0
G1 X232.004 S722
S0
G1 X232.258 S730
S0
G1 X232.385 S714
S0
G1 X232.639 S726
S0
G1 X232.766 S736
S0
G1 X232.893 S725
S0
G1 X233.147 S732
S0
G1 X233.274 S728
S0
G1 X233.401 S743
S0
G1 X233.655 S735
S0
G1 X233.782 S739
S0
G1 X233.909 S747
S0
G1 X234.036 S743
S0
G1 X234.163 S734
S0
G1 X234.290 S739
S0
G1 X234.417 S733
S0
G1 X234.544 S722
S0
G1 X234.671 S746
S0
G1 X234.798 S745
S0
G1 X234.925 S732
S0
G1 X235.052 S735
S0
G1 X235.179 S732
S0
G1 X235.306 S728
S0
G1 X235.560 S725
S0
G1 X235.687 S729
S0
G1 X235.814 S732
S0
G1 X235.941 S728
S0
G1 X236.068 S724
S0
G1 X236.195 S732
S0
G1 X236.322 S729
S0
G1 X236.449 S721
S0
G0 Y37.719
G0 X236.449 S0
G1 X236.322 S723
S0
G1 X236.195 S716
S0
G1 X236.068 S732
S0
G1 X235.941 S736
S0
G1 X235.814 S732
S0
G1 X235.560 S721
S0
G1 X235.433 S740
S0
G1 X235.179 S736
S0
G1 X235.052 S740
S0
G1 X234.925 S725
S0
G1 X234.798 S724
S0
G1 X234.671 S740
S0
G1 X234.544 S725
S0
G1 X234.417 S719
S0
G1 X234.290 S717
S0
G1 X234.163 S733
S0
G1 X234.036 S743
S0
G1 X233.909 S747
S0
G1 X233.655 S735
S0
G1 X233.528 S755
S0
G1 X233.274 S735
S0
G1 X233.147 S720
S0
G1 X233.020 S739
S0
G1 X232.893 S732
S0
G1 X232.766 S738
S0
G1 X232.639 S726
S0
G1 X232.512 S737
S0
G1 X232.385 S726
S0
G1 X232.258 S734
S0
G1 X232.131 S730
S0
G1 X232.004 S726
S0
G1 X231.750 S736
S0
G1 X231.623 S732
S0
G1 X231.369 S740
S0
G1 X231.242 S726
S0
G1 X231.115 S730
S0
G1 X230.988 S726
S0
G1 X230.734 S730
S0
G1 X230.607 S732
S0
G1 X230.480 S717
S0
G1 X230.353 S721
S0
G1 X230.226 S713
S0
G1 X230.099 S717
S0
G1 X229.972 S726
S0
G1 X229.845 S734
S0
G1 X229.718 S718
S0
G1 X229.591 S730
S0
G1 X229.464 S718
S0
G1 X229.337 S726
S0
G1 X229.210 S730
S0
G1 X229.083 S722
S0
G1 X228.956 S718
S0
G1 X228.829 S734
S0
G1 X228.702 S730
S0
G1 X228.575 S722
S0
G1 X228.448 S730
S0
G1 X228.321 S710
S0
G1 X228.194 S730
S0
G1 X228.067 S726
S0
G1 X227.940 S722
S0
G1 X227.813 S733
S0
G1 X227.686 S725
S0
G1 X227.559 S729
S0
G1 X227.432 S725
S0
G1 X227.305 S721
S0
G1 X227.178 S727
S0
G1 X227.051 S724
S0
G1 X226.924 S732
S0
G1 X226.797 S737
S0
G1 X226.543 S725
S0
G1 X226.416 S730
S0
G1 X226.289 S726
S0
G1 X226.162 S718
S0
G1 X226.035 S737
S0
G1 X225.908 S718
S0
G1 X225.781 S734
S0
G1 X225.400 S741
S0
G1 X225.273 S737
S0
G1 X225.146 S745
S0
G1 X225.019 S730
S0
G1 X224.892 S728
S0
G1 X224.638 S734
S0
G1 X224.511 S739
S0
G1 X224.384 S735
S0
G1 X224.257 S743
S0
G1 X224.130 S735
S0
G1 X224.003 S739
S0
G1 X223.876 S751
S0
G1 X223.749 S756
S0
G1 X223.622 S764
S0
G1 X223.495 S774
S0
G1 X223.368 S767
S0
G1 X223.241 S773
S0
G1 X223.114 S761
S0
G1 X222.860 S772
S0
G1 X222.606 S776
S0
G1 X222.352 S768
S0
G1 X222.225 S780
S0
G1 X222.098 S770
S0
G1 X221.971 S728
S0
G1 X221.844 S702
S0
G1 X221.717 S529
S0
G1 X221.590 S656
S0
G1 X221.463 S875
S0
G1 X221.336 S900
S0
G1 X221.209 S942
S0
G1 X221.082 S953
S0
G1 X220.828 S957
S0
G1 X220.701 S961
S0
G1 X220.574 S969
S0
G1 X220.447 S966
S0
G1 X220.320 S972
S0
G1 X220.193 S964
S0
G1 X220.066 S973
S0
G1 X219.939 S976
S0
G1 X219.812 S970
S0
G1 X219.685 S975
S0
G1 X219.558 S976
S0
G1 X219.431 S951
S0
G1 X219.304 S942
S0
G1 X219.177 S937
S0
G1 X219.050 S947
S0
G1 X218.923 S929
S0
G1 X218.796 S864
S0
G1 X218.669 S865
S0
G1 X218.542 S900
S0
G1 X218.415 S884
S0
G1 X218.288 S892
S0
G1 X218.161 S882
S0
G1 X218.034 S906
S0
G1 X217.907 S878
S0
G1 X217.780 S890
S0
G1 X217.653 S887
S0
G1 X217.526 S891
S0
G1 X217.399 S917
S0
G1 X217.272 S910
S0
G1 X217.145 S880
S0
G1 X217.018 S916
S0
G1 X216.891 S899
S0
G1 X216.764 S900
S0
G1 X216.637 S905
S0
G1 X216.510 S903
S0
G1 X216.383 S883
S0
G1 X216.256 S880
S0
G1 X216.129 S858
S0
G1 X216.002 S845
S0
G1 X215.875 S839
S0
G1 X215.748 S830
S0
G1 X215.621 S849
S0
G1 X215.494 S828
S0
G1 X215.367 S847
S0
G1 X215.240 S834
S0
G1 X215.113 S845
S0
G1 X214.986 S879
S0
G1 X214.859 S873
S0
G1 X214.732 S814
S0
G1 X214.605 S815
S0
G1 X214.478 S811
S0
G1 X214.351 S779
S0
G1 X214.224 S811
S0
G1 X214.097 S790
S0
G1 X213.970 S800
S0
G1 X213.843 S820
S0
G1 X213.716 S754
S0
G1 X213.589 S789
S0
G1 X213.462 S771
S0
G1 X213.335 S803
S0
G1 X213.208 S763
S0
G1 X213.081 S768
S0
G1 X212.954 S762
S0
G1 X212.827 S764
S0
G1 X212.700 S773
S0
G1 X212.573 S772
S0
G1 X212.446 S754
S0
G1 X212.319 S730
S0
G1 X212.192 S719
S0
G1 X212.065 S686
S0
G1 X211.938 S721
S0
G1 X211.811 S737
S0
G1 X211.684 S724
S0
G1 X211.557 S714
S0
G1 X211.430 S691
S0
G1 X211.303 S697
S0
G1 X211.176 S717
S0
G1 X211.049 S676
S0
G1 X210.922 S700
S0
G1 X210.795 S675
S0
G1 X210.668 S664
S0
G1 X210.541 S683
S0
G1 X210.414 S656
S0
G1 X210.287 S673
S0
G1 X210.160 S742
S0
G1 X210.033 S658
S0
G1 X209.906 S745
S0
G1 X209.779 S922
S0
G1 X209.652 S954
S0
G1 X209.525 S892
S0
G1 X209.398 S903
S0
G1 X209.271 S787
S0
G1 X209.144 S692
S0
G1 X209.017 S720
S0
G1 X208.890 S700
S0
G1 X208.763 S651
S0
G1 X208.636 S675
S0
G1 X208.509 S725
S0
G1 X208.382 S757
S0
G1 X208.255 S904
S0
G1 X208.128 S890
S0
G1 X208.001 S543
S0
G1 X207.874 S440
S0
G1 X207.747 S397
S0
G1 X207.620 S231
S0
G1 X207.493 S223
S0
G1 X207.366 S257
S0
G1 X207.239 S344
S0
G1 X207.112 S807
S0
G1 X206.985 S919
S0
G1 X206.858 S924
S0
G1 X206.731 S919
S0
G1 X206.604 S918
S0
G1 X206.477 S902
S0
G1 X206.350 S877
S0
G1 X206.223 S869
S0
G1 X206.096 S871
S0
G1 X205.969 S792
S0
G1 X205.842 S765
S0
G1 X205.715 S714
S0
G1 X205.588 S684
S0
G1 X205.461 S692
S0
G1 X205.334 S664
S0
G1 X205.207 S627
S0
G1 X205.080 S639
S0
G1 X204.953 S633
S0
G1 X204.826 S625
S0
G1 X204.699 S633
S0
G1 X204.572 S637
S0
G1 X204.445 S628
S0
G1 X204.191 S617
S0
G1 X204.064 S604
S0
G1 X203.937 S603
S0
G1 X203.810 S599
S0
G1 X203.683 S579
S0
G1 X203.556 S598
S0
G1 X203.429 S599
S0
G1 X203.302 S593
S0
G1 X203.175 S604
S0
G1 X202.921 S623
S0
G1 X202.794 S635
S0
G1 X202.540 S634
S0
G1 X202.413 S650
S0
G1 X202.286 S646
S0
G1 X202.159 S658
S0
G1 X202.032 S666
S0
G1 X201.905 S650
S0
G1 X201.778 S673
S0
G1 X201.524 S677
S0
G1 X201.397 S676
S0
G1 X201.270 S673
S0
G1 X201.143 S669
S0
G1 X201.016 S677
S0
G1 X200.889 S680
S0
G1 X200.762 S667
S0
G1 X200.635 S650
S0
G1 X200.508 S667
S0
G1 X200.381 S670
S0
G1 X200.254 S667
S0
G1 X200.127 S671
S0
G1 X200.000 S667
S0
G0 Y37.592
G0 X200.000 S0
G1 X200.127 S667
S0
G1 X200.254 S673
S0
G1 X200.381 S680
S0
G1 X200.635 S673
S0
G1 X200.762 S666
S0
G1 X200.889 S675
S0
G1 X201.270 S671
S0
G1 X201.397 S677
S0
G1 X201.524 S694
S0
G1 X201.651 S682
S0
G1 X201.905 S669
S0
G1 X202.032 S673
S0
G1 X202.159 S666
S0
G1 X202.286 S654
S0
G1 X202.413 S649
S0
G1 X202.540 S646
S0
G1 X202.667 S647
S0
G1 X202.794 S644
S0
G1 X202.921 S634
S0
G1 X203.048 S611
S0
G1 X203.175 S616
S0
G1 X203.302 S585
S0
G1 X203.429 S594
S0
G1 X203.556 S582
S0
G1 X203.683 S600
S0
G1 X203.810 S591
S0
G1 X203.937 S593
S0
G1 X204.064 S615
S0
G1 X204.191 S614
S0
G1 X204.318 S617
S0
G1 X204.445 S600
S0
G1 X204.572 S624
S0
G1 X204.699 S622
S0
G1 X204.826 S613
S0
G1 X204.953 S640
S0
G1 X205.080 S652
S0
G1 X205.207 S647
S0
G1 X205.334 S634
S0
G1 X205.461 S662
S0
G1 X205.588 S681
S0
G1 X205.715 S683
S0
G1 X205.842 S721
S0
G1 X205.969 S784
S0
G1 X206.096 S863
S0
G1 X206.223 S883
S0
G1 X206.350 S891
S0
G1 X206.477 S897
S0
G1 X206.604 S914
S0
G1 X206.731 S922
S0
G1 X206.858 S923
S0
G1 X206.985 S918
S0
G1 X207.112 S924
S0
G1 X207.239 S696
S0
G1 X207.366 S275
S0
G1 X207.493 S217
S0
G1 X207.620 S178
S0
G1 X207.747 S283
S0
G1 X207.874 S392
S0
G1 X208.001 S464
S0
G1 X208.128 S803
S0
G1 X208.255 S942
S0
G1 X208.382 S825
S0
G1 X208.509 S721
S0
G1 X208.636 S702
S0
G1 X208.763 S657
S0
G1 X208.890 S683
S0
G1 X209.017 S692
S0
G1 X209.144 S705
S0
G1 X209.271 S784
S0
G1 X209.398 S817
S0
G1 X209.525 S892
S0
G1 X209.652 S906
S0
G1 X209.779 S959
S0
G1 X209.906 S785
S0
G1 X210.033 S676
S0
G1 X210.160 S671
S0
G1 X210.287 S679
S0
G1 X210.414 S673
S0
G1 X210.668 S692
S0
G1 X210.795 S698
S0
G1 X210.922 S678
S0
G1 X211.049 S705
S0
G1 X211.176 S730
S0
G1 X211.303 S723
S0
G1 X211.430 S697
S0
G1 X211.557 S696
S0
G1 X211.684 S706
S0
G1 X211.811 S702
S0
G1 X211.938 S719
S0
G1 X212.065 S714
S0
G1 X212.192 S726
S0
G1 X212.319 S714
S0
G1 X212.446 S723
S0
G1 X212.573 S742
S0
G1 X212.700 S726
S0
G1 X212.827 S780
S0
G1 X212.954 S735
S0
G1 X213.081 S772
S0
G1 X213.208 S758
S0
G1 X213.335 S725
S0
G1 X213.462 S783
S0
G1 X213.589 S797
S0
G1 X213.716 S777
S0
G1 X213.843 S783
S0
G1 X213.970 S782
S0
G1 X214.097 S765
S0
G1 X214.224 S821
S0
G1 X214.351 S810
S0
G1 X214.478 S818
S0
G1 X214.605 S817
S0
G1 X214.732 S787
S0
G1 X214.859 S808
S0
G1 X214.986 S834
S0
G1 X215.113 S828
S0
G1 X215.240 S852
S0
G1 X215.367 S858
S0
G1 X215.494 S848
S0
G1 X215.621 S829
S0
G1 X215.748 S825
S0
G1 X215.875 S848
S0
G1 X216.002 S858
S0
G1 X216.129 S867
S0
G1 X216.256 S872
S0
G1 X216.383 S877
S0
G1 X216.510 S897
S0
G1 X216.637 S874
S0
G1 X216.764 S892
S0
G1 X216.891 S893
S0
G1 X217.018 S891
S0
G1 X217.145 S896
S0
G1 X217.272 S918
S0
G1 X217.399 S908
S0
G1 X217.526 S914
S0
G1 X217.653 S905
S0
G1 X217.780 S884
S0
G1 X217.907 S889
S0
G1 X218.034 S872
S0
G1 X218.161 S882
S0
G1 X218.288 S902
S0
G1 X218.415 S894
S0
G1 X218.542 S885
S0
G1 X218.669 S894
S0
G1 X218.796 S907
S0
G1 X218.923 S908
S0
G1 X219.050 S886
S0
G1 X219.177 S875
S0
G1 X219.304 S912
S0
G1 X219.431 S961
S0
G1 X219.558 S962
S0
G1 X219.685 S970
S0
G1 X219.812 S976
S0
G1 X219.939 S978
S0
G1 X220.066 S966
S0
G1 X220.193 S981
S0
G1 X220.320 S968
S0
G1 X220.447 S970
S0
G1 X220.574 S973
S0
G1 X220.828 S966
S0
G1 X220.955 S957
S0
G1 X221.082 S952
S0
G1 X221.209 S954
S0
G1 X221.336 S948
S0
G1 X221.463 S895
S0
G1 X221.590 S857
S0
G1 X221.717 S788
S0
G1 X221.844 S524
S0
G1 X221.971 S628
S0
G1 X222.225 S751
S0
G1 X222.352 S774
S0
G1 X222.479 S788
S0
G1 X222.606 S776
S0
G1 X222.733 S777
S0
G1 X222.860 S779
S0
G1 X222.987 S780
S0
G1 X223.114 S768
S0
G1 X223.241 S764
S0
G1 X223.368 S780
S0
G1 X223.495 S767
S0
G1 X223.622 S766
S0
G1 X223.749 S755
S0
G1 X223.876 S756
S0
G1 X224.003 S755
S0
G1 X224.257 S740
S0
G1 X224.384 S743
S0
G1 X224.511 S735
S0
G1 X224.638 S731
S0
G1 X224.765 S716
S0
G1 X224.892 S730
S0
G1 X225.019 S726
S0
G1 X225.146 S738
S0
G1 X225.273 S736
S0
G1 X225.400 S728
S0
G1 X225.527 S740
S0
G1 X225.654 S742
S0
G1 X225.781 S738
S0
G1 X225.908 S725
S0
G1 X226.035 S730
S0
G1 X226.162 S726
S0
G1 X226.289 S741
S0
G1 X226.416 S734
S0
G1 X226.543 S727
S0
G1 X226.670 S730
S0
G1 X226.797 S726
S0
G1 X226.924 S734
S0
G1 X227.051 S735
S0
G1 X227.178 S730
S0
G1 X227.305 S727
S0
G1 X227.432 S731
S0
G1 X227.686 S734
S0
G1 X227.813 S737
S0
G1 X227.940 S726
S0
G1 X228.067 S734
S0
G1 X228.194 S730
S0
G1 X228.321 S737
S0
G1 X228.448 S732
S0
G1 X228.575 S723
S0
G1 X228.702 S726
S0
G1 X228.829 S723
S0
G1 X228.956 S725
S0
G1 X229.083 S726
S0
G1 X229.210 S718
S0
G1 X229.337 S726
S0
G1 X229.464 S714
S0
G1 X229.591 S718
S0
G1 X229.718 S729
S0
G1 X229.845 S722
S0
G1 X229.972 S721
S0
G1 X230.099 S729
S0
G1 X230.226 S713
S0
G1 X230.353 S726
S0
G1 X230.480 S728
S0
G1 X230.607 S726
S0
G1 X230.734 S734
S0
G1 X230.861 S710
S0
G1 X231.115 S730
S0
G1 X231.242 S741
S0
G1 X231.369 S730
S0
G1 X231.496 S711
S0
G1 X231.623 S727
S0
G1 X231.750 S738
S0
G1 X231.877 S730
S0
G1 X232.004 S733
S0
G1 X232.131 S737
S0
G1 X232.258 S721
S0
G1 X232.385 S733
S0
G1 X232.512 S725
S0
G1 X232.639 S722
S0
G1 X232.766 S713
S0
G1 X232.893 S720
S0
G1 X233.020 S736
S0
G1 X233.147 S732
S0
G1 X233.274 S728
S0
G1 X233.401 S724
S0
G1 X233.528 S728
S0
G1 X233.655 S739
S0
G1 X233.782 S747
S0
G1 X233.909 S744
S0
G1 X234.036 S732
S0
G1 X234.163 S729
S0
G1 X234.290 S701
S0
G1 X234.417 S699
S0
G1 X234.544 S703
S0
G1 X234.671 S723
S0
G1 X234.798 S714
S0
G1 X235.052 S731
S0
G1 X235.179 S736
S0
G1 X235.306 S729
S0
G1 X235.433 S728
S0
G1 X235.560 S748
S0
G1 X235.687 S732
S0
G1 X235.814 S740
S0
G1 X235.941 S736
S0
G1 X236.195 S725
S0
G1 X236.322 S708
S0
G1 X236.449 S713
S0
G0 Y37.465
G0 X236.449 S0
G1 X236.322 S708
S0
G1 X236.195 S716
S0
G1 X236.068 S729
S0
G1 X235.941 S736
S0
G1 X235.687 S732
S0
G1 X235.560 S744
S0
G1 X235.306 S736
S0
G1 X235.179 S735
S0
G1 X235.052 S739
S0
G1 X234.925 S726
S0
G1 X234.798 S722
S0
G1 X234.544 S712
S0
G1 X234.417 S706
S0
G1 X234.163 S708
S0
G1 X234.036 S725
S0
G1 X233.909 S729
S0
G1 X233.782 S736
S0
G1 X233.655 S735
S0
G1 X233.528 S732
S0
G1 X233.401 S739
S0
G1 X233.147 S720
S0
G1 X232.893 S732
S0
G1 X232.766 S735
S0
G1 X232.639 S722
S0
G1 X232.512 S726
S0
G1 X232.385 S725
S0
G1 X232.258 S740
S0
G1 X232.131 S744
S0
G1 X232.004 S737
S0
G1 X231.877 S732
S0
G1 X231.623 S734
S0
G1 X231.496 S718
S0
G1 X231.369 S741
S0
G1 X231.242 S745
S0
G1 X231.115 S734
S0
G1 X230.988 S730
S0
G1 X230.861 S734
S0
G1 X230.734 S724
S0
G1 X230.607 S718
S0
G1 X230.353 S720
S0
G1 X230.226 S728
S0
G1 X230.099 S722
S0
G1 X229.972 S724
S0
G1 X229.845 S732
S0
G1 X229.718 S696
S0
G1 X229.591 S720
S0
G1 X229.464 S730
S0
G1 X229.210 S722
S0
G1 X229.083 S718
S0
G1 X228.956 S741
S0
G1 X228.829 S729
S0
G1 X228.575 S728
S0
G1 X228.448 S732
S0
G1 X228.321 S730
S0
G1 X228.194 S734
S0
G1 X228.067 S730
S0
G1 X227.940 S737
S0
G1 X227.813 S736
S0
G1 X227.686 S728
S0
G1 X227.559 S732
S0
G1 X227.432 S716
S0
G1 X227.305 S732
S0
G1 X227.178 S726
S0
G1 X227.051 S737
S0
G1 X226.924 S734
S0
G1 X226.797 S741
S0
G1 X226.670 S728
S0
G1 X226.543 S724
S0
G1 X226.416 S739
S0
G1 X226.289 S737
S0
G1 X226.162 S734
S0
G1 X225.908 S729
S0
G1 X225.781 S721
S0
G1 X225.654 S737
S0
G1 X225.527 S725
S0
G1 X225.400 S729
S0
G1 X225.146 S725
S0
G1 X225.019 S731
S0
G1 X224.892 S732
S0
G1 X224.765 S736
S0
G1 X224.638 S720
S0
G1 X224.511 S728
S0
G1 X224.384 S724
S0
G1 X224.257 S732
S0
G1 X224.130 S744
S0
G1 X224.003 S749
S0
G1 X223.876 S747
S0
G1 X223.622 S751
S0
G1 X223.495 S761
S0
G1 X222.733 S772
S0
G1 X222.606 S788
S0
G1 X222.479 S776
S0
G1 X222.352 S781
S0
G1 X222.225 S773
S0
G1 X222.098 S747
S0
G1 X221.971 S655
S0
G1 X221.844 S462
S0
G1 X221.717 S677
S0
G1 X221.590 S839
S0
G1 X221.463 S871
S0
G1 X221.336 S930
S0
G1 X221.209 S952
S0
G1 X221.082 S940
S0
G1 X220.955 S944
S0
G1 X220.828 S961
S0
G1 X220.701 S957
S0
G1 X220.574 S973
S0
G1 X220.447 S963
S0
G1 X220.320 S966
S0
G1 X220.193 S978
S0
G1 X220.066 S958
S0
G1 X219.939 S977
S0
G1 X219.812 S959
S0
G1 X219.685 S979
S0
G1 X219.558 S972
S0
G1 X219.431 S941
S0
G1 X219.304 S885
S0
G1 X219.177 S890
S0
G1 X219.050 S937
S0
G1 X218.923 S913
S0
G1 X218.796 S905
S0
G1 X218.669 S889
S0
G1 X218.542 S894
S0
G1 X218.415 S898
S0
G1 X218.288 S895
S0
G1 X218.161 S902
S0
G1 X218.034 S888
S0
G1 X217.907 S894
S0
G1 X217.780 S893
S0
G1 X217.653 S912
S0
G1 X217.526 S914
S0
G1 X217.399 S921
S0
G1 X217.272 S919
S0
G1 X217.145 S894
S0
G1 X217.018 S892
S0
G1 X216.891 S877
S0
G1 X216.764 S857
S0
G1 X216.637 S863
S0
G1 X216.510 S874
S0
G1 X216.383 S846
S0
G1 X216.256 S856
S0
G1 X216.129 S838
S0
G1 X216.002 S856
S0
G1 X215.875 S850
S0
G1 X215.748 S843
S0
G1 X215.621 S848
S0
G1 X215.494 S874
S0
G1 X215.367 S876
S0
G1 X215.240 S817
S0
G1 X215.113 S836
S0
G1 X214.986 S829
S0
G1 X214.859 S798
S0
G1 X214.732 S800
S0
G1 X214.605 S796
S0
G1 X214.478 S757
S0
G1 X214.351 S812
S0
G1 X214.224 S799
S0
G1 X214.097 S803
S0
G1 X213.970 S821
S0
G1 X213.843 S831
S0
G1 X213.716 S796
S0
G1 X213.589 S786
S0
G1 X213.462 S755
S0
G1 X213.335 S734
S0
G1 X213.208 S774
S0
G1 X213.081 S757
S0
G1 X212.954 S732
S0
G1 X212.827 S754
S0
G1 X212.700 S741
S0
G1 X212.573 S734
S0
G1 X212.446 S714
S0
G1 X212.319 S739
S0
G1 X212.192 S693
S0
G1 X212.065 S626
S0
G1 X211.938 S688
S0
G1 X211.811 S689
S0
G1 X211.684 S693
S0
G1 X211.557 S663
S0
G1 X211.430 S679
S0
G1 X211.303 S648
S0
G1 X211.176 S691
S0
G1 X211.049 S673
S0
G1 X210.922 S683
S0
G1 X210.795 S665
S0
G1 X210.668 S678
S0
G1 X210.414 S697
S0
G1 X210.287 S683
S0
G1 X210.160 S669
S0
G1 X210.033 S666
S0
G1 X209.906 S655
S0
G1 X209.779 S697
S0
G1 X209.652 S821
S0
G1 X209.525 S902
S0
G1 X209.398 S895
S0
G1 X209.271 S892
S0
G1 X209.144 S832
S0
G1 X209.017 S796
S0
G1 X208.890 S779
S0
G1 X208.763 S679
S0
G1 X208.636 S705
S0
G1 X208.382 S709
S0
G1 X208.255 S772
S0
G1 X208.128 S910
S0
G1 X208.001 S938
S0
G1 X207.874 S557
S0
G1 X207.747 S427
S0
G1 X207.620 S360
S0
G1 X207.366 S184
S0
G1 X207.239 S259
S0
G1 X207.112 S524
S0
G1 X206.985 S918
S0
G1 X206.858 S927
S0
G1 X206.731 S922
S0
G1 X206.604 S918
S0
G1 X206.477 S923
S0
G1 X206.350 S906
S0
G1 X206.223 S892
S0
G1 X206.096 S883
S0
G1 X205.969 S875
S0
G1 X205.842 S864
S0
G1 X205.715 S723
S0
G1 X205.588 S687
S0
G1 X205.461 S692
S0
G1 X205.334 S664
S0
G1 X205.207 S655
S0
G1 X205.080 S635
S0
G1 X204.953 S656
S0
G1 X204.826 S636
S0
G1 X204.699 S635
S0
G1 X204.572 S628
S0
G1 X204.445 S623
S0
G1 X204.318 S616
S0
G1 X204.191 S603
S0
G1 X204.064 S610
S0
G1 X203.937 S609
S0
G1 X203.810 S620
S0
G1 X203.683 S593
S0
G1 X203.556 S597
S0
G1 X203.429 S595
S0
G1 X203.302 S598
S0
G1 X203.175 S587
S0
G1 X203.048 S623
S0
G1 X202.921 S627
S0
G1 X202.794 S635
S0
G1 X202.667 S631
S0
G1 X202.413 S654
S0
G1 X202.286 S653
S0
G1 X202.159 S654
S0
G1 X202.032 S658
S0
G1 X201.905 S650
S0
G1 X201.778 S677
S0
G1 X201.651 S681
S0
G1 X201.524 S673
S0
G1 X201.397 S669
S0
G1 X201.270 S673
S0
G1 X201.143 S677
S0
G1 X201.016 S681
S0
G1 X200.889 S684
S0
G1 X200.762 S679
S0
G1 X200.635 S667
S0
G1 X200.508 S669
S0
G1 X200.254 S681
S0
G1 X200.000 S673
S0
G0 Y37.338
G0 X200.000 S0
G1 X200.127 S669
S0
G1 X200.254 S666
S0
G1 X200.381 S673
S0
G1 X200.508 S666
S0
G1 X200.635 S681
S0
G1 X200.762 S687
S0
G1 X201.016 S685
S0
G1 X201.143 S689
S0
G1 X201.270 S685
S0
G1 X201.397 S681
S0
G1 X201.524 S669
S0
G1 X201.651 S677
S0
G1 X201.778 S685
S0
G1 X201.905 S673
S0
G1 X202.032 S650
S0
G1 X202.286 S646
S0
G1 X202.413 S649
S0
G1 X202.540 S662
S0
G1 X202.667 S638
S0
G1 X202.794 S627
S0
G1 X202.921 S643
S0
G1 X203.048 S631
S0
G1 X203.175 S634
S0
G1 X203.302 S594
S0
G1 X203.429 S602
S0
G1 X203.556 S599
S0
G1 X203.683 S631
S0
G1 X203.810 S596
S0
G1 X203.937 S608
S0
G1 X204.064 S600
S0
G1 X204.191 S626
S0
G1 X204.318 S611
S0
G1 X204.445 S595
S0
G1 X204.572 S619
S0
G1 X204.699 S627
S0
G1 X204.826 S632
S0
G1 X204.953 S636
S0
G1 X205.080 S638
S0
G1 X205.207 S650
S0
G1 X205.334 S645
S0
G1 X205.461 S660
S0
G1 X205.588 S677
S0
G1 X205.715 S686
S0
G1 X205.842 S851
S0
G1 X205.969 S858
S0
G1 X206.096 S874
S0
G1 X206.223 S894
S0
G1 X206.350 S886
S0
G1 X206.477 S918
S0
G1 X206.731 S916
S0
G1 X206.858 S920
S0
G1 X206.985 S921
S0
G1 X207.112 S894
S0
G1 X207.239 S326
S0
G1 X207.366 S193
S0
G1 X207.493 S185
S0
G1 X207.620 S226
S0
G1 X207.747 S404
S0
G1 X207.874 S455
S0
G1 X208.001 S710
S0
G1 X208.128 S953
S0
G1 X208.255 S797
S0
G1 X208.382 S729
S0
G1 X208.509 S734
S0
G1 X208.636 S683
S0
G1 X208.763 S663
S0
G1 X208.890 S763
S0
G1 X209.017 S815
S0
G1 X209.144 S786
S0
G1 X209.271 S787
S0
G1 X209.398 S887
S0
G1 X209.525 S878
S0
G1 X209.652 S909
S0
G1 X209.779 S665
S0
G1 X209.906 S723
S0
G1 X210.033 S696
S0
G1 X210.160 S669
S0
G1 X210.287 S688
S0
G1 X210.414 S647
S0
G1 X210.541 S670
S0
G1 X210.668 S634
S0
G1 X210.795 S669
S0
G1 X210.922 S674
S0
G1 X211.049 S683
S0
G1 X211.176 S675
S0
G1 X211.303 S665
S0
G1 X211.430 S626
S0
G1 X211.557 S671
S0
G1 X211.684 S669
S0
G1 X211.811 S650
S0
G1 X211.938 S660
S0
G1 X212.065 S695
S0
G1 X212.192 S666
S0
G1 X212.319 S690
S0
G1 X212.446 S660
S0
G1 X212.573 S706
S0
G1 X212.700 S748
S0
G1 X212.827 S727
S0
G1 X212.954 S721
S0
G1 X213.081 S772
S0
G1 X213.208 S735
S0
G1 X213.335 S756
S0
G1 X213.462 S808
S0
G1 X213.589 S734
S0
G1 X213.716 S778
S0
G1 X213.843 S775
S0
G1 X213.970 S776
S0
G1 X214.097 S790
S0
G1 X214.224 S780
S0
G1 X214.351 S845
S0
G1 X214.478 S804
S0
G1 X214.605 S816
S0
G1 X214.732 S793
S0
G1 X214.859 S811
S0
G1 X215.113 S796
S0
G1 X215.240 S823
S0
G1 X215.367 S849
S0
G1 X215.494 S824
S0
G1 X215.621 S838
S0
G1 X215.748 S892
S0
G1 X215.875 S868
S0
G1 X216.002 S857
S0
G1 X216.129 S865
S0
G1 X216.256 S858
S0
G1 X216.383 S856
S0
G1 X216.510 S841
S0
G1 X216.637 S854
S0
G1 X216.891 S866
S0
G1 X217.018 S880
S0
G1 X217.145 S872
S0
G1 X217.272 S889
S0
G1 X217.399 S891
S0
G1 X217.526 S910
S0
G1 X217.653 S913
S0
G1 X217.780 S909
S0
G1 X217.907 S913
S0
G1 X218.034 S903
S0
G1 X218.161 S888
S0
G1 X218.288 S898
S0
G1 X218.415 S900
S0
G1 X218.542 S898
S0
G1 X218.669 S907
S0
G1 X218.796 S904
S0
G1 X218.923 S894
S0
G1 X219.050 S919
S0
G1 X219.177 S917
S0
G1 X219.304 S901
S0
G1 X219.431 S932
S0
G1 X219.558 S911
S0
G1 X219.685 S870
S0
G1 X219.812 S879
S0
G1 X219.939 S971
S0
G1 X220.066 S963
S0
G1 X220.193 S973
S0
G1 X220.320 S950
S0
G1 X220.447 S969
S0
G1 X220.574 S968
S0
G1 X220.701 S965
S0
G1 X220.828 S963
S0
G1 X220.955 S946
S0
G1 X221.082 S938
S0
G1 X221.209 S917
S0
G1 X221.336 S936
S0
G1 X221.463 S945
S0
G1 X221.590 S872
S0
G1 X221.717 S816
S0
G1 X221.844 S759
S0
G1 X221.971 S550
S0
G1 X222.098 S579
S0
G1 X222.225 S709
S0
G1 X222.352 S745
S0
G1 X222.479 S762
S0
G1 X222.606 S784
S0
G1 X222.733 S783
S0
G1 X222.860 S790
S0
G1 X223.241 S780
S0
G1 X223.368 S764
S0
G1 X223.495 S772
S0
G1 X223.622 S766
S0
G1 X223.749 S767
S0
G1 X223.876 S755
S0
G1 X224.003 S751
S0
G1 X224.130 S744
S0
G1 X224.257 S736
S0
G1 X224.384 S740
S0
G1 X224.511 S729
S0
G1 X224.638 S720
S0
G1 X225.019 S728
S0
G1 X225.146 S733
S0
G1 X225.273 S725
S0
G1 X225.400 S729
S0
G1 X225.527 S721
S0
G1 X225.654 S733
S0
G1 X225.781 S725
S0
G1 X225.908 S721
S0
G1 X226.035 S733
S0
G1 X226.162 S737
S0
G1 X226.289 S749
S0
G1 X226.543 S734
S0
G1 X226.670 S736
S0
G1 X226.797 S724
S0
G1 X226.924 S745
S0
G1 X227.051 S737
S0
G1 X227.178 S722
S0
G1 X227.305 S718
S0
G1 X227.432 S732
S0
G1 X227.559 S692
S0
G1 X227.813 S728
S0
G1 X227.940 S724
S0
G1 X228.067 S737
S0
G1 X228.194 S734
S0
G1 X228.321 S737
S0
G1 X228.448 S726
S0
G1 X228.575 S728
S0
G1 X228.829 S732
S0
G1 X228.956 S741
S0
G1 X229.083 S730
S0
G1 X229.337 S726
S0
G1 X229.464 S730
S0
G1 X229.591 S706
S0
G1 X229.718 S730
S0
G1 X229.845 S734
S0
G1 X229.972 S733
S0
G1 X230.099 S730
S0
G1 X230.226 S726
S0
G1 X230.353 S721
S0
G1 X230.480 S730
S0
G1 X230.607 S726
S0
G1 X230.734 S737
S0
G1 X230.861 S734
S0
G1 X230.988 S730
S0
G1 X231.115 S722
S0
G1 X231.242 S730
S0
G1 X231.369 S741
S0
G1 X231.623 S730
S0
G1 X231.750 S718
S0
G1 X231.877 S730
S0
G1 X232.004 S726
S0
G1 X232.131 S730
S0
G1 X232.258 S722
S0
G1 X232.385 S730
S0
G1 X232.512 S726
S0
G1 X232.639 S730
S0
G1 X232.766 S734
S0
G1 X232.893 S729
S0
G1 X233.020 S735
S0
G1 X233.147 S743
S0
G1 X233.274 S755
S0
G1 X233.401 S735
S0
G1 X233.528 S712
S0
G1 X233.655 S735
S0
G1 X233.782 S739
S0
G1 X233.909 S736
S0
G1 X234.036 S713
S0
G1 X234.163 S701
S0
G1 X234.290 S708
S0
G1 X234.417 S716
S0
G1 X234.544 S718
S0
G1 X234.671 S716
S0
G1 X234.798 S704
S0
G1 X234.925 S718
S0
G1 X235.052 S728
S0
G1 X235.306 S735
S0
G1 X235.433 S740
S0
G1 X235.560 S729
S0
G1 X235.687 S725
S0
G1 X235.814 S729
S0
G1 X236.068 S732
S0
G1 X236.195 S741
S0
G1 X236.322 S732
S0
G1 X236.449 S728
S0
G0 Y37.211
G0 X236.449 S0
G1 X236.322 S724
S0
G1 X236.195 S736
S0
G1 X236.068 S732
S0
G1 X235.941 S740
S0
G1 X235.814 S732
S0
G1 X235.687 S725
S0
G1 X235.560 S717
S0
G1 X235.433 S736
S0
G1 X235.306 S741
S0
G1 X235.179 S732
S0
G1 X235.052 S735
S0
G1 X234.925 S734
S0
G1 X234.798 S710
S0
G1 X234.671 S719
S0
G1 X234.544 S727
S0
G1 X234.290 S732
S0
G1 X234.036 S729
S0
G1 X233.909 S736
S0
G1 X233.782 S740
S0
G1 X233.655 S720
S0
G1 X233.528 S728
S0
G1 X233.401 S735
S0
G1 X233.274 S724
S0
G1 X233.147 S743
S0
G1 X233.020 S732
S0
G1 X232.766 S728
S0
G1 X232.512 S734
S0
G1 X232.385 S730
S0
G1 X232.258 S722
S0
G1 X232.131 S726
S0
G1 X232.004 S730
S0
G1 X231.877 S722
S0
G1 X231.750 S730
S0
G1 X231.623 S737
S0
G1 X231.496 S734
S0
G1 X231.369 S730
S0
G1 X231.115 S734
S0
G1 X230.734 S730
S0
G1 X230.353 S734
S0
G1 X230.226 S722
S0
G1 X230.099 S730
S0
G1 X229.972 S735
S0
G1 X229.845 S729
S0
G1 X229.718 S744
S0
G1 X229.464 S730
S0
G1 X229.210 S734
S0
G1 X229.083 S730
S0
G1 X228.829 S737
S0
G1 X228.702 S742
S0
G1 X228.575 S730
S0
G1 X228.194 S737
S0
G1 X228.067 S730
S0
G1 X227.940 S734
S0
G1 X227.813 S728
S0
G1 X227.686 S720
S0
G1 X227.559 S724
S0
G1 X227.432 S728
S0
G1 X227.305 S724
S0
G1 X227.178 S734
S0
G1 X227.051 S730
S0
G1 X226.924 S741
S0
G1 X226.797 S726
S0
G1 X226.543 S729
S0
G1 X226.416 S726
S0
G1 X226.289 S736
S0
G1 X226.162 S732
S0
G1 X226.035 S729
S0
G1 X225.908 S737
S0
G1 X225.781 S717
S0
G1 X225.527 S725
S0
G1 X225.273 S733
S0
G1 X225.146 S729
S0
G1 X225.019 S722
S0
G1 X224.892 S728
S0
G1 X224.638 S724
S0
G1 X224.511 S716
S0
G1 X224.384 S725
S0
G1 X224.257 S732
S0
G1 X224.003 S737
S0
G1 X223.876 S736
S0
G1 X223.749 S751
S0
G1 X223.622 S767
S0
G1 X223.368 S768
S0
G1 X223.241 S776
S0
G1 X223.114 S780
S0
G1 X222.987 S788
S0
G1 X222.860 S796
S0
G1 X222.733 S792
S0
G1 X222.479 S784
S0
G1 X222.352 S753
S0
G1 X222.225 S741
S0
G1 X222.098 S635
S0
G1 X221.971 S419
S0
G1 X221.844 S653
S0
G1 X221.717 S727
S0
G1 X221.590 S783
S0
G1 X221.463 S887
S0
G1 X221.336 S922
S0
G1 X221.209 S909
S0
G1 X221.082 S919
S0
G1 X220.955 S931
S0
G1 X220.828 S965
S0
G1 X220.574 S964
S0
G1 X220.447 S956
S0
G1 X220.320 S944
S0
G1 X220.193 S972
S0
G1 X220.066 S970
S0
G1 X219.939 S910
S0
G1 X219.812 S817
S0
G1 X219.685 S856
S0
G1 X219.558 S938
S0
G1 X219.431 S920
S0
G1 X219.304 S914
S0
G1 X219.177 S901
S0
G1 X219.050 S913
S0
G1 X218.923 S912
S0
G1 X218.796 S906
S0
G1 X218.669 S911
S0
G1 X218.542 S903
S0
G1 X218.415 S898
S0
G1 X218.288 S904
S0
G1 X218.161 S894
S0
G1 X218.034 S910
S0
G1 X217.907 S917
S0
G1 X217.780 S913
S0
G1 X217.653 S902
S0
G1 X217.526 S890
S0
G1 X217.399 S902
S0
G1 X217.272 S875
S0
G1 X217.145 S874
S0
G1 X217.018 S871
S0
G1 X216.891 S854
S0
G1 X216.764 S851
S0
G1 X216.637 S857
S0
G1 X216.510 S849
S0
G1 X216.256 S870
S0
G1 X216.129 S854
S0
G1 X216.002 S887
S0
G1 X215.875 S876
S0
G1 X215.748 S892
S0
G1 X215.621 S859
S0
G1 X215.494 S873
S0
G1 X215.367 S858
S0
G1 X215.240 S811
S0
G1 X215.113 S793
S0
G1 X214.986 S777
S0
G1 X214.859 S783
S0
G1 X214.732 S760
S0
G1 X214.605 S857
S0
G1 X214.478 S822
S0
G1 X214.351 S748
S0
G1 X214.224 S754
S0
G1 X214.097 S765
S0
G1 X213.970 S773
S0
G1 X213.843 S803
S0
G1 X213.716 S758
S0
G1 X213.589 S793
S0
G1 X213.462 S858
S0
G1 X213.335 S786
S0
G1 X213.208 S724
S0
G1 X213.081 S774
S0
G1 X212.954 S728
S0
G1 X212.827 S731
S0
G1 X212.700 S674
S0
G1 X212.573 S727
S0
G1 X212.446 S672
S0
G1 X212.319 S670
S0
G1 X212.192 S680
S0
G1 X212.065 S687
S0
G1 X211.938 S656
S0
G1 X211.811 S608
S0
G1 X211.684 S632
S0
G1 X211.557 S641
S0
G1 X211.430 S690
S0
G1 X211.303 S616
S0
G1 X211.176 S690
S0
G1 X211.049 S653
S0
G1 X210.922 S632
S0
G1 X210.795 S663
S0
G1 X210.668 S630
S0
G1 X210.541 S659
S0
G1 X210.414 S698
S0
G1 X210.287 S659
S0
G1 X210.160 S665
S0
G1 X210.033 S678
S0
G1 X209.906 S666
S0
G1 X209.779 S660
S0
G1 X209.652 S688
S0
G1 X209.525 S767
S0
G1 X209.398 S964
S0
G1 X209.271 S868
S0
G1 X209.144 S801
S0
G1 X209.017 S604
S0
G1 X208.890 S749
S0
G1 X208.763 S792
S0
G1 X208.636 S681
S0
G1 X208.509 S697
S0
G1 X208.382 S724
S0
G1 X208.255 S757
S0
G1 X208.128 S807
S0
G1 X208.001 S879
S0
G1 X207.874 S955
S0
G1 X207.747 S549
S0
G1 X207.620 S410
S0
G1 X207.493 S319
S0
G1 X207.366 S183
S0
G1 X207.239 S192
S0
G1 X207.112 S236
S0
G1 X206.985 S777
S0
G1 X206.858 S911
S0
G1 X206.477 S914
S0
G1 X206.350 S911
S0
G1 X206.223 S887
S0
G1 X206.096 S874
S0
G1 X205.969 S884
S0
G1 X205.842 S876
S0
G1 X205.715 S846
S0
G1 X205.588 S800
S0
G1 X205.461 S690
S0
G1 X205.334 S658
S0
G1 X205.207 S640
S0
G1 X205.080 S652
S0
G1 X204.953 S642
S0
G1 X204.826 S627
S0
G1 X204.699 S632
S0
G1 X204.572 S617
S0
G1 X204.318 S627
S0
G1 X204.191 S615
S0
G1 X204.064 S623
S0
G1 X203.937 S605
S0
G1 X203.810 S601
S0
G1 X203.683 S610
S0
G1 X203.556 S628
S0
G1 X203.429 S619
S0
G1 X203.302 S599
S0
G1 X203.175 S631
S0
G1 X203.048 S625
S0
G1 X202.921 S639
S0
G1 X202.794 S629
S0
G1 X202.667 S631
S0
G1 X202.540 S630
S0
G1 X202.413 S638
S0
G1 X202.286 S655
S0
G1 X202.159 S631
S0
G1 X202.032 S646
S0
G1 X201.905 S658
S0
G1 X201.651 S677
S0
G1 X201.524 S673
S0
G1 X201.397 S693
S0
G1 X201.270 S673
S0
G1 X201.143 S677
S0
G1 X201.016 S681
S0
G1 X200.889 S685
S0
G1 X200.762 S693
S0
G1 X200.635 S675
S0
G1 X200.508 S677
S0
G1 X200.381 S662
S0
G1 X200.254 S669
S0
G1 X200.127 S681
S0
G1 X200.000 S673
S0
G0 Y37.084
G0 X200.000 S0
G1 X200.127 S669
S0
G1 X200.254 S677
S0
G1 X200.381 S682
S0
G1 X200.508 S681
S0
G1 X200.635 S677
S0
G1 X200.762 S671
S0
G1 X200.889 S677
S0
G1 X201.016 S669
S0
G1 X201.143 S674
S0
G1 X201.270 S677
S0
G1 X201.397 S673
S0
G1 X201.524 S685
S0
G1 X201.651 S677
S0
G1 X201.778 S693
S0
G1 X201.905 S669
S0
G1 X202.032 S666
S0
G1 X202.159 S646
S0
G1 X202.286 S650
S0
G1 X202.413 S640
S0
G1 X202.540 S631
S0
G1 X202.667 S630
S0
G1 X202.794 S639
S0
G1 X202.921 S648
S0
G1 X203.048 S639
S0
G1 X203.175 S630
S0
G1 X203.302 S639
S0
G1 X203.429 S620
S0
G1 X203.556 S613
S0
G1 X203.683 S624
S0
G1 X203.810 S611
S0
G1 X203.937 S622
S0
G1 X204.064 S604
S0
G1 X204.191 S581
S0
G1 X204.318 S587
S0
G1 X204.445 S624
S0
G1 X204.572 S633
S0
G1 X204.699 S628
S0
G1 X204.826 S633
S0
G1 X204.953 S638
S0
G1 X205.080 S633
S0
G1 X205.207 S655
S0
G1 X205.334 S661
S0
G1 X205.461 S655
S0
G1 X205.588 S681
S0
G1 X205.715 S846
S0
G1 X205.842 S871
S0
G1 X205.969 S857
S0
G1 X206.096 S890
S0
G1 X206.223 S882
S0
G1 X206.350 S899
S0
G1 X206.477 S905
S0
G1 X206.604 S915
S0
G1 X206.731 S912
S0
G1 X206.858 S906
S0
G1 X206.985 S920
S0
G1 X207.112 S553
S0
G1 X207.239 S200
S0
G1 X207.366 S178
S0
G1 X207.493 S172
S0
G1 X207.620 S381
S0
G1 X207.747 S466
S0
G1 X207.874 S606
S0
G1 X208.001 S948
S0
G1 X208.128 S832
S0
G1 X208.255 S758
S0
G1 X208.382 S739
S0
G1 X208.509 S700
S0
G1 X208.636 S722
S0
G1 X208.763 S711
S0
G1 X208.890 S759
S0
G1 X209.017 S771
S0
G1 X209.144 S572
S0
G1 X209.271 S793
S0
G1 X209.398 S866
S0
G1 X209.525 S918
S0
G1 X209.652 S669
S0
G1 X209.779 S667
S0
G1 X209.906 S662
S0
G1 X210.033 S658
S0
G1 X210.160 S659
S0
G1 X210.287 S670
S0
G1 X210.414 S663
S0
G1 X210.541 S642
S0
G1 X210.668 S680
S0
G1 X210.795 S701
S0
G1 X210.922 S628
S0
G1 X211.049 S650
S0
G1 X211.176 S639
S0
G1 X211.303 S627
S0
G1 X211.430 S662
S0
G1 X211.557 S624
S0
G1 X211.684 S645
S0
G1 X211.811 S633
S0
G1 X211.938 S656
S0
G1 X212.065 S641
S0
G1 X212.192 S635
S0
G1 X212.319 S668
S0
G1 X212.446 S653
S0
G1 X212.573 S660
S0
G1 X212.700 S674
S0
G1 X212.827 S705
S0
G1 X212.954 S701
S0
G1 X213.081 S715
S0
G1 X213.208 S700
S0
G1 X213.335 S728
S0
G1 X213.462 S753
S0
G1 X213.589 S794
S0
G1 X213.716 S757
S0
G1 X213.843 S769
S0
G1 X213.970 S794
S0
G1 X214.097 S752
S0
G1 X214.224 S787
S0
G1 X214.351 S773
S0
G1 X214.478 S787
S0
G1 X214.605 S789
S0
G1 X214.732 S762
S0
G1 X214.859 S771
S0
G1 X214.986 S779
S0
G1 X215.113 S766
S0
G1 X215.240 S786
S0
G1 X215.367 S782
S0
G1 X215.494 S808
S0
G1 X215.621 S845
S0
G1 X215.748 S838
S0
G1 X215.875 S861
S0
G1 X216.002 S855
S0
G1 X216.129 S858
S0
G1 X216.256 S902
S0
G1 X216.383 S873
S0
G1 X216.510 S867
S0
G1 X216.637 S895
S0
G1 X216.764 S883
S0
G1 X216.891 S879
S0
G1 X217.018 S871
S0
G1 X217.145 S870
S0
G1 X217.272 S885
S0
G1 X217.399 S895
S0
G1 X217.526 S905
S0
G1 X217.653 S891
S0
G1 X217.780 S894
S0
G1 X217.907 S905
S0
G1 X218.034 S913
S0
G1 X218.161 S921
S0
G1 X218.288 S913
S0
G1 X218.415 S914
S0
G1 X218.542 S913
S0
G1 X218.669 S899
S0
G1 X218.796 S904
S0
G1 X218.923 S893
S0
G1 X219.050 S903
S0
G1 X219.177 S911
S0
G1 X219.304 S908
S0
G1 X219.431 S910
S0
G1 X219.558 S925
S0
G1 X219.685 S930
S0
G1 X219.812 S926
S0
G1 X219.939 S908
S0
G1 X220.066 S844
S0
G1 X220.193 S860
S0
G1 X220.320 S944
S0
G1 X220.447 S963
S0
G1 X220.574 S947
S0
G1 X220.701 S946
S0
G1 X220.955 S956
S0
G1 X221.082 S955
S0
G1 X221.209 S925
S0
G1 X221.336 S917
S0
G1 X221.463 S910
S0
G1 X221.590 S898
S0
G1 X221.717 S851
S0
G1 X221.844 S722
S0
G1 X221.971 S720
S0
G1 X222.098 S529
S0
G1 X222.225 S518
S0
G1 X222.352 S681
S0
G1 X222.479 S753
S0
G1 X222.606 S772
S0
G1 X222.733 S775
S0
G1 X222.860 S784
S0
G1 X222.987 S788
S0
G1 X223.114 S786
S0
G1 X223.241 S772
S0
G1 X223.368 S776
S0
G1 X223.495 S764
S0
G1 X223.622 S772
S0
G1 X223.749 S766
S0
G1 X223.876 S739
S0
G1 X224.003 S733
S0
G1 X224.130 S737
S0
G1 X224.257 S728
S0
G1 X224.384 S731
S0
G1 X224.511 S716
S0
G1 X224.638 S728
S0
G1 X224.892 S724
S0
G1 X225.019 S725
S0
G1 X225.146 S717
S0
G1 X225.273 S725
S0
G1 X225.654 S729
S0
G1 X225.908 S725
S0
G1 X226.035 S721
S0
G1 X226.162 S729
S0
G1 X226.289 S724
S0
G1 X226.416 S736
S0
G1 X226.543 S725
S0
G1 X226.670 S721
S0
G1 X227.178 S737
S0
G1 X227.305 S726
S0
G1 X227.432 S728
S0
G1 X227.559 S732
S0
G1 X227.686 S724
S0
G1 X227.813 S728
S0
G1 X227.940 S740
S0
G1 X228.067 S734
S0
G1 X228.194 S726
S0
G1 X228.321 S741
S0
G1 X228.448 S737
S0
G1 X228.702 S726
S0
G1 X228.829 S733
S0
G1 X228.956 S737
S0
G1 X229.083 S741
S0
G1 X229.464 S730
S0
G1 X229.591 S726
S0
G1 X229.718 S732
S0
G1 X229.845 S743
S0
G1 X229.972 S739
S0
G1 X230.099 S728
S0
G1 X230.226 S721
S0
G1 X230.353 S729
S0
G1 X230.480 S725
S0
G1 X230.607 S737
S0
G1 X230.734 S729
S0
G1 X230.861 S742
S0
G1 X230.988 S722
S0
G1 X231.115 S734
S0
G1 X231.242 S741
S0
G1 X231.496 S734
S0
G1 X231.750 S730
S0
G1 X231.877 S718
S0
G1 X232.004 S714
S0
G1 X232.131 S734
S0
G1 X232.258 S722
S0
G1 X232.385 S726
S0
G1 X232.512 S730
S0
G1 X232.639 S726
S0
G1 X232.766 S730
S0
G1 X232.893 S735
S0
G1 X233.020 S741
S0
G1 X233.147 S721
S0
G1 X233.274 S737
S0
G1 X233.401 S732
S0
G1 X233.528 S728
S0
G1 X233.655 S708
S0
G1 X233.782 S724
S0
G1 X233.909 S741
S0
G1 X234.163 S736
S0
G1 X234.290 S740
S0
G1 X234.417 S729
S0
G1 X234.671 S736
S0
G1 X234.798 S727
S0
G1 X234.925 S722
S0
G1 X235.052 S730
S0
G1 X235.179 S736
S0
G1 X235.306 S739
S0
G1 X235.433 S741
S0
G1 X235.560 S732
S0
G1 X235.814 S729
S0
G1 X235.941 S736
S0
G1 X236.068 S740
S0
G1 X236.195 S732
S0
G1 X236.322 S730
S0
G1 X236.449 S720
S0
G0 Y36.957
G0 X236.449 S0
G1 X236.322 S714
S0
G1 X236.195 S730
S0
G1 X236.068 S717
S0
G1 X235.814 S736
S0
G1 X235.560 S732
S0
G1 X235.433 S717
S0
G1 X235.306 S735
S0
G1 X235.179 S731
S0
G1 X235.052 S732
S0
G1 X234.925 S734
S0
G1 X234.798 S743
S0
G1 X234.417 S732
S0
G1 X234.163 S743
S0
G1 X233.909 S732
S0
G1 X233.655 S729
S0
G1 X233.528 S723
S0
G1 X233.401 S725
S0
G1 X233.274 S737
S0
G1 X233.147 S732
S0
G1 X233.020 S728
S0
G1 X232.893 S720
S0
G1 X232.766 S734
S0
G1 X232.639 S745
S0
G1 X232.512 S732
S0
G1 X232.385 S726
S0
G1 X232.258 S722
S0
G1 X232.131 S734
S0
G1 X232.004 S726
S0
G1 X231.750 S722
S0
G1 X231.623 S744
S0
G1 X231.496 S732
S0
G1 X231.369 S728
S0
G1 X231.242 S729
S0
G1 X231.115 S737
S0
G1 X230.988 S733
S0
G1 X230.861 S724
S0
G1 X230.734 S725
S0
G1 X230.607 S722
S0
G1 X230.480 S737
S0
G1 X230.353 S734
S0
G1 X230.099 S722
S0
G1 X229.845 S734
S0
G1 X229.718 S745
S0
G1 X229.591 S732
S0
G1 X229.464 S726
S0
G1 X229.337 S734
S0
G1 X229.210 S730
S0
G1 X229.083 S734
S0
G1 X228.956 S736
S0
G1 X228.829 S742
S0
G1 X228.575 S730
S0
G1 X228.448 S725
S0
G1 X228.194 S730
S0
G1 X228.067 S737
S0
G1 X227.940 S734
S0
G1 X227.813 S726
S0
G1 X227.686 S730
S0
G1 X227.559 S741
S0
G1 X227.432 S733
S0
G1 X227.305 S730
S0
G1 X227.178 S725
S0
G1 X227.051 S729
S0
G1 X226.924 S737
S0
G1 X226.797 S729
S0
G1 X226.670 S721
S0
G1 X226.416 S729
S0
G1 X226.289 S725
S0
G1 X226.162 S737
S0
G1 X226.035 S725
S0
G1 X225.908 S690
S0
G1 X225.781 S709
S0
G1 X225.654 S725
S0
G1 X225.527 S729
S0
G1 X225.400 S717
S0
G1 X225.273 S737
S0
G1 X225.146 S729
S0
G1 X225.019 S741
S0
G1 X224.892 S733
S0
G1 X224.765 S725
S0
G1 X224.638 S721
S0
G1 X224.511 S728
S0
G1 X224.384 S717
S0
G1 X224.257 S728
S0
G1 X224.130 S722
S0
G1 X224.003 S737
S0
G1 X223.876 S741
S0
G1 X223.749 S744
S0
G1 X223.622 S769
S0
G1 X223.495 S759
S0
G1 X223.368 S771
S0
G1 X223.241 S776
S0
G1 X222.987 S764
S0
G1 X222.860 S781
S0
G1 X222.733 S791
S0
G1 X222.606 S782
S0
G1 X222.479 S749
S0
G1 X222.352 S714
S0
G1 X222.225 S619
S0
G1 X222.098 S336
S0
G1 X221.971 S672
S0
G1 X221.844 S691
S0
G1 X221.717 S805
S0
G1 X221.590 S854
S0
G1 X221.463 S903
S0
G1 X221.336 S911
S0
G1 X221.209 S921
S0
G1 X221.082 S941
S0
G1 X220.955 S949
S0
G1 X220.828 S959
S0
G1 X220.701 S946
S0
G1 X220.574 S943
S0
G1 X220.447 S950
S0
G1 X220.320 S906
S0
G1 X220.193 S844
S0
G1 X220.066 S883
S0
G1 X219.939 S919
S0
G1 X219.812 S932
S0
G1 X219.685 S926
S0
G1 X219.431 S922
S0
G1 X219.304 S904
S0
G1 X219.177 S901
S0
G1 X219.050 S885
S0
G1 X218.923 S888
S0
G1 X218.796 S903
S0
G1 X218.669 S905
S0
G1 X218.542 S914
S0
G1 X218.415 S916
S0
G1 X218.288 S914
S0
G1 X218.161 S911
S0
G1 X218.034 S922
S0
G1 X217.907 S918
S0
G1 X217.780 S915
S0
G1 X217.653 S881
S0
G1 X217.526 S879
S0
G1 X217.399 S880
S0
G1 X217.272 S898
S0
G1 X217.145 S888
S0
G1 X217.018 S877
S0
G1 X216.891 S884
S0
G1 X216.764 S892
S0
G1 X216.637 S917
S0
G1 X216.510 S876
S0
G1 X216.383 S888
S0
G1 X216.256 S876
S0
G1 X216.129 S850
S0
G1 X216.002 S899
S0
G1 X215.875 S887
S0
G1 X215.748 S856
S0
G1 X215.621 S835
S0
G1 X215.494 S823
S0
G1 X215.367 S838
S0
G1 X215.240 S828
S0
G1 X215.113 S816
S0
G1 X214.986 S804
S0
G1 X214.859 S779
S0
G1 X214.732 S787
S0
G1 X214.605 S780
S0
G1 X214.478 S788
S0
G1 X214.351 S801
S0
G1 X214.224 S764
S0
G1 X214.097 S744
S0
G1 X213.970 S780
S0
G1 X213.843 S788
S0
G1 X213.716 S770
S0
G1 X213.589 S744
S0
G1 X213.462 S743
S0
G1 X213.335 S754
S0
G1 X213.208 S721
S0
G1 X213.081 S702
S0
G1 X212.954 S665
S0
G1 X212.827 S679
S0
G1 X212.700 S648
S0
G1 X212.573 S637
S0
G1 X212.446 S695
S0
G1 X212.319 S685
S0
G1 X212.192 S647
S0
G1 X212.065 S690
S0
G1 X211.938 S639
S0
G1 X211.811 S665
S0
G1 X211.684 S618
S0
G1 X211.557 S621
S0
G1 X211.430 S635
S0
G1 X211.303 S639
S0
G1 X211.176 S641
S0
G1 X211.049 S623
S0
G1 X210.922 S595
S0
G1 X210.795 S667
S0
G1 X210.668 S628
S0
G1 X210.541 S651
S0
G1 X210.414 S669
S0
G1 X210.287 S671
S0
G1 X210.160 S686
S0
G1 X210.033 S635
S0
G1 X209.906 S629
S0
G1 X209.779 S615
S0
G1 X209.652 S583
S0
G1 X209.525 S619
S0
G1 X209.398 S847
S0
G1 X209.271 S882
S0
G1 X209.144 S832
S0
G1 X209.017 S817
S0
G1 X208.890 S815
S0
G1 X208.763 S729
S0
G1 X208.636 S696
S0
G1 X208.509 S690
S0
G1 X208.382 S697
S0
G1 X208.255 S726
S0
G1 X208.128 S699
S0
G1 X208.001 S817
S0
G1 X207.874 S950
S0
G1 X207.747 S779
S0
G1 X207.620 S530
S0
G1 X207.493 S403
S0
G1 X207.366 S292
S0
G1 X207.239 S180
S0
G1 X207.112 S187
S0
G1 X206.985 S308
S0
G1 X206.858 S952
S0
G1 X206.604 S909
S0
G1 X206.477 S918
S0
G1 X206.350 S905
S0
G1 X206.223 S902
S0
G1 X206.096 S890
S0
G1 X205.969 S887
S0
G1 X205.842 S869
S0
G1 X205.715 S851
S0
G1 X205.588 S825
S0
G1 X205.461 S777
S0
G1 X205.334 S657
S0
G1 X205.207 S669
S0
G1 X205.080 S646
S0
G1 X204.953 S648
S0
G1 X204.826 S639
S0
G1 X204.699 S622
S0
G1 X204.572 S638
S0
G1 X204.445 S625
S0
G1 X204.318 S635
S0
G1 X203.937 S597
S0
G1 X203.810 S592
S0
G1 X203.683 S586
S0
G1 X203.556 S592
S0
G1 X203.429 S607
S0
G1 X203.302 S626
S0
G1 X203.175 S634
S0
G1 X203.048 S637
S0
G1 X202.921 S634
S0
G1 X202.794 S638
S0
G1 X202.667 S642
S0
G1 X202.540 S629
S0
G1 X202.413 S645
S0
G1 X202.286 S638
S0
G1 X202.159 S650
S0
G1 X202.032 S666
S0
G1 X201.905 S671
S0
G1 X201.778 S670
S0
G1 X201.651 S685
S0
G1 X201.524 S673
S0
G1 X201.397 S677
S0
G1 X201.270 S673
S0
G1 X201.143 S678
S0
G1 X201.016 S682
S0
G1 X200.889 S673
S0
G1 X200.762 S686
S0
G1 X200.635 S667
S0
G1 X200.381 S679
S0
G1 X200.254 S675
S0
G1 X200.127 S682
S0
G1 X200.000 S667
S0
G0 Y36.830
G0 X200.000 S0
G1 X200.254 S683
S0
G1 X200.508 S675
S0
G1 X200.635 S671
S0
G1 X200.762 S683
S0
G1 X200.889 S678
S0
G1 X201.016 S679
S0
G1 X201.143 S682
S0
G1 X201.270 S675
S0
G1 X201.524 S673
S0
G1 X201.651 S669
S0
G1 X201.778 S682
S0
G1 X201.905 S685
S0
G1 X202.032 S671
S0
G1 X202.159 S658
S0
G1 X202.286 S634
S0
G1 X202.413 S644
S0
G1 X202.540 S626
S0
G1 X202.667 S646
S0
G1 X202.794 S642
S0
G1 X202.921 S638
S0
G1 X203.048 S634
S0
G1 X203.175 S642
S0
G1 X203.302 S662
S0
G1 X203.429 S638
S0
G1 X203.556 S615
S0
G1 X203.683 S595
S0
G1 X203.810 S610
S0
G1 X203.937 S620
S0
G1 X204.064 S610
S0
G1 X204.191 S595
S0
G1 X204.318 S623
S0
G1 X204.445 S640
S0
G1 X204.572 S641
S0
G1 X204.699 S642
S0
G1 X204.826 S641
S0
G1 X204.953 S628
S0
G1 X205.080 S650
S0
G1 X205.207 S676
S0
G1 X205.334 S640
S0
G1 X205.461 S666
S0
G1 X205.588 S852
S0
G1 X205.715 S848
S0
G1 X205.842 S841
S0
G1 X205.969 S863
S0
G1 X206.096 S879
S0
G1 X206.223 S884
S0
G1 X206.350 S894
S0
G1 X206.477 S905
S0
G1 X206.604 S902
S0
G1 X206.731 S906
S0
G1 X206.858 S910
S0
G1 X206.985 S684
S0
G1 X207.112 S259
S0
G1 X207.239 S183
S0
G1 X207.366 S172
S0
G1 X207.493 S370
S0
G1 X207.620 S431
S0
G1 X207.747 S627
S0
G1 X207.874 S981
S0
G1 X208.001 S852
S0
G1 X208.128 S745
S0
G1 X208.255 S699
S0
G1 X208.382 S723
S0
G1 X208.509 S727
S0
G1 X208.636 S623
S0
G1 X208.763 S143
S0
G1 X208.890 S147
S0
G1 X209.017 S657
S0
G1 X209.144 S785
S0
G1 X209.271 S798
S0
G1 X209.398 S876
S0
G1 X209.525 S823
S0
G1 X209.652 S612
S0
G1 X209.779 S674
S0
G1 X209.906 S589
S0
G1 X210.033 S643
S0
G1 X210.160 S635
S0
G1 X210.287 S662
S0
G1 X210.414 S643
S0
G1 X210.541 S669
S0
G1 X210.668 S627
S0
G1 X210.795 S675
S0
G1 X210.922 S634
S0
G1 X211.049 S632
S0
G1 X211.176 S651
S0
G1 X211.303 S619
S0
G1 X211.430 S623
S0
G1 X211.557 S663
S0
G1 X211.684 S638
S0
G1 X211.811 S613
S0
G1 X211.938 S648
S0
G1 X212.065 S681
S0
G1 X212.192 S651
S0
G1 X212.319 S642
S0
G1 X212.446 S654
S0
G1 X212.573 S648
S0
G1 X212.700 S627
S0
G1 X212.827 S683
S0
G1 X212.954 S669
S0
G1 X213.081 S679
S0
G1 X213.208 S693
S0
G1 X213.335 S724
S0
G1 X213.462 S701
S0
G1 X213.589 S727
S0
G1 X213.716 S706
S0
G1 X213.843 S734
S0
G1 X213.970 S760
S0
G1 X214.097 S768
S0
G1 X214.224 S760
S0
G1 X214.351 S754
S0
G1 X214.478 S770
S0
G1 X214.605 S764
S0
G1 X214.732 S777
S0
G1 X214.859 S779
S0
G1 X214.986 S761
S0
G1 X215.240 S793
S0
G1 X215.367 S829
S0
G1 X215.494 S857
S0
G1 X215.621 S880
S0
G1 X215.748 S894
S0
G1 X215.875 S887
S0
G1 X216.002 S879
S0
G1 X216.129 S862
S0
G1 X216.256 S899
S0
G1 X216.383 S885
S0
G1 X216.510 S872
S0
G1 X216.637 S886
S0
G1 X216.764 S897
S0
G1 X216.891 S905
S0
G1 X217.018 S900
S0
G1 X217.145 S887
S0
G1 X217.272 S866
S0
G1 X217.399 S880
S0
G1 X217.526 S887
S0
G1 X217.653 S894
S0
G1 X217.780 S886
S0
G1 X217.907 S891
S0
G1 X218.034 S903
S0
G1 X218.161 S913
S0
G1 X218.288 S922
S0
G1 X218.415 S908
S0
G1 X218.542 S910
S0
G1 X218.669 S917
S0
G1 X218.796 S907
S0
G1 X218.923 S915
S0
G1 X219.050 S899
S0
G1 X219.177 S890
S0
G1 X219.304 S886
S0
G1 X219.431 S901
S0
G1 X219.558 S910
S0
G1 X219.685 S926
S0
G1 X219.812 S922
S0
G1 X219.939 S914
S0
G1 X220.066 S926
S0
G1 X220.193 S928
S0
G1 X220.320 S911
S0
G1 X220.447 S822
S0
G1 X220.574 S867
S0
G1 X220.701 S945
S0
G1 X220.828 S935
S0
G1 X220.955 S932
S0
G1 X221.082 S936
S0
G1 X221.209 S934
S0
G1 X221.336 S925
S0
G1 X221.463 S923
S0
G1 X221.590 S914
S0
G1 X221.717 S825
S0
G1 X221.844 S842
S0
G1 X221.971 S713
S0
G1 X222.098 S695
S0
G1 X222.225 S479
S0
G1 X222.352 S414
S0
G1 X222.479 S678
S0
G1 X222.606 S748
S0
G1 X222.733 S768
S0
G1 X222.860 S784
S0
G1 X222.987 S761
S0
G1 X223.114 S725
S0
G1 X223.241 S767
S0
G1 X223.368 S775
S0
G1 X223.495 S767
S0
G1 X223.622 S763
S0
G1 X223.749 S770
S0
G1 X224.003 S737
S0
G1 X224.257 S734
S0
G1 X224.384 S728
S0
G1 X224.511 S724
S0
G1 X224.765 S721
S0
G1 X224.892 S717
S0
G1 X225.019 S733
S0
G1 X225.146 S737
S0
G1 X225.273 S725
S0
G1 X225.400 S729
S0
G1 X225.654 S725
S0
G1 X225.781 S733
S0
G1 X225.908 S721
S0
G1 X226.035 S717
S0
G1 X226.162 S713
S0
G1 X226.416 S721
S0
G1 X226.543 S729
S0
G1 X226.670 S721
S0
G1 X226.797 S733
S0
G1 X226.924 S737
S0
G1 X227.051 S733
S0
G1 X227.305 S725
S0
G1 X227.432 S726
S0
G1 X227.559 S730
S0
G1 X227.813 S741
S0
G1 X228.067 S726
S0
G1 X228.321 S734
S0
G1 X228.448 S741
S0
G1 X228.575 S736
S0
G1 X228.702 S730
S0
G1 X228.829 S737
S0
G1 X228.956 S713
S0
G1 X229.083 S744
S0
G1 X229.337 S726
S0
G1 X229.464 S730
S0
G1 X229.591 S722
S0
G1 X229.718 S734
S0
G1 X229.972 S737
S0
G1 X230.099 S734
S0
G1 X230.226 S722
S0
G1 X230.353 S730
S0
G1 X230.480 S734
S0
G1 X230.607 S710
S0
G1 X230.734 S749
S0
G1 X230.861 S729
S0
G1 X230.988 S737
S0
G1 X231.115 S733
S0
G1 X231.242 S741
S0
G1 X231.369 S744
S0
G1 X231.496 S741
S0
G1 X231.623 S737
S0
G1 X231.750 S733
S0
G1 X231.877 S722
S0
G1 X232.004 S726
S0
G1 X232.131 S730
S0
G1 X232.258 S726
S0
G1 X232.385 S737
S0
G1 X232.512 S726
S0
G1 X232.766 S737
S0
G1 X232.893 S730
S0
G1 X233.020 S734
S0
G1 X233.147 S726
S0
G1 X233.401 S733
S0
G1 X233.528 S725
S0
G1 X233.655 S723
S0
G1 X233.782 S729
S0
G1 X233.909 S725
S0
G1 X234.036 S736
S0
G1 X234.163 S729
S0
G1 X234.290 S728
S0
G1 X234.417 S744
S0
G1 X234.671 S739
S0
G1 X234.925 S736
S0
G1 X235.052 S729
S0
G1 X235.433 S732
S0
G1 X235.687 S729
S0
G1 X235.814 S736
S0
G1 X236.068 S732
S0
G1 X236.195 S740
S0
G1 X236.322 S737
S0
G1 X236.449 S726
S0
G0 Y36.703
G0 X236.449 S0
G1 X236.322 S737
S0
G1 X236.195 S745
S0
G1 X236.068 S725
S0
G1 X235.941 S736
S0
G1 X235.814 S740
S0
G1 X235.560 S732
S0
G1 X235.433 S717
S0
G1 X235.306 S740
S0
G1 X235.179 S729
S0
G1 X234.798 S736
S0
G1 X234.671 S717
S0
G1 X234.544 S744
S0
G1 X234.417 S732
S0
G1 X234.290 S744
S0
G1 X234.163 S729
S0
G1 X234.036 S740
S0
G1 X233.909 S729
S0
G1 X233.782 S717
S0
G1 X233.655 S732
S0
G1 X233.528 S719
S0
G1 X233.401 S713
S0
G1 X233.274 S729
S0
G1 X233.147 S741
S0
G1 X233.020 S729
S0
G1 X232.766 S734
S0
G1 X232.639 S745
S0
G1 X232.512 S730
S0
G1 X232.385 S722
S0
G1 X232.258 S730
S0
G1 X232.131 S734
S0
G1 X232.004 S730
S0
G1 X231.877 S734
S0
G1 X231.750 S712
S0
G1 X231.623 S722
S0
G1 X231.496 S730
S0
G1 X231.369 S737
S0
G1 X231.242 S745
S0
G1 X231.115 S730
S0
G1 X230.988 S737
S0
G1 X230.861 S722
S0
G1 X230.734 S741
S0
G1 X230.480 S730
S0
G1 X230.353 S734
S0
G1 X229.972 S737
S0
G1 X229.845 S741
S0
G1 X229.718 S745
S0
G1 X229.591 S741
S0
G1 X229.464 S737
S0
G1 X229.337 S730
S0
G1 X229.083 S737
S0
G1 X228.956 S740
S0
G1 X228.829 S721
S0
G1 X228.702 S722
S0
G1 X228.575 S726
S0
G1 X228.448 S744
S0
G1 X228.321 S745
S0
G1 X228.194 S726
S0
G1 X228.067 S737
S0
G1 X227.940 S730
S0
G1 X227.813 S726
S0
G1 X227.686 S730
S0
G1 X227.432 S734
S0
G1 X227.305 S710
S0
G1 X227.178 S713
S0
G1 X227.051 S737
S0
G1 X226.924 S733
S0
G1 X226.797 S725
S0
G1 X226.416 S721
S0
G1 X226.289 S725
S0
G1 X226.162 S721
S0
G1 X225.908 S729
S0
G1 X225.781 S725
S0
G1 X225.654 S733
S0
G1 X225.527 S732
S0
G1 X225.400 S721
S0
G1 X225.273 S732
S0
G1 X225.146 S740
S0
G1 X225.019 S725
S0
G1 X224.892 S733
S0
G1 X224.765 S725
S0
G1 X224.638 S721
S0
G1 X224.511 S725
S0
G1 X224.384 S728
S0
G1 X224.257 S724
S0
G1 X223.876 S737
S0
G1 X223.749 S734
S0
G1 X223.622 S743
S0
G1 X223.495 S759
S0
G1 X223.368 S745
S0
G1 X223.114 S757
S0
G1 X222.987 S753
S0
G1 X222.860 S796
S0
G1 X222.733 S780
S0
G1 X222.606 S769
S0
G1 X222.479 S746
S0
G1 X222.352 S643
S0
G1 X222.225 S220
S0
G1 X222.098 S524
S0
G1 X221.971 S526
S0
G1 X221.844 S771
S0
G1 X221.717 S811
S0
G1 X221.590 S902
S0
G1 X221.463 S910
S0
G1 X221.336 S922
S0
G1 X221.209 S930
S0
G1 X221.082 S935
S0
G1 X220.955 S938
S0
G1 X220.828 S941
S0
G1 X220.701 S947
S0
G1 X220.574 S857
S0
G1 X220.447 S846
S0
G1 X220.320 S925
S0
G1 X220.193 S922
S0
G1 X220.066 S933
S0
G1 X219.939 S927
S0
G1 X219.685 S925
S0
G1 X219.558 S893
S0
G1 X219.431 S898
S0
G1 X219.304 S910
S0
G1 X219.177 S917
S0
G1 X219.050 S919
S0
G1 X218.923 S915
S0
G1 X218.796 S905
S0
G1 X218.669 S915
S0
G1 X218.542 S905
S0
G1 X218.415 S912
S0
G1 X218.288 S905
S0
G1 X218.161 S902
S0
G1 X218.034 S886
S0
G1 X217.907 S879
S0
G1 X217.780 S885
S0
G1 X217.653 S901
S0
G1 X217.526 S883
S0
G1 X217.399 S891
S0
G1 X217.272 S897
S0
G1 X217.145 S894
S0
G1 X217.018 S909
S0
G1 X216.764 S905
S0
G1 X216.637 S897
S0
G1 X216.510 S889
S0
G1 X216.383 S900
S0
G1 X216.256 S903
S0
G1 X216.129 S893
S0
G1 X216.002 S847
S0
G1 X215.875 S866
S0
G1 X215.748 S873
S0
G1 X215.621 S866
S0
G1 X215.494 S871
S0
G1 X215.367 S806
S0
G1 X215.240 S793
S0
G1 X215.113 S794
S0
G1 X214.986 S780
S0
G1 X214.859 S796
S0
G1 X214.732 S785
S0
G1 X214.605 S773
S0
G1 X214.478 S767
S0
G1 X214.351 S738
S0
G1 X214.224 S752
S0
G1 X214.097 S755
S0
G1 X213.970 S717
S0
G1 X213.843 S714
S0
G1 X213.716 S753
S0
G1 X213.589 S699
S0
G1 X213.462 S727
S0
G1 X213.335 S721
S0
G1 X213.208 S695
S0
G1 X213.081 S710
S0
G1 X212.954 S670
S0
G1 X212.827 S646
S0
G1 X212.700 S667
S0
G1 X212.573 S633
S0
G1 X212.446 S597
S0
G1 X212.319 S623
S0
G1 X212.192 S609
S0
G1 X212.065 S622
S0
G1 X211.938 S596
S0
G1 X211.811 S589
S0
G1 X211.684 S597
S0
G1 X211.557 S604
S0
G1 X211.430 S590
S0
G1 X211.303 S616
S0
G1 X211.176 S619
S0
G1 X211.049 S632
S0
G1 X210.922 S577
S0
G1 X210.795 S620
S0
G1 X210.541 S616
S0
G1 X210.414 S643
S0
G1 X210.287 S706
S0
G1 X210.160 S638
S0
G1 X210.033 S642
S0
G1 X209.906 S628
S0
G1 X209.779 S603
S0
G1 X209.652 S594
S0
G1 X209.525 S634
S0
G1 X209.398 S797
S0
G1 X209.271 S957
S0
G1 X209.144 S846
S0
G1 X209.017 S680
S0
G1 X208.890 S153
S0
G1 X208.636 S105
S0
G1 X208.509 S361
S0
G1 X208.382 S722
S0
G1 X208.255 S742
S0
G1 X208.128 S739
S0
G1 X208.001 S736
S0
G1 X207.874 S749
S0
G1 X207.747 S963
S0
G1 X207.620 S773
S0
G1 X207.493 S471
S0
G1 X207.366 S389
S0
G1 X207.239 S208
S0
G1 X207.112 S181
S0
G1 X206.985 S232
S0
G1 X206.858 S456
S0
G1 X206.731 S902
S0
G1 X206.604 S898
S0
G1 X206.477 S902
S0
G1 X206.350 S903
S0
G1 X206.223 S907
S0
G1 X206.096 S911
S0
G1 X205.969 S886
S0
G1 X205.842 S849
S0
G1 X205.715 S854
S0
G1 X205.588 S828
S0
G1 X205.461 S835
S0
G1 X205.334 S754
S0
G1 X205.207 S655
S0
G1 X205.080 S671
S0
G1 X204.953 S667
S0
G1 X204.826 S648
S0
G1 X204.699 S653
S0
G1 X204.572 S639
S0
G1 X204.445 S631
S0
G1 X204.318 S636
S0
G1 X204.191 S640
S0
G1 X204.064 S629
S0
G1 X203.810 S633
S0
G1 X203.683 S620
S0
G1 X203.556 S630
S0
G1 X203.429 S635
S0
G1 X203.302 S649
S0
G1 X203.175 S650
S0
G1 X203.048 S634
S0
G1 X202.921 S642
S0
G1 X202.794 S635
S0
G1 X202.667 S655
S0
G1 X202.540 S628
S0
G1 X202.413 S635
S0
G1 X202.286 S647
S0
G1 X202.159 S646
S0
G1 X202.032 S658
S0
G1 X201.905 S659
S0
G1 X201.778 S670
S0
G1 X201.651 S678
S0
G1 X201.524 S662
S0
G1 X201.397 S673
S0
G1 X201.270 S677
S0
G1 X201.016 S678
S0
G1 X200.889 S681
S0
G1 X200.762 S666
S0
G1 X200.635 S679
S0
G1 X200.508 S675
S0
G1 X200.381 S683
S0
G1 X200.254 S679
S0
G1 X200.127 S683
S0
G1 X200.000 S671
S0
G0 Y36.576
G0 X200.000 S0
G1 X200.127 S675
S0
G1 X200.254 S659
S0
G1 X200.381 S671
S0
G1 X200.508 S675
S0
G1 X200.635 S679
S0
G1 X200.762 S680
S0
G1 X200.889 S682
S0
G1 X201.016 S685
S0
G1 X201.143 S675
S0
G1 X201.270 S679
S0
G1 X201.397 S681
S0
G1 X201.524 S677
S0
G1 X201.651 S673
S0
G1 X201.778 S677
S0
G1 X201.905 S662
S0
G1 X202.032 S659
S0
G1 X202.159 S658
S0
G1 X202.286 S651
S0
G1 X202.540 S639
S0
G1 X202.667 S635
S0
G1 X202.794 S631
S0
G1 X202.921 S654
S0
G1 X203.175 S638
S0
G1 X203.302 S646
S0
G1 X203.429 S642
S0
G1 X203.556 S635
S0
G1 X203.683 S627
S0
G1 X203.810 S631
S0
G1 X203.937 S622
S0
G1 X204.064 S614
S0
G1 X204.191 S652
S0
G1 X204.318 S647
S0
G1 X204.445 S642
S0
G1 X204.572 S633
S0
G1 X204.699 S645
S0
G1 X204.826 S657
S0
G1 X204.953 S669
S0
G1 X205.080 S691
S0
G1 X205.207 S658
S0
G1 X205.334 S680
S0
G1 X205.461 S853
S0
G1 X205.588 S849
S0
G1 X205.715 S841
S0
G1 X205.842 S746
S0
G1 X205.969 S871
S0
G1 X206.096 S892
S0
G1 X206.223 S901
S0
G1 X206.350 S906
S0
G1 X206.477 S902
S0
G1 X206.604 S895
S0
G1 X206.731 S902
S0
G1 X206.858 S914
S0
G1 X206.985 S332
S0
G1 X207.112 S207
S0
G1 X207.239 S181
S0
G1 X207.366 S330
S0
G1 X207.493 S399
S0
G1 X207.620 S515
S0
G1 X207.747 S970
S0
G1 X207.874 S906
S0
G1 X208.001 S753
S0
G1 X208.128 S718
S0
G1 X208.255 S729
S0
G1 X208.382 S723
S0
G1 X208.509 S707
S0
G1 X208.636 S645
S0
G1 X208.763 S144
S0
G1 X208.890 S95
S0
G1 X209.017 S279
S0
G1 X209.144 S515
S0
G1 X209.398 S967
S0
G1 X209.525 S827
S0
G1 X209.652 S629
S0
G1 X209.779 S617
S0
G1 X209.906 S643
S0
G1 X210.033 S639
S0
G1 X210.160 S612
S0
G1 X210.287 S643
S0
G1 X210.414 S624
S0
G1 X210.541 S638
S0
G1 X210.668 S653
S0
G1 X210.795 S573
S0
G1 X210.922 S611
S0
G1 X211.049 S591
S0
G1 X211.176 S585
S0
G1 X211.303 S584
S0
G1 X211.430 S605
S0
G1 X211.557 S601
S0
G1 X211.684 S589
S0
G1 X211.811 S579
S0
G1 X211.938 S585
S0
G1 X212.065 S632
S0
G1 X212.192 S604
S0
G1 X212.319 S614
S0
G1 X212.446 S639
S0
G1 X212.573 S650
S0
G1 X212.700 S632
S0
G1 X212.827 S641
S0
G1 X212.954 S687
S0
G1 X213.081 S692
S0
G1 X213.208 S694
S0
G1 X213.335 S702
S0
G1 X213.462 S683
S0
G1 X213.589 S729
S0
G1 X213.716 S792
S0
G1 X213.843 S726
S0
G1 X213.970 S683
S0
G1 X214.097 S732
S0
G1 X214.224 S771
S0
G1 X214.351 S757
S0
G1 X214.478 S744
S0
G1 X214.605 S816
S0
G1 X214.732 S746
S0
G1 X214.859 S781
S0
G1 X214.986 S761
S0
G1 X215.113 S763
S0
G1 X215.240 S760
S0
G1 X215.367 S778
S0
G1 X215.494 S772
S0
G1 X215.621 S855
S0
G1 X215.748 S818
S0
G1 X215.875 S832
S0
G1 X216.002 S878
S0
G1 X216.129 S835
S0
G1 X216.256 S858
S0
G1 X216.383 S887
S0
G1 X216.510 S898
S0
G1 X216.764 S894
S0
G1 X216.891 S897
S0
G1 X217.018 S927
S0
G1 X217.145 S904
S0
G1 X217.272 S915
S0
G1 X217.399 S905
S0
G1 X217.526 S889
S0
G1 X217.653 S902
S0
G1 X217.780 S909
S0
G1 X217.907 S893
S0
G1 X218.034 S879
S0
G1 X218.161 S885
S0
G1 X218.288 S902
S0
G1 X218.415 S901
S0
G1 X218.542 S910
S0
G1 X218.669 S890
S0
G1 X218.796 S894
S0
G1 X218.923 S901
S0
G1 X219.050 S911
S0
G1 X219.177 S916
S0
G1 X219.304 S920
S0
G1 X219.431 S918
S0
G1 X219.558 S922
S0
G1 X219.685 S906
S0
G1 X219.812 S911
S0
G1 X219.939 S906
S0
G1 X220.066 S920
S0
G1 X220.193 S937
S0
G1 X220.320 S928
S0
G1 X220.447 S919
S0
G1 X220.574 S895
S0
G1 X220.701 S840
S0
G1 X220.828 S795
S0
G1 X220.955 S944
S0
G1 X221.082 S943
S0
G1 X221.209 S937
S0
G1 X221.463 S934
S0
G1 X221.590 S918
S0
G1 X221.717 S910
S0
G1 X221.844 S843
S0
G1 X221.971 S737
S0
G1 X222.098 S662
S0
G1 X222.225 S517
S0
G1 X222.352 S380
S0
G1 X222.479 S338
S0
G1 X222.606 S720
S0
G1 X222.733 S759
S0
G1 X222.860 S753
S0
G1 X222.987 S746
S0
G1 X223.114 S777
S0
G1 X223.241 S769
S0
G1 X223.368 S742
S0
G1 X223.495 S759
S0
G1 X223.622 S747
S0
G1 X223.749 S736
S0
G1 X223.876 S737
S0
G1 X224.003 S741
S0
G1 X224.257 S737
S0
G1 X224.511 S716
S0
G1 X224.765 S721
S0
G1 X224.892 S725
S0
G1 X225.019 S717
S0
G1 X225.146 S725
S0
G1 X225.273 S736
S0
G1 X225.400 S725
S0
G1 X225.527 S736
S0
G1 X225.654 S717
S0
G1 X225.908 S737
S0
G1 X226.035 S721
S0
G1 X226.289 S729
S0
G1 X226.543 S733
S0
G1 X226.924 S729
S0
G1 X227.051 S721
S0
G1 X227.178 S713
S0
G1 X227.305 S725
S0
G1 X227.432 S737
S0
G1 X227.559 S722
S0
G1 X227.686 S726
S0
G1 X227.813 S730
S0
G1 X227.940 S737
S0
G1 X228.067 S730
S0
G1 X228.194 S734
S0
G1 X228.321 S730
S0
G1 X228.448 S739
S0
G1 X228.575 S725
S0
G1 X228.702 S730
S0
G1 X228.829 S737
S0
G1 X228.956 S729
S0
G1 X229.083 S740
S0
G1 X229.210 S714
S0
G1 X229.337 S718
S0
G1 X229.464 S722
S0
G1 X229.591 S726
S0
G1 X229.718 S722
S0
G1 X229.972 S734
S0
G1 X230.226 S730
S0
G1 X230.353 S722
S0
G1 X230.734 S734
S0
G1 X230.988 S730
S0
G1 X231.115 S718
S0
G1 X231.242 S734
S0
G1 X231.369 S726
S0
G1 X231.496 S710
S0
G1 X231.623 S718
S0
G1 X231.750 S719
S0
G1 X231.877 S716
S0
G1 X232.004 S740
S0
G1 X232.131 S730
S0
G1 X232.258 S726
S0
G1 X232.512 S722
S0
G1 X232.639 S714
S0
G1 X232.766 S726
S0
G1 X232.893 S729
S0
G1 X233.020 S733
S0
G1 X233.274 S744
S0
G1 X233.401 S733
S0
G1 X233.528 S737
S0
G1 X233.655 S730
S0
G1 X233.782 S721
S0
G1 X233.909 S740
S0
G1 X234.036 S725
S0
G1 X234.163 S727
S0
G1 X234.290 S740
S0
G1 X234.544 S736
S0
G1 X234.671 S732
S0
G1 X234.798 S735
S0
G1 X234.925 S726
S0
G1 X235.052 S722
S0
G1 X235.179 S737
S0
G1 X235.306 S734
S0
G1 X235.433 S744
S0
G1 X235.560 S732
S0
G1 X235.687 S725
S0
G1 X235.941 S729
S0
G1 X236.068 S732
S0
G1 X236.195 S721
S0
G1 X236.322 S726
S0
G1 X236.449 S737
S0
G0 Y36.449
G0 X236.449 S0
G1 X236.195 S734
S0
G1 X236.068 S735
S0
G1 X235.941 S733
S0
G1 X235.687 S739
S0
G1 X235.560 S734
S0
G1 X235.433 S737
S0
G1 X235.306 S727
S0
G1 X235.179 S715
S0
G1 X235.052 S696
S0
G1 X234.925 S700
S0
G1 X234.798 S734
S0
G1 X234.671 S723
S0
G1 X234.544 S717
S0
G1 X234.417 S736
S0
G1 X234.290 S725
S0
G1 X234.163 S732
S0
G1 X234.036 S731
S0
G1 X233.782 S735
S0
G1 X233.655 S726
S0
G1 X233.528 S727
S0
G1 X233.401 S729
S0
G1 X233.274 S726
S0
G1 X233.147 S737
S0
G1 X233.020 S741
S0
G1 X232.893 S737
S0
G1 X232.766 S734
S0
G1 X232.639 S726
S0
G1 X232.512 S716
S0
G1 X232.385 S718
S0
G1 X232.258 S722
S0
G1 X232.131 S719
S0
G1 X232.004 S730
S0
G1 X231.877 S716
S0
G1 X231.750 S710
S0
G1 X231.623 S730
S0
G1 X231.496 S718
S0
G1 X231.369 S734
S0
G1 X231.242 S727
S0
G1 X231.115 S711
S0
G1 X230.988 S714
S0
G1 X230.861 S713
S0
G1 X230.734 S718
S0
G1 X230.480 S722
S0
G1 X230.353 S726
S0
G1 X230.226 S722
S0
G1 X230.099 S721
S0
G1 X229.972 S726
S0
G1 X229.845 S722
S0
G1 X229.718 S730
S0
G1 X229.591 S720
S0
G1 X229.464 S710
S0
G1 X229.337 S718
S0
G1 X229.210 S714
S0
G1 X229.083 S706
S0
G1 X228.956 S735
S0
G1 X228.829 S718
S0
G1 X228.702 S730
S0
G1 X228.575 S718
S0
G1 X228.448 S726
S0
G1 X228.321 S722
S0
G1 X228.194 S730
S0
G1 X227.940 S741
S0
G1 X227.813 S737
S0
G1 X227.686 S726
S0
G1 X227.559 S737
S0
G1 X227.432 S730
S0
G1 X227.305 S722
S0
G1 X227.178 S725
S0
G1 X227.051 S726
S0
G1 X226.924 S728
S0
G1 X226.797 S717
S0
G1 X226.670 S725
S0
G1 X226.543 S733
S0
G1 X226.162 S729
S0
G1 X226.035 S725
S0
G1 X225.908 S717
S0
G1 X225.654 S729
S0
G1 X225.527 S725
S0
G1 X225.400 S728
S0
G1 X225.273 S725
S0
G1 X225.019 S728
S0
G1 X224.892 S722
S0
G1 X224.765 S729
S0
G1 X224.638 S726
S0
G1 X224.511 S725
S0
G1 X224.384 S723
S0
G1 X224.257 S720
S0
G1 X224.130 S722
S0
G1 X224.003 S718
S0
G1 X223.749 S732
S0
G1 X223.622 S734
S0
G1 X223.495 S748
S0
G1 X223.368 S752
S0
G1 X223.241 S774
S0
G1 X223.114 S773
S0
G1 X222.987 S777
S0
G1 X222.860 S746
S0
G1 X222.733 S761
S0
G1 X222.606 S745
S0
G1 X222.479 S742
S0
G1 X222.352 S345
S0
G1 X222.225 S391
S0
G1 X222.098 S432
S0
G1 X221.971 S576
S0
G1 X221.844 S776
S0
G1 X221.717 S885
S0
G1 X221.590 S905
S0
G1 X221.463 S920
S0
G1 X221.336 S937
S0
G1 X221.209 S930
S0
G1 X221.082 S945
S0
G1 X220.955 S908
S0
G1 X220.828 S724
S0
G1 X220.701 S829
S0
G1 X220.574 S883
S0
G1 X220.447 S937
S0
G1 X220.320 S917
S0
G1 X220.193 S923
S0
G1 X220.066 S905
S0
G1 X219.939 S908
S0
G1 X219.812 S915
S0
G1 X219.685 S931
S0
G1 X219.558 S928
S0
G1 X219.431 S926
S0
G1 X219.304 S909
S0
G1 X219.177 S912
S0
G1 X219.050 S902
S0
G1 X218.923 S906
S0
G1 X218.669 S895
S0
G1 X218.542 S892
S0
G1 X218.415 S879
S0
G1 X218.288 S908
S0
G1 X218.161 S894
S0
G1 X218.034 S907
S0
G1 X217.907 S905
S0
G1 X217.780 S910
S0
G1 X217.653 S903
S0
G1 X217.526 S886
S0
G1 X217.399 S895
S0
G1 X217.272 S914
S0
G1 X217.145 S905
S0
G1 X217.018 S916
S0
G1 X216.891 S917
S0
G1 X216.764 S899
S0
G1 X216.637 S901
S0
G1 X216.510 S888
S0
G1 X216.383 S891
S0
G1 X216.256 S842
S0
G1 X216.002 S882
S0
G1 X215.875 S866
S0
G1 X215.748 S853
S0
G1 X215.621 S816
S0
G1 X215.494 S781
S0
G1 X215.367 S809
S0
G1 X215.240 S783
S0
G1 X215.113 S776
S0
G1 X214.986 S778
S0
G1 X214.859 S761
S0
G1 X214.732 S773
S0
G1 X214.605 S745
S0
G1 X214.478 S829
S0
G1 X214.351 S762
S0
G1 X214.224 S728
S0
G1 X214.097 S733
S0
G1 X213.970 S725
S0
G1 X213.843 S729
S0
G1 X213.716 S748
S0
G1 X213.589 S722
S0
G1 X213.462 S687
S0
G1 X213.335 S712
S0
G1 X213.208 S705
S0
G1 X213.081 S682
S0
G1 X212.954 S667
S0
G1 X212.827 S637
S0
G1 X212.700 S692
S0
G1 X212.573 S695
S0
G1 X212.446 S653
S0
G1 X212.319 S628
S0
G1 X212.192 S616
S0
G1 X212.065 S622
S0
G1 X211.938 S604
S0
G1 X211.811 S598
S0
G1 X211.684 S591
S0
G1 X211.557 S577
S0
G1 X211.430 S554
S0
G1 X211.303 S567
S0
G1 X211.176 S603
S0
G1 X211.049 S571
S0
G1 X210.922 S592
S0
G1 X210.795 S556
S0
G1 X210.668 S595
S0
G1 X210.541 S599
S0
G1 X210.414 S592
S0
G1 X210.287 S595
S0
G1 X210.160 S607
S0
G1 X210.033 S612
S0
G1 X209.906 S625
S0
G1 X209.779 S598
S0
G1 X209.652 S616
S0
G1 X209.525 S602
S0
G1 X209.398 S805
S0
G1 X209.271 S973
S0
G1 X209.144 S951
S0
G1 X209.017 S601
S0
G1 X208.890 S196
S0
G1 X208.763 S160
S0
G1 X208.636 S549
S0
G1 X208.509 S701
S0
G1 X208.382 S722
S0
G1 X208.255 S712
S0
G1 X208.128 S736
S0
G1 X208.001 S740
S0
G1 X207.874 S736
S0
G1 X207.747 S808
S0
G1 X207.620 S987
S0
G1 X207.493 S744
S0
G1 X207.366 S440
S0
G1 X207.239 S353
S0
G1 X207.112 S207
S0
G1 X206.985 S212
S0
G1 X206.858 S274
S0
G1 X206.731 S617
S0
G1 X206.604 S913
S0
G1 X206.477 S896
S0
G1 X206.223 S903
S0
G1 X205.969 S907
S0
G1 X205.842 S883
S0
G1 X205.715 S744
S0
G1 X205.588 S829
S0
G1 X205.461 S847
S0
G1 X205.334 S873
S0
G1 X205.207 S742
S0
G1 X205.080 S676
S0
G1 X204.953 S671
S0
G1 X204.826 S653
S0
G1 X204.699 S652
S0
G1 X204.572 S646
S0
G1 X204.445 S643
S0
G1 X204.318 S650
S0
G1 X204.191 S642
S0
G1 X204.064 S638
S0
G1 X203.937 S637
S0
G1 X203.810 S646
S0
G1 X203.683 S626
S0
G1 X203.556 S638
S0
G1 X203.429 S646
S0
G1 X203.302 S640
S0
G1 X203.048 S645
S0
G1 X202.921 S653
S0
G1 X202.794 S637
S0
G1 X202.667 S630
S0
G1 X202.540 S641
S0
G1 X202.286 S637
S0
G1 X202.159 S646
S0
G1 X202.032 S673
S0
G1 X201.905 S671
S0
G1 X201.778 S674
S0
G1 X201.651 S669
S0
G1 X201.397 S683
S0
G1 X201.270 S675
S0
G1 X201.143 S671
S0
G1 X201.016 S675
S0
G1 X200.889 S679
S0
G1 X200.762 S678
S0
G1 X200.635 S669
S0
G1 X200.508 S667
S0
G1 X200.381 S663
S0
G1 X200.254 S671
S0
G1 X200.127 S675
S0
G1 X200.000 S677
S0
G0 Y36.322
G0 X200.000 S0
G1 X200.254 S674
S0
G1 X200.381 S677
S0
G1 X200.508 S678
S0
G1 X200.635 S687
S0
G1 X200.762 S671
S0
G1 X200.889 S673
S0
G1 X201.016 S675
S0
G1 X201.143 S679
S0
G1 X201.270 S667
S0
G1 X201.397 S683
S0
G1 X201.524 S671
S0
G1 X201.651 S659
S0
G1 X201.778 S653
S0
G1 X201.905 S654
S0
G1 X202.159 S662
S0
G1 X202.286 S654
S0
G1 X202.413 S638
S0
G1 X202.540 S642
S0
G1 X202.667 S634
S0
G1 X202.794 S630
S0
G1 X202.921 S639
S0
G1 X203.048 S631
S0
G1 X203.175 S642
S0
G1 X203.302 S646
S0
G1 X203.429 S649
S0
G1 X203.556 S655
S0
G1 X203.683 S651
S0
G1 X203.937 S643
S0
G1 X204.064 S628
S0
G1 X204.318 S642
S0
G1 X204.572 S650
S0
G1 X204.699 S647
S0
G1 X204.826 S666
S0
G1 X204.953 S688
S0
G1 X205.080 S650
S0
G1 X205.207 S667
S0
G1 X205.334 S812
S0
G1 X205.461 S866
S0
G1 X205.588 S749
S0
G1 X205.715 S764
S0
G1 X205.842 S793
S0
G1 X205.969 S876
S0
G1 X206.096 S911
S0
G1 X206.223 S895
S0
G1 X206.350 S907
S0
G1 X206.477 S901
S0
G1 X206.604 S902
S0
G1 X206.731 S901
S0
G1 X206.858 S365
S0
G1 X206.985 S256
S0
G1 X207.112 S202
S0
G1 X207.239 S297
S0
G1 X207.366 S356
S0
G1 X207.493 S512
S0
G1 X207.620 S942
S0
G1 X207.747 S941
S0
G1 X207.874 S775
S0
G1 X208.001 S768
S0
G1 X208.128 S714
S0
G1 X208.255 S710
S0
G1 X208.382 S683
S0
G1 X208.509 S698
S0
G1 X208.636 S576
S0
G1 X208.763 S480
S0
G1 X208.890 S523
S0
G1 X209.017 S301
S0
G1 X209.144 S406
S0
G1 X209.271 S946
S0
G1 X209.398 S966
S0
G1 X209.525 S829
S0
G1 X209.652 S578
S0
G1 X209.779 S592
S0
G1 X209.906 S571
S0
G1 X210.033 S601
S0
G1 X210.160 S602
S0
G1 X210.287 S620
S0
G1 X210.414 S635
S0
G1 X210.541 S588
S0
G1 X210.668 S610
S0
G1 X210.795 S551
S0
G1 X210.922 S556
S0
G1 X211.049 S646
S0
G1 X211.176 S541
S0
G1 X211.303 S547
S0
G1 X211.430 S539
S0
G1 X211.557 S541
S0
G1 X211.684 S597
S0
G1 X211.811 S583
S0
G1 X211.938 S602
S0
G1 X212.065 S600
S0
G1 X212.192 S584
S0
G1 X212.319 S615
S0
G1 X212.446 S655
S0
G1 X212.573 S603
S0
G1 X212.700 S653
S0
G1 X212.827 S714
S0
G1 X212.954 S687
S0
G1 X213.081 S675
S0
G1 X213.208 S667
S0
G1 X213.335 S706
S0
G1 X213.462 S688
S0
G1 X213.589 S680
S0
G1 X213.716 S732
S0
G1 X213.970 S759
S0
G1 X214.097 S763
S0
G1 X214.224 S773
S0
G1 X214.351 S777
S0
G1 X214.478 S760
S0
G1 X214.605 S761
S0
G1 X214.732 S774
S0
G1 X214.859 S771
S0
G1 X214.986 S792
S0
G1 X215.113 S780
S0
G1 X215.240 S756
S0
G1 X215.367 S774
S0
G1 X215.494 S796
S0
G1 X215.621 S779
S0
G1 X215.748 S792
S0
G1 X215.875 S797
S0
G1 X216.002 S828
S0
G1 X216.129 S854
S0
G1 X216.256 S896
S0
G1 X216.383 S873
S0
G1 X216.510 S900
S0
G1 X216.637 S899
S0
G1 X216.764 S884
S0
G1 X216.891 S918
S0
G1 X217.018 S907
S0
G1 X217.145 S921
S0
G1 X217.272 S933
S0
G1 X217.399 S922
S0
G1 X217.526 S904
S0
G1 X217.653 S886
S0
G1 X217.780 S895
S0
G1 X217.907 S904
S0
G1 X218.034 S910
S0
G1 X218.161 S913
S0
G1 X218.288 S903
S0
G1 X218.415 S900
S0
G1 X218.542 S897
S0
G1 X218.669 S895
S0
G1 X218.796 S899
S0
G1 X218.923 S894
S0
G1 X219.050 S901
S0
G1 X219.304 S906
S0
G1 X219.431 S919
S0
G1 X219.558 S923
S0
G1 X219.812 S929
S0
G1 X219.939 S934
S0
G1 X220.066 S931
S0
G1 X220.193 S919
S0
G1 X220.320 S915
S0
G1 X220.447 S900
S0
G1 X220.574 S922
S0
G1 X220.701 S929
S0
G1 X220.828 S854
S0
G1 X220.955 S815
S0
G1 X221.082 S713
S0
G1 X221.209 S863
S0
G1 X221.336 S936
S0
G1 X221.463 S912
S0
G1 X221.590 S925
S0
G1 X221.717 S918
S0
G1 X221.844 S917
S0
G1 X221.971 S819
S0
G1 X222.098 S664
S0
G1 X222.225 S512
S0
G1 X222.352 S403
S0
G1 X222.479 S347
S0
G1 X222.606 S617
S0
G1 X222.733 S749
S0
G1 X222.860 S757
S0
G1 X222.987 S761
S0
G1 X223.241 S769
S0
G1 X223.368 S773
S0
G1 X223.495 S759
S0
G1 X223.622 S748
S0
G1 X223.749 S734
S0
G1 X223.876 S732
S0
G1 X224.003 S716
S0
G1 X224.130 S724
S0
G1 X224.257 S728
S0
G1 X224.384 S724
S0
G1 X224.511 S728
S0
G1 X224.638 S721
S0
G1 X224.765 S725
S0
G1 X224.892 S717
S0
G1 X225.146 S725
S0
G1 X225.400 S728
S0
G1 X225.527 S713
S0
G1 X225.654 S721
S0
G1 X225.908 S725
S0
G1 X226.035 S733
S0
G1 X226.162 S729
S0
G1 X226.543 S725
S0
G1 X226.670 S729
S0
G1 X226.797 S718
S0
G1 X226.924 S728
S0
G1 X227.051 S730
S0
G1 X227.178 S737
S0
G1 X227.305 S730
S0
G1 X227.559 S734
S0
G1 X227.686 S730
S0
G1 X227.813 S741
S0
G1 X228.067 S730
S0
G1 X228.194 S734
S0
G1 X228.321 S726
S0
G1 X228.448 S734
S0
G1 X228.575 S730
S0
G1 X228.702 S726
S0
G1 X228.829 S714
S0
G1 X228.956 S702
S0
G1 X229.083 S726
S0
G1 X229.210 S722
S0
G1 X229.337 S726
S0
G1 X229.464 S706
S0
G1 X229.591 S718
S0
G1 X229.718 S705
S0
G1 X229.845 S704
S0
G1 X229.972 S718
S0
G1 X230.226 S730
S0
G1 X230.353 S722
S0
G1 X230.734 S718
S0
G1 X230.861 S727
S0
G1 X230.988 S725
S0
G1 X231.242 S709
S0
G1 X231.369 S703
S0
G1 X231.496 S716
S0
G1 X231.623 S712
S0
G1 X231.750 S734
S0
G1 X231.877 S718
S0
G1 X232.131 S712
S0
G1 X232.258 S717
S0
G1 X232.512 S714
S0
G1 X232.639 S710
S0
G1 X232.766 S737
S0
G1 X232.893 S722
S0
G1 X233.020 S730
S0
G1 X233.147 S714
S0
G1 X233.401 S722
S0
G1 X233.528 S726
S0
G1 X233.782 S730
S0
G1 X233.909 S726
S0
G1 X234.163 S737
S0
G1 X234.290 S734
S0
G1 X234.544 S732
S0
G1 X234.671 S721
S0
G1 X234.798 S727
S0
G1 X234.925 S710
S0
G1 X235.052 S714
S0
G1 X235.179 S704
S0
G1 X235.306 S717
S0
G1 X235.433 S720
S0
G1 X235.560 S743
S0
G1 X235.687 S741
S0
G1 X235.814 S734
S0
G1 X235.941 S737
S0
G1 X236.068 S730
S0
G1 X236.195 S734
S0
G1 X236.322 S730
S0
G1 X236.449 S737
S0
G0 Y36.195
G0 X236.449 S0
G1 X236.322 S730
S0
G1 X236.068 S737
S0
G1 X235.941 S741
S0
G1 X235.814 S734
S0
G1 X235.687 S749
S0
G1 X235.560 S741
S0
G1 X235.433 S743
S0
G1 X235.306 S720
S0
G1 X235.052 S716
S0
G1 X234.798 S728
S0
G1 X234.671 S737
S0
G1 X234.544 S740
S0
G1 X234.417 S721
S0
G1 X234.290 S725
S0
G1 X234.163 S741
S0
G1 X233.782 S726
S0
G1 X233.655 S722
S0
G1 X233.528 S734
S0
G1 X233.401 S726
S0
G1 X233.274 S718
S0
G1 X233.147 S722
S0
G1 X233.020 S726
S0
G1 X232.766 S714
S0
G1 X232.512 S726
S0
G1 X232.258 S718
S0
G1 X232.131 S714
S0
G1 X231.877 S716
S0
G1 X231.750 S726
S0
G1 X231.623 S718
S0
G1 X231.496 S720
S0
G1 X231.369 S716
S0
G1 X231.242 S692
S0
G1 X231.115 S693
S0
G1 X230.988 S705
S0
G1 X230.861 S709
S0
G1 X230.734 S717
S0
G1 X230.480 S714
S0
G1 X230.353 S718
S0
G1 X230.226 S714
S0
G1 X230.099 S722
S0
G1 X229.972 S705
S0
G1 X229.718 S708
S0
G1 X229.591 S704
S0
G1 X229.464 S718
S0
G1 X229.337 S702
S0
G1 X229.210 S718
S0
G1 X229.083 S714
S0
G1 X228.956 S722
S0
G1 X228.829 S710
S0
G1 X228.575 S730
S0
G1 X228.321 S734
S0
G1 X228.194 S726
S0
G1 X228.067 S737
S0
G1 X227.940 S726
S0
G1 X227.813 S718
S0
G1 X227.686 S730
S0
G1 X227.559 S726
S0
G1 X227.432 S730
S0
G1 X227.305 S722
S0
G1 X227.051 S730
S0
G1 X226.924 S736
S0
G1 X226.797 S717
S0
G1 X226.670 S733
S0
G1 X226.543 S737
S0
G1 X226.416 S725
S0
G1 X226.289 S729
S0
G1 X226.162 S721
S0
G1 X226.035 S717
S0
G1 X225.781 S725
S0
G1 X225.654 S728
S0
G1 X225.400 S721
S0
G1 X225.273 S725
S0
G1 X225.146 S721
S0
G1 X225.019 S732
S0
G1 X224.892 S709
S0
G1 X224.765 S721
S0
G1 X224.638 S733
S0
G1 X224.511 S719
S0
G1 X224.257 S720
S0
G1 X224.130 S731
S0
G1 X224.003 S728
S0
G1 X223.876 S720
S0
G1 X223.749 S732
S0
G1 X223.622 S730
S0
G1 X223.495 S744
S0
G1 X223.368 S762
S0
G1 X223.114 S777
S0
G1 X222.987 S769
S0
G1 X222.860 S761
S0
G1 X222.733 S751
S0
G1 X222.606 S724
S0
G1 X222.479 S597
S0
G1 X222.352 S386
S0
G1 X222.225 S339
S0
G1 X222.098 S538
S0
G1 X221.971 S734
S0
G1 X221.844 S883
S0
G1 X221.717 S900
S0
G1 X221.590 S927
S0
G1 X221.463 S909
S0
G1 X221.336 S932
S0
G1 X221.209 S816
S0
G1 X221.082 S738
S0
G1 X220.955 S833
S0
G1 X220.828 S857
S0
G1 X220.701 S925
S0
G1 X220.574 S902
S0
G1 X220.447 S870
S0
G1 X220.320 S914
S0
G1 X220.193 S931
S0
G1 X220.066 S933
S0
G1 X219.939 S930
S0
G1 X219.812 S937
S0
G1 X219.558 S925
S0
G1 X219.431 S888
S0
G1 X219.304 S885
S0
G1 X219.177 S898
S0
G1 X219.050 S890
S0
G1 X218.796 S888
S0
G1 X218.669 S903
S0
G1 X218.542 S902
S0
G1 X218.415 S925
S0
G1 X218.288 S936
S0
G1 X218.161 S919
S0
G1 X218.034 S927
S0
G1 X217.907 S910
S0
G1 X217.780 S904
S0
G1 X217.653 S899
S0
G1 X217.526 S909
S0
G1 X217.399 S919
S0
G1 X217.272 S930
S0
G1 X217.145 S914
S0
G1 X217.018 S902
S0
G1 X216.891 S906
S0
G1 X216.764 S901
S0
G1 X216.637 S897
S0
G1 X216.510 S913
S0
G1 X216.383 S901
S0
G1 X216.256 S886
S0
G1 X216.129 S841
S0
G1 X216.002 S843
S0
G1 X215.875 S802
S0
G1 X215.748 S856
S0
G1 X215.621 S795
S0
G1 X215.494 S789
S0
G1 X215.367 S797
S0
G1 X215.240 S806
S0
G1 X215.113 S789
S0
G1 X214.986 S785
S0
G1 X214.859 S764
S0
G1 X214.732 S772
S0
G1 X214.605 S756
S0
G1 X214.478 S770
S0
G1 X214.351 S741
S0
G1 X214.224 S730
S0
G1 X214.097 S827
S0
G1 X213.970 S762
S0
G1 X213.843 S688
S0
G1 X213.716 S703
S0
G1 X213.589 S693
S0
G1 X213.462 S759
S0
G1 X213.335 S782
S0
G1 X213.208 S655
S0
G1 X213.081 S662
S0
G1 X212.954 S651
S0
G1 X212.827 S693
S0
G1 X212.700 S677
S0
G1 X212.573 S643
S0
G1 X212.446 S602
S0
G1 X212.319 S636
S0
G1 X212.192 S669
S0
G1 X212.065 S604
S0
G1 X211.938 S588
S0
G1 X211.811 S611
S0
G1 X211.684 S568
S0
G1 X211.557 S560
S0
G1 X211.430 S549
S0
G1 X211.303 S576
S0
G1 X211.176 S572
S0
G1 X211.049 S545
S0
G1 X210.922 S540
S0
G1 X210.795 S548
S0
G1 X210.668 S584
S0
G1 X210.541 S581
S0
G1 X210.414 S611
S0
G1 X210.287 S585
S0
G1 X210.160 S577
S0
G1 X210.033 S567
S0
G1 X209.906 S589
S0
G1 X209.779 S625
S0
G1 X209.652 S588
S0
G1 X209.525 S604
S0
G1 X209.398 S731
S0
G1 X209.271 S956
S0
G1 X209.144 S957
S0
G1 X209.017 S922
S0
G1 X208.890 S674
S0
G1 X208.763 S530
S0
G1 X208.636 S255
S0
G1 X208.509 S489
S0
G1 X208.382 S682
S0
G1 X208.255 S691
S0
G1 X208.128 S735
S0
G1 X208.001 S784
S0
G1 X207.874 S785
S0
G1 X207.747 S738
S0
G1 X207.620 S887
S0
G1 X207.493 S982
S0
G1 X207.366 S580
S0
G1 X207.239 S410
S0
G1 X207.112 S349
S0
G1 X206.985 S226
S0
G1 X206.858 S254
S0
G1 X206.731 S340
S0
G1 X206.604 S853
S0
G1 X206.477 S909
S0
G1 X206.350 S893
S0
G1 X206.223 S897
S0
G1 X206.096 S903
S0
G1 X205.969 S896
S0
G1 X205.842 S879
S0
G1 X205.715 S853
S0
G1 X205.588 S645
S0
G1 X205.461 S760
S0
G1 X205.334 S832
S0
G1 X205.207 S866
S0
G1 X205.080 S692
S0
G1 X204.953 S713
S0
G1 X204.826 S694
S0
G1 X204.699 S661
S0
G1 X204.572 S650
S0
G1 X204.445 S665
S0
G1 X204.318 S650
S0
G1 X204.191 S646
S0
G1 X204.064 S650
S0
G1 X203.937 S647
S0
G1 X203.810 S646
S0
G1 X203.683 S654
S0
G1 X203.556 S646
S0
G1 X203.429 S654
S0
G1 X203.302 S659
S0
G1 X203.175 S638
S0
G1 X203.048 S630
S0
G1 X202.921 S639
S0
G1 X202.794 S635
S0
G1 X202.540 S650
S0
G1 X202.286 S654
S0
G1 X202.159 S658
S0
G1 X202.032 S677
S0
G1 X201.905 S658
S0
G1 X201.778 S654
S0
G1 X201.651 S653
S0
G1 X201.524 S663
S0
G1 X201.397 S659
S0
G1 X201.270 S671
S0
G1 X201.143 S675
S0
G1 X201.016 S663
S0
G1 X200.889 S667
S0
G1 X200.762 S669
S0
G1 X200.635 S673
S0
G1 X200.508 S677
S0
G1 X200.381 S683
S0
G1 X200.254 S681
S0
G1 X200.127 S677
S0
G1 X200.000 S674
S0
G0 Y36.068
G0 X200.000 S0
G1 X200.127 S681
S0
G1 X200.254 S669
S0
G1 X200.381 S673
S0
G1 X200.508 S662
S0
G1 X200.635 S670
S0
G1 X200.762 S669
S0
G1 X200.889 S663
S0
G1 X201.016 S675
S0
G1 X201.143 S671
S0
G1 X201.270 S675
S0
G1 X201.651 S667
S0
G1 X201.778 S660
S0
G1 X201.905 S666
S0
G1 X202.032 S662
S0
G1 X202.413 S654
S0
G1 X202.540 S658
S0
G1 X202.667 S642
S0
G1 X202.794 S654
S0
G1 X202.921 S651
S0
G1 X203.048 S655
S0
G1 X203.175 S630
S0
G1 X203.302 S646
S0
G1 X203.429 S647
S0
G1 X203.556 S651
S0
G1 X203.683 S646
S0
G1 X203.810 S654
S0
G1 X203.937 S650
S0
G1 X204.064 S649
S0
G1 X204.191 S642
S0
G1 X204.318 S650
S0
G1 X204.445 S666
S0
G1 X204.699 S650
S0
G1 X204.826 S675
S0
G1 X204.953 S661
S0
G1 X205.080 S703
S0
G1 X205.207 S731
S0
G1 X205.334 S890
S0
G1 X205.461 S768
S0
G1 X205.588 S752
S0
G1 X205.715 S765
S0
G1 X205.842 S868
S0
G1 X205.969 S894
S0
G1 X206.096 S902
S0
G1 X206.223 S899
S0
G1 X206.350 S893
S0
G1 X206.477 S900
S0
G1 X206.604 S911
S0
G1 X206.731 S494
S0
G1 X206.858 S289
S0
G1 X206.985 S255
S0
G1 X207.112 S285
S0
G1 X207.239 S349
S0
G1 X207.366 S502
S0
G1 X207.493 S909
S0
G1 X207.620 S974
S0
G1 X207.747 S788
S0
G1 X207.874 S728
S0
G1 X208.001 S733
S0
G1 X208.128 S708
S0
G1 X208.255 S727
S0
G1 X208.382 S670
S0
G1 X208.509 S620
S0
G1 X208.636 S600
S0
G1 X208.763 S653
S0
G1 X208.890 S692
S0
G1 X209.017 S717
S0
G1 X209.144 S881
S0
G1 X209.271 S964
S0
G1 X209.398 S919
S0
G1 X209.525 S630
S0
G1 X209.652 S592
S0
G1 X209.779 S575
S0
G1 X209.906 S596
S0
G1 X210.033 S612
S0
G1 X210.160 S544
S0
G1 X210.287 S581
S0
G1 X210.414 S571
S0
G1 X210.541 S553
S0
G1 X210.668 S569
S0
G1 X210.795 S558
S0
G1 X210.922 S599
S0
G1 X211.049 S569
S0
G1 X211.303 S549
S0
G1 X211.430 S601
S0
G1 X211.557 S553
S0
G1 X211.684 S563
S0
G1 X211.811 S582
S0
G1 X211.938 S594
S0
G1 X212.065 S604
S0
G1 X212.192 S683
S0
G1 X212.319 S598
S0
G1 X212.446 S647
S0
G1 X212.573 S655
S0
G1 X212.700 S704
S0
G1 X212.827 S727
S0
G1 X212.954 S651
S0
G1 X213.081 S675
S0
G1 X213.208 S668
S0
G1 X213.335 S687
S0
G1 X213.462 S755
S0
G1 X213.589 S693
S0
G1 X213.716 S695
S0
G1 X213.843 S728
S0
G1 X213.970 S694
S0
G1 X214.097 S721
S0
G1 X214.224 S755
S0
G1 X214.351 S739
S0
G1 X214.478 S749
S0
G1 X214.605 S751
S0
G1 X214.732 S796
S0
G1 X214.859 S814
S0
G1 X214.986 S816
S0
G1 X215.113 S779
S0
G1 X215.240 S804
S0
G1 X215.367 S806
S0
G1 X215.494 S760
S0
G1 X215.621 S803
S0
G1 X215.748 S818
S0
G1 X215.875 S838
S0
G1 X216.002 S831
S0
G1 X216.129 S828
S0
G1 X216.256 S826
S0
G1 X216.383 S831
S0
G1 X216.510 S878
S0
G1 X216.764 S912
S0
G1 X216.891 S922
S0
G1 X217.018 S925
S0
G1 X217.399 S913
S0
G1 X217.526 S921
S0
G1 X217.653 S913
S0
G1 X217.780 S897
S0
G1 X217.907 S875
S0
G1 X218.034 S898
S0
G1 X218.161 S920
S0
G1 X218.288 S924
S0
G1 X218.415 S928
S0
G1 X218.542 S930
S0
G1 X218.796 S916
S0
G1 X218.923 S909
S0
G1 X219.050 S912
S0
G1 X219.177 S888
S0
G1 X219.304 S879
S0
G1 X219.431 S865
S0
G1 X219.558 S883
S0
G1 X219.685 S890
S0
G1 X219.812 S902
S0
G1 X219.939 S920
S0
G1 X220.066 S945
S0
G1 X220.193 S920
S0
G1 X220.320 S913
S0
G1 X220.447 S900
S0
G1 X220.574 S915
S0
G1 X220.701 S890
S0
G1 X220.828 S886
S0
G1 X220.955 S928
S0
G1 X221.082 S905
S0
G1 X221.209 S859
S0
G1 X221.336 S791
S0
G1 X221.463 S716
S0
G1 X221.590 S928
S0
G1 X221.844 S906
S0
G1 X221.971 S854
S0
G1 X222.098 S828
S0
G1 X222.225 S639
S0
G1 X222.352 S384
S0
G1 X222.479 S393
S0
G1 X222.606 S395
S0
G1 X222.733 S733
S0
G1 X222.860 S756
S0
G1 X222.987 S754
S0
G1 X223.241 S769
S0
G1 X223.368 S763
S0
G1 X223.495 S756
S0
G1 X223.622 S736
S0
G1 X223.749 S718
S0
G1 X223.876 S724
S0
G1 X224.003 S722
S0
G1 X224.384 S718
S0
G1 X224.511 S723
S0
G1 X224.638 S717
S0
G1 X224.765 S728
S0
G1 X225.019 S717
S0
G1 X225.146 S728
S0
G1 X225.273 S732
S0
G1 X225.400 S725
S0
G1 X225.654 S721
S0
G1 X225.908 S725
S0
G1 X226.035 S713
S0
G1 X226.162 S721
S0
G1 X226.416 S729
S0
G1 X226.543 S725
S0
G1 X226.797 S733
S0
G1 X226.924 S721
S0
G1 X227.178 S734
S0
G1 X227.686 S730
S0
G1 X227.813 S726
S0
G1 X227.940 S741
S0
G1 X228.067 S734
S0
G1 X228.194 S714
S0
G1 X228.321 S734
S0
G1 X228.448 S730
S0
G1 X228.575 S726
S0
G1 X228.702 S734
S0
G1 X228.829 S726
S0
G1 X228.956 S714
S0
G1 X229.083 S730
S0
G1 X229.210 S718
S0
G1 X229.337 S714
S0
G1 X229.591 S710
S0
G1 X229.845 S689
S0
G1 X229.972 S712
S0
G1 X230.099 S708
S0
G1 X230.226 S720
S0
G1 X230.353 S713
S0
G1 X230.480 S709
S0
G1 X230.607 S721
S0
G1 X230.734 S701
S0
G1 X230.861 S709
S0
G1 X230.988 S717
S0
G1 X231.115 S698
S0
G1 X231.242 S701
S0
G1 X231.369 S722
S0
G1 X231.496 S708
S0
G1 X231.623 S713
S0
G1 X231.750 S730
S0
G1 X231.877 S728
S0
G1 X232.131 S712
S0
G1 X232.258 S714
S0
G1 X232.385 S710
S0
G1 X232.512 S718
S0
G1 X232.639 S722
S0
G1 X232.766 S726
S0
G1 X232.893 S718
S0
G1 X233.020 S722
S0
G1 X233.147 S726
S0
G1 X233.274 S718
S0
G1 X233.528 S722
S0
G1 X233.909 S730
S0
G1 X234.036 S722
S0
G1 X234.163 S730
S0
G1 X234.290 S737
S0
G1 X234.544 S743
S0
G1 X234.671 S739
S0
G1 X234.798 S721
S0
G1 X235.052 S720
S0
G1 X235.179 S736
S0
G1 X235.306 S717
S0
G1 X235.433 S713
S0
G1 X235.560 S722
S0
G1 X235.687 S745
S0
G1 X235.814 S737
S0
G1 X235.941 S714
S0
G1 X236.068 S737
S0
G1 X236.195 S749
S0
G1 X236.322 S726
S0
G1 X236.449 S741
S0
G0 Y35.941
G0 X236.449 S0
G1 X236.322 S737
S0
G1 X236.068 S745
S0
G1 X235.941 S744
S0
G1 X235.814 S747
S0
G1 X235.687 S761
S0
G1 X235.560 S702
S0
G1 X235.433 S722
S0
G1 X235.306 S719
S0
G1 X235.179 S745
S0
G1 X235.052 S705
S0
G1 X234.925 S724
S0
G1 X234.798 S693
S0
G1 X234.671 S712
S0
G1 X234.544 S732
S0
G1 X234.417 S743
S0
G1 X234.290 S739
S0
G1 X234.163 S735
S0
G1 X234.036 S734
S0
G1 X233.909 S737
S0
G1 X233.782 S729
S0
G1 X233.655 S741
S0
G1 X233.528 S722
S0
G1 X233.401 S724
S0
G1 X233.274 S722
S0
G1 X233.147 S714
S0
G1 X233.020 S718
S0
G1 X232.893 S722
S0
G1 X232.512 S726
S0
G1 X232.385 S718
S0
G1 X232.258 S714
S0
G1 X232.131 S706
S0
G1 X232.004 S712
S0
G1 X231.877 S704
S0
G1 X231.750 S714
S0
G1 X231.623 S722
S0
G1 X231.496 S712
S0
G1 X231.369 S708
S0
G1 X231.242 S706
S0
G1 X231.115 S698
S0
G1 X230.988 S701
S0
G1 X230.861 S721
S0
G1 X230.734 S718
S0
G1 X230.607 S713
S0
G1 X230.480 S717
S0
G1 X230.353 S712
S0
G1 X230.226 S713
S0
G1 X230.099 S710
S0
G1 X229.972 S696
S0
G1 X229.845 S705
S0
G1 X229.718 S713
S0
G1 X229.591 S662
S0
G1 X229.464 S708
S0
G1 X229.337 S718
S0
G1 X229.210 S688
S0
G1 X229.083 S718
S0
G1 X228.956 S722
S0
G1 X228.829 S717
S0
G1 X228.575 S718
S0
G1 X228.448 S731
S0
G1 X228.321 S726
S0
G1 X228.194 S722
S0
G1 X228.067 S718
S0
G1 X227.940 S730
S0
G1 X227.813 S722
S0
G1 X227.686 S737
S0
G1 X227.559 S726
S0
G1 X227.305 S730
S0
G1 X227.178 S726
S0
G1 X226.924 S734
S0
G1 X226.797 S721
S0
G1 X226.670 S733
S0
G1 X226.543 S725
S0
G1 X226.289 S729
S0
G1 X226.162 S725
S0
G1 X226.035 S713
S0
G1 X225.908 S717
S0
G1 X225.781 S721
S0
G1 X225.654 S728
S0
G1 X225.527 S725
S0
G1 X225.400 S709
S0
G1 X225.019 S725
S0
G1 X224.892 S728
S0
G1 X224.765 S721
S0
G1 X224.638 S717
S0
G1 X224.511 S725
S0
G1 X224.384 S730
S0
G1 X224.257 S726
S0
G1 X224.003 S722
S0
G1 X223.876 S726
S0
G1 X223.749 S724
S0
G1 X223.622 S730
S0
G1 X223.495 S752
S0
G1 X223.368 S760
S0
G1 X223.241 S759
S0
G1 X223.114 S746
S0
G1 X222.860 S757
S0
G1 X222.733 S747
S0
G1 X222.606 S686
S0
G1 X222.479 S387
S0
G1 X222.352 S339
S0
G1 X222.225 S537
S0
G1 X222.098 S739
S0
G1 X221.971 S803
S0
G1 X221.844 S850
S0
G1 X221.717 S898
S0
G1 X221.590 S936
S0
G1 X221.463 S709
S0
G1 X221.336 S743
S0
G1 X221.209 S879
S0
G1 X221.082 S889
S0
G1 X220.955 S940
S0
G1 X220.828 S907
S0
G1 X220.701 S898
S0
G1 X220.574 S908
S0
G1 X220.447 S920
S0
G1 X220.320 S933
S0
G1 X220.193 S934
S0
G1 X220.066 S932
S0
G1 X219.939 S914
S0
G1 X219.812 S875
S0
G1 X219.685 S901
S0
G1 X219.558 S882
S0
G1 X219.431 S866
S0
G1 X219.304 S883
S0
G1 X219.050 S918
S0
G1 X218.923 S920
S0
G1 X218.669 S917
S0
G1 X218.542 S935
S0
G1 X218.415 S938
S0
G1 X218.288 S924
S0
G1 X218.161 S919
S0
G1 X218.034 S917
S0
G1 X217.907 S897
S0
G1 X217.780 S912
S0
G1 X217.653 S920
S0
G1 X217.526 S919
S0
G1 X217.399 S925
S0
G1 X217.272 S928
S0
G1 X217.145 S926
S0
G1 X217.018 S937
S0
G1 X216.891 S926
S0
G1 X216.764 S915
S0
G1 X216.637 S910
S0
G1 X216.510 S889
S0
G1 X216.383 S843
S0
G1 X216.256 S880
S0
G1 X216.129 S895
S0
G1 X216.002 S843
S0
G1 X215.875 S816
S0
G1 X215.748 S827
S0
G1 X215.621 S819
S0
G1 X215.494 S777
S0
G1 X215.367 S815
S0
G1 X215.240 S779
S0
G1 X215.113 S792
S0
G1 X214.986 S816
S0
G1 X214.859 S786
S0
G1 X214.732 S765
S0
G1 X214.605 S749
S0
G1 X214.478 S863
S0
G1 X214.351 S778
S0
G1 X214.097 S767
S0
G1 X213.970 S729
S0
G1 X213.843 S750
S0
G1 X213.716 S748
S0
G1 X213.589 S668
S0
G1 X213.462 S664
S0
G1 X213.335 S773
S0
G1 X213.208 S709
S0
G1 X213.081 S667
S0
G1 X212.954 S700
S0
G1 X212.827 S645
S0
G1 X212.700 S659
S0
G1 X212.573 S658
S0
G1 X212.446 S645
S0
G1 X212.319 S669
S0
G1 X212.192 S633
S0
G1 X211.938 S643
S0
G1 X211.811 S619
S0
G1 X211.684 S573
S0
G1 X211.557 S566
S0
G1 X211.430 S565
S0
G1 X211.303 S582
S0
G1 X211.176 S531
S0
G1 X211.049 S558
S0
G1 X210.922 S600
S0
G1 X210.795 S580
S0
G1 X210.668 S564
S0
G1 X210.541 S600
S0
G1 X210.414 S610
S0
G1 X210.287 S594
S0
G1 X210.160 S591
S0
G1 X210.033 S607
S0
G1 X209.906 S602
S0
G1 X209.779 S583
S0
G1 X209.652 S569
S0
G1 X209.525 S602
S0
G1 X209.398 S600
S0
G1 X209.271 S923
S0
G1 X209.144 S958
S0
G1 X209.017 S957
S0
G1 X208.890 S804
S0
G1 X208.763 S611
S0
G1 X208.636 S756
S0
G1 X208.509 S804
S0
G1 X208.382 S754
S0
G1 X208.255 S655
S0
G1 X208.128 S735
S0
G1 X208.001 S718
S0
G1 X207.874 S722
S0
G1 X207.747 S774
S0
G1 X207.620 S736
S0
G1 X207.493 S912
S0
G1 X207.366 S962
S0
G1 X207.239 S580
S0
G1 X207.112 S385
S0
G1 X206.985 S337
S0
G1 X206.858 S260
S0
G1 X206.731 S316
S0
G1 X206.604 S343
S0
G1 X206.477 S873
S0
G1 X206.350 S901
S0
G1 X206.223 S897
S0
G1 X206.096 S903
S0
G1 X205.969 S904
S0
G1 X205.842 S894
S0
G1 X205.715 S887
S0
G1 X205.588 S840
S0
G1 X205.461 S793
S0
G1 X205.334 S719
S0
G1 X205.207 S864
S0
G1 X205.080 S829
S0
G1 X204.953 S663
S0
G1 X204.826 S657
S0
G1 X204.699 S684
S0
G1 X204.572 S667
S0
G1 X204.445 S669
S0
G1 X204.318 S666
S0
G1 X204.191 S662
S0
G1 X204.064 S658
S0
G1 X203.810 S661
S0
G1 X203.683 S655
S0
G1 X203.556 S671
S0
G1 X203.429 S652
S0
G1 X203.175 S646
S0
G1 X203.048 S654
S0
G1 X202.921 S651
S0
G1 X202.794 S654
S0
G1 X202.667 S642
S0
G1 X202.540 S650
S0
G1 X202.413 S638
S0
G1 X202.286 S642
S0
G1 X202.159 S654
S0
G1 X202.032 S650
S0
G1 X201.905 S658
S0
G1 X201.778 S662
S0
G1 X201.651 S665
S0
G1 X201.524 S687
S0
G1 X201.270 S667
S0
G1 X201.143 S663
S0
G1 X201.016 S675
S0
G1 X200.889 S663
S0
G1 X200.635 S662
S0
G1 X200.508 S669
S0
G1 X200.254 S673
S0
G1 X200.127 S677
S0
G1 X200.000 S704
S0
G0 Y35.814
G0 X200.000 S0
G1 X200.254 S692
S0
G1 X200.381 S681
S0
G1 X200.508 S668
S0
G1 X200.635 S675
S0
G1 X200.762 S666
S0
G1 X200.889 S673
S0
G1 X201.016 S679
S0
G1 X201.143 S671
S0
G1 X201.270 S691
S0
G1 X201.397 S663
S0
G1 X201.524 S667
S0
G1 X201.651 S675
S0
G1 X201.778 S673
S0
G1 X202.159 S662
S0
G1 X202.413 S654
S0
G1 X202.540 S646
S0
G1 X202.667 S638
S0
G1 X202.794 S642
S0
G1 X202.921 S646
S0
G1 X203.048 S654
S0
G1 X203.175 S646
S0
G1 X203.683 S658
S0
G1 X203.810 S666
S0
G1 X203.937 S662
S0
G1 X204.191 S659
S0
G1 X204.318 S667
S0
G1 X204.445 S678
S0
G1 X204.572 S674
S0
G1 X204.699 S667
S0
G1 X204.826 S685
S0
G1 X204.953 S682
S0
G1 X205.080 S655
S0
G1 X205.207 S851
S0
G1 X205.334 S801
S0
G1 X205.588 S725
S0
G1 X205.715 S875
S0
G1 X205.842 S884
S0
G1 X205.969 S897
S0
G1 X206.096 S906
S0
G1 X206.223 S889
S0
G1 X206.350 S887
S0
G1 X206.477 S900
S0
G1 X206.604 S818
S0
G1 X206.731 S334
S0
G1 X206.858 S300
S0
G1 X206.985 S311
S0
G1 X207.112 S358
S0
G1 X207.239 S434
S0
G1 X207.366 S822
S0
G1 X207.493 S951
S0
G1 X207.620 S846
S0
G1 X207.747 S733
S0
G1 X207.874 S743
S0
G1 X208.001 S784
S0
G1 X208.128 S688
S0
G1 X208.255 S711
S0
G1 X208.382 S795
S0
G1 X208.509 S457
S0
G1 X208.636 S204
S0
G1 X208.763 S835
S0
G1 X208.890 S685
S0
G1 X209.017 S740
S0
G1 X209.144 S917
S0
G1 X209.271 S939
S0
G1 X209.398 S834
S0
G1 X209.525 S606
S0
G1 X209.652 S594
S0
G1 X209.779 S562
S0
G1 X209.906 S580
S0
G1 X210.033 S582
S0
G1 X210.414 S545
S0
G1 X210.541 S560
S0
G1 X210.668 S568
S0
G1 X210.795 S584
S0
G1 X210.922 S537
S0
G1 X211.049 S557
S0
G1 X211.176 S601
S0
G1 X211.303 S554
S0
G1 X211.430 S558
S0
G1 X211.557 S537
S0
G1 X211.684 S581
S0
G1 X211.811 S579
S0
G1 X211.938 S613
S0
G1 X212.065 S619
S0
G1 X212.192 S610
S0
G1 X212.319 S620
S0
G1 X212.446 S646
S0
G1 X212.573 S670
S0
G1 X212.700 S687
S0
G1 X212.827 S642
S0
G1 X212.954 S716
S0
G1 X213.081 S687
S0
G1 X213.208 S637
S0
G1 X213.335 S662
S0
G1 X213.462 S741
S0
G1 X213.589 S657
S0
G1 X213.716 S686
S0
G1 X213.843 S756
S0
G1 X213.970 S779
S0
G1 X214.097 S784
S0
G1 X214.224 S779
S0
G1 X214.351 S732
S0
G1 X214.478 S758
S0
G1 X214.605 S773
S0
G1 X214.732 S780
S0
G1 X214.859 S772
S0
G1 X214.986 S804
S0
G1 X215.113 S809
S0
G1 X215.240 S808
S0
G1 X215.367 S801
S0
G1 X215.494 S854
S0
G1 X215.621 S816
S0
G1 X215.748 S822
S0
G1 X215.875 S851
S0
G1 X216.002 S879
S0
G1 X216.129 S852
S0
G1 X216.256 S890
S0
G1 X216.383 S896
S0
G1 X216.510 S915
S0
G1 X216.637 S882
S0
G1 X216.764 S893
S0
G1 X216.891 S872
S0
G1 X217.018 S899
S0
G1 X217.145 S914
S0
G1 X217.272 S931
S0
G1 X217.399 S928
S0
G1 X217.526 S930
S0
G1 X217.653 S924
S0
G1 X217.780 S923
S0
G1 X217.907 S925
S0
G1 X218.034 S917
S0
G1 X218.161 S894
S0
G1 X218.288 S916
S0
G1 X218.415 S913
S0
G1 X218.542 S932
S0
G1 X218.669 S935
S0
G1 X218.796 S934
S0
G1 X219.050 S920
S0
G1 X219.177 S918
S0
G1 X219.304 S927
S0
G1 X219.431 S923
S0
G1 X219.558 S906
S0
G1 X219.685 S883
S0
G1 X219.812 S872
S0
G1 X219.939 S877
S0
G1 X220.066 S882
S0
G1 X220.193 S897
S0
G1 X220.320 S906
S0
G1 X220.447 S925
S0
G1 X220.574 S935
S0
G1 X220.701 S924
S0
G1 X220.828 S917
S0
G1 X220.955 S918
S0
G1 X221.082 S920
S0
G1 X221.209 S928
S0
G1 X221.336 S856
S0
G1 X221.463 S909
S0
G1 X221.590 S750
S0
G1 X221.717 S697
S0
G1 X221.844 S913
S0
G1 X221.971 S857
S0
G1 X222.098 S813
S0
G1 X222.225 S730
S0
G1 X222.352 S591
S0
G1 X222.479 S390
S0
G1 X222.606 S376
S0
G1 X222.733 S608
S0
G1 X222.860 S755
S0
G1 X222.987 S747
S0
G1 X223.114 S750
S0
G1 X223.241 S751
S0
G1 X223.368 S759
S0
G1 X223.495 S756
S0
G1 X223.622 S747
S0
G1 X223.749 S730
S0
G1 X223.876 S720
S0
