; GCODE generated by Laserweb
; Laser Min: 0%
; Laser Max: 100%
; Black Speed: 200mm/min
; White Speed: 800mm/min
; Resolution (mm per pixel): 0.12699999999999187mm
; Laser Spot Size: NaNmm
; Laser Feedrate: 2000mm/min
; X Offset: 200mm
; Y Offset: 0mm 

G1 F1000
; Start GCode
G92
G90
G1Z0
M3S0

G0 Y50.038
G0 X200.000 S0
G1 X222.352 S2
S0
G1 X223.368 S5
S0
G1 X224.384 S2
S0
G1 X224.511 S5
S0
G1 X224.638 S2
S0
G1 X224.765 S12
S0
G1 X224.892 S5
S0
G1 X225.019 S15
S0
G1 X225.146 S24
S0
G1 X225.273 S7
S0
G1 X225.400 S28
S0
G1 X225.527 S117
S0
G1 X225.654 S181
S0
G1 X225.781 S83
S0
G1 X225.908 S8
S0
G1 X226.035 S24
S0
G1 X226.162 S7
S0
G1 X226.289 S5
S0
G1 X226.416 S14
S0
G1 X226.924 S5
S0
G1 X238.354 S2
S0
G0 Y49.911
G0 X238.354 S0
G1 X227.432 S5
S0
G1 X227.051 S2
S0
G1 X226.289 S5
S0
G1 X226.162 S10
S0
G1 X226.035 S5
S0
G1 X225.908 S4
S0
G1 X225.781 S24
S0
G1 X225.654 S141
S0
G1 X225.527 S242
S0
G1 X225.400 S185
S0
G1 X225.273 S55
S0
G1 X225.146 S6
S0
G1 X225.019 S13
S0
G1 X224.892 S16
S0
G1 X224.765 S5
S0
G1 X224.638 S16
S0
G1 X224.511 S13
S0
G1 X224.384 S11
S0
G1 X207.112 S5
S0
G1 X206.096 S2
S0
G1 X200.000 S5
S0
G0 Y49.784
G0 X200.000 S0
G1 X206.096 S5
S0
G1 X206.604 S2
S0
G1 X206.858 S5
S0
G1 X207.112 S9
S0
G1 X222.352 S5
S0
G1 X223.368 S9
S0
G1 X224.384 S5
S0
G1 X224.511 S11
S0
G1 X224.638 S16
S0
G1 X224.765 S12
S0
G1 X224.892 S2
S0
G1 X225.019 S24
S0
G1 X225.146 S4
S0
G1 X225.273 S7
S0
G1 X225.400 S102
S0
G1 X225.527 S247
S0
G1 X225.654 S291
S0
G1 X225.781 S207
S0
G1 X225.908 S74
S0
G1 X226.035 S8
S0
G1 X226.162 S4
S0
G1 X226.289 S20
S0
G1 X226.416 S2
S0
G1 X227.051 S5
S0
G1 X227.432 S7
S0
G1 X238.354 S5
S0
G0 Y49.657
G0 X238.354 S0
G1 X227.432 S9
S0
G1 X227.178 S11
S0
G1 X227.051 S7
S0
G1 X226.924 S9
S0
G1 X226.416 S5
S0
G1 X226.289 S9
S0
G1 X226.162 S15
S0
G1 X226.035 S10
S0
G1 X225.908 S52
S0
G1 X225.781 S156
S0
G1 X225.654 S247
S0
G1 X225.527 S274
S0
G1 X225.400 S272
S0
G1 X225.273 S154
S0
G1 X225.146 S14
S0
G1 X225.019 S5
S0
G1 X224.892 S28
S0
G1 X224.765 S2
S0
G1 X224.638 S5
S0
G1 X224.511 S9
S0
G1 X224.384 S1
S0
G1 X207.112 S9
S0
G1 X206.985 S12
S0
G1 X206.731 S9
S0
G1 X206.477 S5
S0
G1 X206.096 S2
S0
G1 X200.000 S9
S0
G0 Y49.530
G0 X200.000 S0
G1 X206.096 S9
S0
G1 X206.477 S2
S0
G1 X206.731 S5
S0
G1 X206.985 S9
S0
G1 X207.112 S12
S0
G1 X222.352 S9
S0
G1 X223.368 S5
S0
G1 X224.384 S9
S0
G1 X224.511 S1
S0
G1 X224.765 S9
S0
G1 X224.892 S5
S0
G1 X225.019 S23
S0
G1 X225.146 S6
S0
G1 X225.273 S28
S0
G1 X225.400 S188
S0
G1 X225.527 S290
S0
G1 X225.654 S243
S0
G1 X225.781 S259
S0
G1 X225.908 S247
S0
G1 X226.035 S129
S0
G1 X226.162 S19
S0
G1 X226.289 S7
S0
G1 X226.416 S10
S0
G1 X226.924 S5
S0
G1 X227.051 S9
S0
G1 X227.178 S7
S0
G1 X227.432 S11
S0
G1 X238.354 S9
S0
G0 Y49.403
G0 X238.354 S0
G1 X227.432 S5
S0
G1 X227.051 S7
S0
G1 X226.416 S5
S0
G1 X226.289 S10
S0
G1 X226.162 S13
S0
G1 X226.035 S82
S0
G1 X225.908 S208
S0
G1 X225.781 S290
S0
G1 X225.654 S247
S0
G1 X225.527 S222
S0
G1 X225.400 S317
S0
G1 X225.273 S221
S0
G1 X225.146 S59
S0
G1 X225.019 S8
S0
G1 X224.892 S11
S0
G1 X224.765 S5
S0
G1 X224.638 S15
S0
G1 X224.511 S12
S0
G1 X207.112 S5
S0
G1 X206.858 S9
S0
G1 X206.604 S5
S0
G1 X206.096 S2
S0
G1 X200.000 S5
S0
G0 Y49.276
G0 X200.000 S0
G1 X206.096 S5
S0
G1 X207.112 S2
S0
G1 X222.352 S5
S0
G1 X223.368 S2
S0
G1 X224.384 S5
S0
G1 X224.511 S9
S0
G1 X224.638 S7
S0
G1 X224.765 S15
S0
G1 X224.892 S2
S0
G1 X225.019 S5
S0
G1 X225.146 S27
S0
G1 X225.273 S112
S0
G1 X225.400 S270
S0
G1 X225.527 S317
S0
G1 X225.654 S209
S0
G1 X225.781 S210
S0
G1 X226.035 S266
S0
G1 X226.162 S204
S0
G1 X226.289 S82
S0
G1 X226.416 S17
S0
G1 X227.051 S5
S0
G1 X227.432 S2
S0
G1 X238.354 S5
S0
G0 Y49.149
G0 X238.354 S0
G1 X226.924 S2
S0
G1 X226.416 S5
S0
G1 X226.289 S42
S0
G1 X226.162 S173
S0
G1 X226.035 S310
S0
G1 X225.908 S299
S0
G1 X225.781 S223
S0
G1 X225.654 S176
S0
G1 X225.527 S192
S0
G1 X225.400 S298
S0
G1 X225.273 S318
S0
G1 X225.146 S163
S0
G1 X225.019 S48
S0
G1 X224.892 S5
S0
G1 X224.765 S2
S0
G1 X224.638 S7
S0
G1 X224.511 S2
S0
G1 X224.384 S5
S0
G1 X200.000 S2
S0
G0 Y49.022
G0 X200.000 S0
G1 X215.240 S2
S0
G1 X215.494 S9
S0
G1 X215.621 S1
S0
G1 X215.748 S2
S0
G1 X215.875 S23
S0
G1 X216.002 S13
S0
G1 X216.129 S3
S0
G1 X216.256 S16
S0
G1 X216.383 S2
S0
G1 X216.510 S5
S0
G1 X216.637 S9
S0
G1 X216.891 S7
S0
G1 X217.145 S2
S0
G1 X217.272 S5
S0
G1 X222.352 S2
S0
G1 X223.368 S5
S0
G1 X224.384 S2
S0
G1 X224.511 S17
S0
G1 X224.765 S5
S0
G1 X224.892 S17
S0
G0 X225.019 S0
G1 X225.146 S71
S0
G1 X225.273 S282
S0
G1 X225.400 S322
S0
G1 X225.527 S240
S0
G1 X225.654 S195
S0
G1 X225.781 S184
S0
G1 X225.908 S183
S0
G1 X226.035 S215
S0
G1 X226.162 S302
S0
G1 X226.289 S303
S0
G1 X226.416 S193
S0
G1 X226.543 S39
S0
G1 X226.670 S11
S0
G1 X226.797 S2
S0
G1 X227.178 S5
S0
G1 X227.305 S2
S0
G1 X227.432 S1
S0
G1 X227.686 S5
S0
G1 X227.813 S4
S0
G1 X227.940 S5
S0
G1 X228.067 S7
S0
G1 X228.194 S5
S0
G1 X228.448 S7
S0
G1 X228.575 S9
S0
G1 X228.702 S5
S0
G1 X238.354 S2
S0
G0 Y48.895
G0 X238.354 S0
G1 X228.702 S2
S0
G1 X228.575 S5
S0
G1 X228.448 S9
S0
G1 X228.067 S7
S0
G1 X227.813 S2
S0
G1 X227.686 S11
S0
G1 X227.559 S17
S0
G1 X227.432 S13
S0
G1 X227.178 S2
S0
G1 X227.051 S5
S0
G1 X226.924 S7
S0
G1 X226.797 S2
S0
G1 X226.670 S5
S0
G1 X226.543 S66
S0
G1 X226.416 S170
S0
G1 X226.289 S302
S0
G1 X226.162 S306
S0
G1 X226.035 S251
S0
G1 X225.908 S192
S0
G1 X225.781 S193
S0
G1 X225.654 S191
S0
G1 X225.527 S185
S0
G1 X225.400 S200
S0
G1 X225.273 S334
S0
G1 X225.146 S315
S0
G1 X225.019 S129
S0
G1 X224.892 S9
S0
G1 X224.765 S12
S0
G1 X224.638 S2
S0
G1 X224.511 S1
S0
G1 X224.384 S5
S0
G1 X223.368 S2
S0
G1 X222.352 S5
S0
G1 X217.272 S2
S0
G1 X217.145 S5
S0
G1 X217.018 S9
S0
G1 X216.764 S5
S0
G1 X216.637 S7
S0
G1 X216.383 S5
S0
G1 X216.256 S9
S0
G1 X216.129 S31
S0
G1 X216.002 S80
S0
G1 X215.875 S79
S0
G1 X215.748 S27
S0
G1 X215.621 S5
S0
G1 X215.494 S8
S0
G1 X215.367 S13
S0
G1 X214.859 S5
S0
G1 X200.000 S2
S0
G0 Y48.768
G0 X200.000 S0
G1 X214.605 S2
S0
G1 X215.113 S5
S0
G1 X215.367 S9
S0
G1 X215.494 S21
S0
G1 X215.621 S18
S0
G1 X215.748 S7
S0
G1 X215.875 S55
S0
G1 X216.002 S169
S0
G1 X216.129 S192
S0
G1 X216.256 S106
S0
G1 X216.383 S27
S0
G1 X216.510 S4
S0
G1 X216.637 S9
S0
G1 X216.764 S11
S0
G1 X217.018 S5
S0
G1 X217.145 S9
S0
G1 X217.272 S2
S0
G1 X218.288 S5
S0
G1 X219.304 S2
S0
G1 X220.320 S5
S0
G1 X223.368 S2
S0
G1 X224.384 S5
S0
G1 X224.511 S2
S0
G1 X224.638 S1
S0
G1 X224.765 S9
S0
G1 X224.892 S3
S0
G1 X225.019 S51
S0
G1 X225.146 S219
S0
G1 X225.273 S346
S0
G1 X225.400 S314
S0
G1 X225.527 S183
S0
G1 X225.654 S188
S0
G1 X225.781 S200
S0
G1 X225.908 S199
S0
G1 X226.035 S180
S0
G1 X226.162 S187
S0
G1 X226.289 S255
S0
G1 X226.416 S329
S0
G1 X226.543 S321
S0
G1 X226.670 S203
S0
G1 X226.797 S75
S0
G1 X226.924 S11
S0
G1 X227.559 S5
S0
G1 X227.686 S11
S0
G1 X227.813 S8
S0
G1 X228.067 S2
S0
G1 X228.194 S9
S0
G1 X228.321 S12
S0
G1 X228.448 S5
S0
G1 X228.575 S9
S0
G1 X228.702 S5
S0
G1 X231.496 S2
S0
G1 X234.544 S5
S0
G1 X238.354 S2
S0
G0 Y48.641
G0 X238.354 S0
G1 X234.544 S2
S0
G1 X231.496 S5
S0
G1 X228.702 S2
S0
G1 X228.575 S5
S0
G1 X228.448 S9
S0
G1 X228.321 S1
S0
G1 X228.194 S5
S0
G1 X228.067 S9
S0
G1 X227.940 S2
S0
G1 X227.813 S3
S0
G1 X227.686 S8
S0
G1 X227.559 S9
S0
G1 X227.432 S4
S0
G1 X227.305 S6
S0
G1 X227.178 S13
S0
G1 X227.051 S9
S0
G1 X226.924 S28
S0
G1 X226.797 S117
S0
G1 X226.670 S247
S0
G1 X226.543 S338
S0
G1 X226.416 S364
S0
G1 X226.289 S252
S0
G1 X226.162 S188
S0
G1 X226.035 S172
S0
G1 X225.908 S193
S0
G1 X225.654 S192
S0
G1 X225.527 S191
S0
G1 X225.400 S183
S0
G1 X225.273 S251
S0
G1 X225.146 S349
S0
G1 X225.019 S314
S0
G1 X224.892 S127
S0
G1 X224.765 S8
S0
G1 X224.638 S2
S0
G1 X224.511 S5
S0
G1 X224.384 S9
S0
G1 X223.368 S5
S0
G1 X220.320 S2
S0
G1 X219.304 S5
S0
G1 X218.288 S2
S0
G1 X217.272 S5
S0
G1 X217.145 S3
S0
G1 X217.018 S2
S0
G0 X216.891 S0
G1 X216.764 S3
S0
G1 X216.637 S23
S0
G1 X216.510 S12
S0
G1 X216.383 S20
S0
G1 X216.256 S82
S0
G1 X216.129 S212
S0
G1 X216.002 S267
S0
G1 X215.875 S236
S0
G1 X215.748 S116
S0
G1 X215.621 S31
S0
G1 X215.494 S15
S0
G1 X215.367 S24
S0
G1 X215.240 S30
S0
G1 X214.732 S9
S0
G1 X214.224 S5
S0
G1 X200.000 S2
S0
G0 Y48.514
G0 X200.000 S0
G1 X214.224 S2
S0
G1 X214.605 S5
S0
G1 X215.240 S9
S0
G1 X215.367 S20
S0
G1 X215.494 S9
S0
G1 X215.621 S17
S0
G1 X215.748 S92
S0
G1 X215.875 S192
S0
G1 X216.002 S242
S0
G1 X216.129 S257
S0
G1 X216.256 S270
S0
G1 X216.383 S188
S0
G1 X216.510 S72
S0
G1 X216.637 S7
S0
G1 X216.764 S4
S0
G1 X216.891 S3
S0
G0 X217.145 S0
G1 X217.272 S2
S0
G1 X218.288 S5
S0
G1 X219.304 S2
S0
G1 X220.320 S5
S0
G1 X223.368 S2
S0
G1 X224.384 S5
S0
G1 X224.511 S27
S0
G0 X224.638 S0
G1 X224.765 S3
S0
G1 X224.892 S42
S0
G1 X225.019 S215
S0
G1 X225.146 S373
S0
G1 X225.273 S334
S0
G1 X225.400 S191
S0
G1 X225.527 S177
S0
G1 X225.654 S188
S0
G1 X225.908 S180
S0
G1 X226.035 S209
S0
G1 X226.162 S197
S0
G1 X226.289 S175
S0
G1 X226.416 S195
S0
G1 X226.543 S240
S0
G1 X226.670 S309
S0
G1 X226.797 S350
S0
G1 X226.924 S298
S0
G1 X227.051 S212
S0
G1 X227.178 S136
S0
G1 X227.305 S67
S0
G1 X227.432 S10
S0
G1 X227.813 S2
S0
G1 X227.940 S6
S0
G1 X228.067 S8
S0
G1 X228.448 S7
S0
G1 X228.575 S9
S0
G1 X228.702 S5
S0
G1 X231.496 S2
S0
G1 X234.544 S5
S0
G1 X238.354 S2
S0
G0 Y48.387
G0 X238.354 S0
G1 X229.464 S5
S0
G1 X228.702 S2
S0
G1 X228.575 S5
S0
G1 X228.448 S9
S0
G1 X228.321 S19
S0
G1 X228.194 S24
S0
G1 X228.067 S55
S0
G1 X227.940 S105
S0
G1 X227.813 S129
S0
G1 X227.686 S131
S0
G1 X227.559 S134
S0
G1 X227.432 S150
S0
G1 X227.305 S184
S0
G1 X227.178 S239
S0
G1 X227.051 S317
S0
G1 X226.924 S363
S0
G1 X226.797 S353
S0
G1 X226.670 S290
S0
G1 X226.543 S207
S0
G1 X226.416 S157
S0
G1 X226.289 S191
S0
G1 X226.162 S187
S0
G1 X226.035 S203
S0
G1 X225.908 S205
S0
G1 X225.781 S185
S0
G1 X225.654 S193
S0
G1 X225.527 S205
S0
G1 X225.400 S188
S0
G1 X225.273 S168
S0
G1 X225.146 S289
S0
G1 X225.019 S372
S0
G1 X224.892 S306
S0
G1 X224.765 S122
S0
G1 X224.638 S6
S0
G0 X224.511 S0
G1 X224.384 S20
S0
G1 X219.304 S5
S0
G1 X218.288 S2
S0
G1 X217.272 S5
S0
G1 X217.018 S8
S0
G1 X216.891 S12
S0
G1 X216.764 S4
S0
G1 X216.637 S7
S0
G1 X216.510 S32
S0
G1 X216.383 S161
S0
G1 X216.256 S287
S0
G1 X216.129 S254
S0
G1 X216.002 S203
S0
G1 X215.875 S219
S0
G1 X215.748 S248
S0
G1 X215.621 S168
S0
G1 X215.494 S55
S0
G1 X215.367 S2
S0
G1 X215.240 S5
S0
G1 X214.605 S9
S0
G1 X210.160 S5
S0
G1 X209.144 S2
S0
G1 X208.128 S5
S0
G1 X207.112 S2
S0
G1 X200.000 S5
S0
G0 Y48.260
G0 X200.000 S0
G1 X207.112 S5
S0
G1 X208.128 S2
S0
G1 X209.144 S5
S0
G1 X210.160 S2
S0
G1 X214.859 S5
S0
G1 X215.240 S9
S0
G1 X215.367 S5
S0
G1 X215.494 S37
S0
G1 X215.621 S134
S0
G1 X215.748 S236
S0
G1 X215.875 S250
S0
G1 X216.002 S197
S0
G1 X216.129 S175
S0
G1 X216.256 S214
S0
G1 X216.383 S297
S0
G1 X216.510 S263
S0
G1 X216.637 S142
S0
G1 X216.764 S30
S0
G1 X216.891 S11
S0
G1 X217.018 S12
S0
G1 X217.145 S9
S0
G1 X217.272 S17
S0
G1 X218.288 S9
S0
G1 X219.304 S2
S0
G1 X220.320 S9
S0
G1 X222.352 S5
S0
G1 X224.511 S9
S0
G1 X224.638 S4
S0
G1 X224.765 S39
S0
G1 X224.892 S231
S0
G1 X225.019 S370
S0
G1 X225.146 S315
S0
G1 X225.273 S231
S0
G1 X225.400 S175
S0
G1 X225.527 S200
S0
G1 X225.654 S204
S0
G1 X225.781 S200
S0
G1 X226.035 S192
S0
G1 X226.289 S188
S0
G1 X226.543 S196
S0
G1 X226.670 S184
S0
G1 X226.797 S192
S0
G1 X226.924 S239
S0
G1 X227.051 S299
S0
G1 X227.178 S338
S0
G1 X227.305 S356
S0
G1 X227.432 S363
S0
G1 X227.559 S366
S0
G1 X227.686 S341
S0
G1 X227.813 S346
S0
G1 X227.940 S348
S0
G1 X228.067 S280
S0
G1 X228.194 S137
S0
G1 X228.321 S32
S0
G1 X228.448 S2
S0
G1 X228.575 S9
S0
G1 X228.702 S5
S0
G1 X229.464 S2
S0
G1 X231.496 S5
S0
G1 X234.544 S2
S0
G1 X238.354 S5
S0
G0 Y48.133
G0 X238.354 S0
G1 X234.544 S5
S0
G1 X231.496 S2
S0
G1 X229.464 S5
S0
G1 X228.702 S2
S0
G1 X228.575 S5
S0
G1 X228.448 S9
S0
G1 X228.321 S2
S0
G1 X228.194 S44
S0
G1 X228.067 S189
S0
G1 X227.940 S365
S0
G1 X227.813 S432
S0
G1 X227.686 S380
S0
G1 X227.559 S328
S0
G1 X227.432 S329
S0
G1 X227.305 S309
S0
G1 X227.178 S290
S0
G1 X227.051 S248
S0
G1 X226.924 S198
S0
G1 X226.797 S175
S0
G1 X226.670 S180
S0
G1 X226.543 S193
S0
G1 X226.416 S192
S0
G1 X226.289 S200
S0
G1 X226.162 S192
S0
G1 X226.035 S188
S0
G1 X225.908 S197
S0
G1 X225.781 S193
S0
G1 X225.654 S178
S0
G1 X225.527 S174
S0
G1 X225.273 S185
S0
G1 X225.146 S183
S0
G1 X225.019 S252
S0
G1 X224.892 S396
S0
G1 X224.765 S311
S0
G1 X224.638 S89
S0
G1 X224.511 S28
S0
G1 X222.352 S9
S0
G1 X220.320 S5
S0
G1 X219.304 S9
S0
G1 X218.288 S2
S0
G1 X217.272 S9
S0
G1 X217.145 S25
S0
G1 X216.891 S4
S0
G1 X216.764 S15
S0
G1 X216.637 S92
S0
G1 X216.510 S255
S0
G1 X216.383 S325
S0
G1 X216.256 S256
S0
G1 X216.129 S200
S0
G1 X216.002 S185
S0
G1 X215.875 S183
S0
G1 X215.748 S236
S0
G1 X215.621 S274
S0
G1 X215.494 S205
S0
G1 X215.367 S84
S0
G1 X215.240 S24
S0
G1 X214.986 S9
S0
G1 X214.478 S5
S0
G1 X214.224 S2
S0
G1 X210.160 S5
S0
G1 X209.144 S2
S0
G1 X208.128 S5
S0
G1 X207.112 S2
S0
G1 X200.000 S5
S0
G0 Y48.006
G0 X200.000 S0
G1 X208.128 S2
S0
G1 X209.144 S5
S0
G1 X213.335 S2
S0
G1 X213.716 S5
S0
G1 X213.970 S2
S0
G1 X214.097 S9
S0
G1 X214.224 S12
S0
G1 X214.351 S3
S0
G1 X214.478 S1
S0
G1 X214.605 S5
S0
G1 X214.732 S9
S0
G1 X214.859 S12
S0
G1 X214.986 S7
S0
G1 X215.113 S10
S0
G1 X215.240 S16
S0
G1 X215.367 S62
S0
G1 X215.494 S193
S0
G1 X215.621 S274
S0
G1 X215.748 S244
S0
G1 X215.875 S187
S0
G1 X216.002 S189
S0
G1 X216.129 S191
S0
G1 X216.256 S175
S0
G1 X216.383 S204
S0
G1 X216.510 S278
S0
G1 X216.637 S338
S0
G1 X216.764 S235
S0
G1 X216.891 S55
S0
G1 X217.018 S7
S0
G1 X217.145 S20
S0
G1 X217.272 S21
S0
G1 X217.399 S16
S0
G1 X217.526 S13
S0
G1 X217.780 S8
S0
G1 X217.907 S11
S0
G1 X218.034 S13
S0
G1 X218.161 S9
S0
G1 X218.288 S2
S0
G0 X219.304 S0
G1 X221.336 S9
S0
G1 X222.352 S5
S0
G0 X223.368 S0
G1 X223.495 S11
S0
G1 X223.622 S1
S0
G1 X223.749 S2
S0
G1 X223.876 S13
S0
G1 X224.003 S5
S0
G1 X224.130 S4
S0
G1 X224.257 S1
S0
G1 X224.384 S32
S0
G1 X224.511 S7
S0
G1 X224.638 S59
S0
G1 X224.765 S254
S0
G1 X224.892 S392
S0
G1 X225.019 S325
S0
G1 X225.146 S214
S0
G1 X225.400 S196
S0
G1 X226.416 S188
S0
G1 X226.543 S201
S0
G1 X226.670 S189
S0
G1 X226.797 S193
S0
G1 X226.924 S201
S0
G1 X227.051 S193
S0
G1 X227.305 S180
S0
G1 X227.432 S192
S0
G1 X227.559 S195
S0
G1 X227.686 S250
S0
G1 X227.813 S372
S0
G1 X227.940 S415
S0
G1 X228.067 S285
S0
G1 X228.194 S114
S0
G1 X228.321 S24
S0
G1 X228.448 S3
S0
G1 X238.354 S2
S0
G0 Y47.879
G0 X238.354 S0
G1 X228.448 S2
S0
G1 X228.321 S3
S0
G1 X228.194 S4
S0
G1 X228.067 S44
S0
G1 X227.940 S168
S0
G1 X227.813 S338
S0
G1 X227.686 S396
S0
G1 X227.559 S302
S0
G1 X227.432 S184
S0
G1 X227.305 S205
S0
G1 X227.178 S185
S0
G1 X227.051 S182
S0
G1 X226.797 S193
S0
G1 X226.670 S197
S0
G1 X226.543 S193
S0
G1 X226.416 S182
S0
G1 X225.400 S192
S0
G1 X225.146 S184
S0
G1 X225.019 S199
S0
G1 X224.892 S282
S0
G1 X224.765 S372
S0
G1 X224.638 S329
S0
G1 X224.511 S161
S0
G1 X224.384 S28
S0
G1 X224.257 S15
S0
G1 X224.130 S8
S0
G1 X224.003 S6
S0
G1 X223.749 S8
S0
G1 X223.622 S2
S0
G1 X223.495 S1
S0
G1 X223.368 S4
S0
G0 X222.352 S0
G1 X220.320 S5
S0
G1 X219.304 S9
S0
G0 X218.288 S0
G1 X218.161 S2
S0
G1 X217.907 S6
S0
G1 X217.653 S3
S0
G1 X217.526 S5
S0
G1 X217.399 S8
S0
G1 X217.272 S12
S0
G1 X217.145 S13
S0
G1 X217.018 S1
S0
G1 X216.891 S62
S0
G1 X216.764 S208
S0
G1 X216.637 S321
S0
G1 X216.510 S302
S0
G1 X216.383 S223
S0
G1 X216.256 S188
S0
G1 X216.129 S179
S0
G1 X216.002 S195
S0
G1 X215.875 S197
S0
G1 X215.748 S191
S0
G1 X215.621 S229
S0
G1 X215.494 S270
S0
G1 X215.367 S243
S0
G1 X215.240 S179
S0
G1 X215.113 S44
S0
G1 X214.986 S11
S0
G1 X214.859 S2
S0
G1 X214.732 S5
S0
G1 X214.605 S7
S0
G1 X214.478 S5
S0
G1 X214.351 S2
S0
G1 X214.224 S19
S0
G1 X213.970 S5
S0
G1 X213.843 S2
S0
G1 X213.208 S5
S0
G1 X209.144 S2
S0
G1 X208.128 S5
S0
G1 X200.000 S2
S0
G0 Y47.752
G0 X200.000 S0
G1 X208.128 S2
S0
G1 X209.144 S5
S0
G1 X213.081 S2
S0
G1 X213.970 S5
S0
G1 X214.224 S2
S0
G1 X214.605 S5
S0
G1 X214.732 S15
S0
G1 X214.859 S5
S0
G1 X214.986 S3
S0
G1 X215.113 S59
S0
G1 X215.240 S146
S0
G1 X215.367 S282
S0
G1 X215.494 S275
S0
G1 X215.621 S239
S0
G1 X215.748 S196
S0
G1 X215.875 S189
S0
G1 X216.002 S201
S0
G1 X216.129 S199
S0
G1 X216.256 S183
S0
G1 X216.383 S208
S0
G1 X216.510 S184
S0
G1 X216.637 S235
S0
G1 X216.764 S337
S0
G1 X216.891 S329
S0
G1 X217.018 S177
S0
G1 X217.145 S38
S0
G1 X217.272 S8
S0
G1 X217.526 S7
S0
G1 X217.653 S3
S0
G1 X217.780 S7
S0
G1 X217.907 S3
S0
G0 X218.034 S0
G1 X218.161 S2
S0
G1 X218.288 S6
S0
G0 X219.304 S0
G1 X221.336 S5
S0
G1 X222.352 S2
S0
G1 X223.368 S3
S0
G1 X223.495 S2
S0
G1 X223.622 S5
S0
G1 X223.749 S2
S0
G1 X223.876 S5
S0
G1 X224.003 S11
S0
G1 X224.130 S16
S0
G1 X224.257 S11
S0
G1 X224.384 S8
S0
G1 X224.511 S90
S0
G1 X224.638 S287
S0
G1 X224.765 S394
S0
G1 X224.892 S326
S0
G1 X225.019 S230
S0
G1 X225.146 S189
S0
G1 X225.273 S180
S0
G1 X225.400 S188
S0
G1 X226.416 S192
S0
G1 X226.543 S176
S0
G1 X226.670 S197
S0
G1 X226.924 S193
S0
G1 X227.051 S205
S0
G1 X227.178 S187
S0
G1 X227.305 S179
S0
G1 X227.432 S207
S0
G1 X227.559 S238
S0
G1 X227.686 S365
S0
G1 X227.813 S377
S0
G1 X227.940 S212
S0
G1 X228.067 S50
S0
G1 X228.321 S3
S0
G1 X238.354 S2
S0
G0 Y47.625
G0 X238.354 S0
G1 X228.448 S2
S0
G1 X228.067 S1
S0
G1 X227.940 S7
S0
G1 X227.813 S95
S0
G1 X227.686 S270
S0
G1 X227.559 S376
S0
G1 X227.432 S356
S0
G1 X227.305 S239
S0
G1 X227.051 S184
S0
G1 X226.924 S207
S0
G1 X226.797 S193
S0
G1 X226.670 S185
S0
G1 X226.543 S196
S0
G1 X226.416 S192
S0
G1 X225.400 S196
S0
G1 X225.273 S204
S0
G1 X225.146 S192
S0
G1 X225.019 S197
S0
G1 X224.892 S195
S0
G1 X224.765 S259
S0
G1 X224.638 S388
S0
G1 X224.511 S368
S0
G1 X224.384 S197
S0
G1 X224.257 S27
S0
G1 X224.130 S10
S0
G1 X224.003 S2
S0
G0 X223.876 S0
G1 X223.749 S8
S0
G1 X223.622 S5
S0
G1 X223.495 S1
S0
G1 X223.368 S2
S0
G1 X222.352 S3
S0
G1 X220.320 S2
S0
G1 X219.304 S5
S0
G0 X218.288 S0
G1 X218.161 S3
S0
G0 X218.034 S0
G1 X217.907 S3
S0
G1 X217.780 S15
S0
G1 X217.653 S13
S0
G1 X217.399 S6
S0
G1 X217.272 S9
S0
G1 X217.145 S24
S0
G1 X217.018 S158
S0
G1 X216.891 S302
S0
G1 X216.764 S342
S0
G1 X216.637 S272
S0
G1 X216.510 S187
S0
G1 X216.383 S180
S0
G1 X216.256 S215
S0
G1 X216.129 S195
S0
G1 X216.002 S203
S0
G1 X215.875 S201
S0
G1 X215.748 S185
S0
G1 X215.621 S171
S0
G1 X215.494 S197
S0
G1 X215.367 S247
S0
G1 X215.240 S291
S0
G1 X215.113 S279
S0
G1 X214.986 S158
S0
G1 X214.859 S36
S0
G1 X214.732 S2
S0
G1 X214.478 S11
S0
G1 X214.351 S5
S0
G1 X214.224 S2
S0
G1 X213.970 S1
S0
G1 X213.843 S5
S0
G1 X213.716 S9
S0
G1 X212.827 S5
S0
G1 X200.000 S2
S0
G0 Y47.498
G0 X200.000 S0
G1 X212.700 S2
S0
G1 X213.462 S5
S0
G1 X213.843 S9
S0
G1 X214.224 S5
S0
G1 X214.351 S9
S0
G1 X214.478 S1
S0
G1 X214.605 S2
S0
G1 X214.732 S6
S0
G1 X214.859 S59
S0
G1 X214.986 S157
S0
G1 X215.113 S259
S0
G1 X215.240 S325
S0
G1 X215.367 S239
S0
G1 X215.494 S203
S0
G1 X215.621 S175
S0
G1 X215.748 S178
S0
G1 X215.875 S192
S0
G1 X216.002 S196
S0
G1 X216.129 S195
S0
G1 X216.256 S200
S0
G1 X216.383 S188
S0
G1 X216.510 S180
S0
G1 X216.637 S191
S0
G1 X216.764 S220
S0
G1 X216.891 S287
S0
G1 X217.018 S366
S0
G1 X217.145 S291
S0
G1 X217.272 S119
S0
G1 X217.399 S20
S0
G1 X217.526 S5
S0
G1 X217.653 S3
S0
G1 X217.780 S6
S0
G1 X217.907 S17
S0
G1 X218.034 S11
S0
G1 X218.161 S3
S0
G1 X218.288 S5
S0
G0 X219.304 S0
G1 X220.320 S5
S0
G1 X222.352 S2
S0
G1 X223.368 S3
S0
G1 X223.495 S5
S0
G1 X223.622 S1
S0
G1 X223.749 S9
S0
G1 X223.876 S15
S0
G1 X224.003 S2
S0
G1 X224.130 S6
S0
G1 X224.257 S25
S0
G1 X224.384 S106
S0
G1 X224.511 S322
S0
G1 X224.638 S390
S0
G1 X224.765 S321
S0
G1 X224.892 S199
S0
G1 X225.019 S185
S0
G1 X225.146 S201
S0
G1 X225.273 S196
S0
G1 X225.400 S204
S0
G1 X226.416 S196
S0
G1 X226.543 S204
S0
G1 X226.670 S196
S0
G1 X226.797 S184
S0
G1 X226.924 S187
S0
G1 X227.051 S188
S0
G1 X227.178 S178
S0
G1 X227.305 S230
S0
G1 X227.432 S332
S0
G1 X227.559 S411
S0
G1 X227.686 S310
S0
G1 X227.813 S133
S0
G1 X227.940 S15
S0
G1 X228.194 S9
S0
G1 X228.321 S1
S0
G1 X228.448 S5
S0
G1 X238.354 S2
S0
G0 Y47.371
G0 X238.354 S0
G1 X228.448 S2
S0
G1 X228.321 S8
S0
G1 X228.067 S2
S0
G1 X227.940 S9
S0
G1 X227.813 S2
S0
G1 X227.686 S36
S0
G1 X227.559 S186
S0
G1 X227.432 S333
S0
G1 X227.305 S404
S0
G1 X227.178 S306
S0
G1 X227.051 S207
S0
G1 X226.924 S172
S0
G1 X226.797 S183
S0
G1 X226.543 S192
S0
G1 X226.416 S195
S0
G1 X225.146 S192
S0
G1 X225.019 S200
S0
G1 X224.892 S184
S0
G1 X224.765 S177
S0
G1 X224.638 S248
S0
G1 X224.511 S348
S0
G1 X224.384 S400
S0
G1 X224.257 S227
S0
G1 X224.130 S94
S0
G1 X224.003 S8
S0
G1 X223.876 S3
S0
G1 X223.749 S19
S0
G1 X223.622 S9
S0
G1 X223.495 S1
S0
G1 X223.368 S9
S0
G1 X222.352 S3
S0
G1 X219.304 S5
S0
G1 X218.288 S3
S0
G1 X218.034 S5
S0
G1 X217.907 S11
S0
G1 X217.780 S9
S0
G1 X217.653 S3
S0
G1 X217.526 S5
S0
G1 X217.399 S35
S0
G1 X217.272 S93
S0
G1 X217.145 S286
S0
G1 X217.018 S362
S0
G1 X216.891 S317
S0
G1 X216.764 S211
S0
G1 X216.637 S193
S0
G1 X216.510 S205
S0
G1 X216.256 S188
S0
G1 X216.129 S196
S0
G1 X216.002 S191
S0
G1 X215.875 S196
S0
G1 X215.748 S204
S0
G1 X215.621 S200
S0
G1 X215.494 S189
S0
G1 X215.367 S188
S0
G1 X215.240 S205
S0
G1 X215.113 S259
S0
G1 X214.986 S303
S0
G1 X214.859 S302
S0
G1 X214.732 S208
S0
G1 X214.605 S86
S0
G1 X214.478 S7
S0
G1 X214.224 S5
S0
G1 X214.097 S19
S0
G1 X213.970 S11
S0
G1 X213.716 S4
S0
G1 X213.589 S7
S0
G1 X213.462 S11
S0
G1 X213.335 S7
S0
G1 X213.208 S4
S0
G1 X212.573 S5
S0
G1 X200.000 S2
S0
G0 Y47.244
G0 X200.000 S0
G1 X212.573 S2
S0
G1 X213.081 S5
S0
G1 X213.208 S9
S0
G1 X213.335 S4
S0
G1 X213.462 S11
S0
G1 X213.589 S15
S0
G1 X213.716 S7
S0
G1 X213.843 S2
S0
G1 X213.970 S4
S0
G1 X214.097 S19
S0
G1 X214.224 S39
S0
G1 X214.351 S20
S0
G1 X214.478 S55
S0
G1 X214.605 S134
S0
G1 X214.732 S232
S0
G1 X214.859 S310
S0
G1 X214.986 S317
S0
G1 X215.113 S260
S0
G1 X215.240 S193
S0
G1 X215.367 S188
S0
G1 X215.494 S187
S0
G1 X215.621 S196
S0
G1 X215.748 S204
S0
G1 X215.875 S200
S0
G1 X216.002 S192
S0
G1 X216.129 S187
S0
G1 X216.256 S192
S0
G1 X216.383 S205
S0
G1 X216.510 S192
S0
G1 X216.637 S197
S0
G1 X216.764 S184
S0
G1 X216.891 S173
S0
G1 X217.018 S231
S0
G1 X217.145 S325
S0
G1 X217.272 S376
S0
G1 X217.399 S252
S0
G1 X217.526 S142
S0
G1 X217.653 S31
S0
G1 X217.780 S5
S0
G1 X217.907 S6
S0
G1 X218.034 S7
S0
G1 X218.161 S5
S0
G1 X218.288 S8
S0
G1 X219.304 S3
S0
G1 X220.320 S9
S0
G1 X221.336 S5
S0
G1 X222.352 S9
S0
G1 X223.368 S7
S0
G1 X223.495 S9
S0
G1 X223.622 S5
S0
G1 X223.749 S12
S0
G1 X223.876 S17
S0
G1 X224.003 S7
S0
G1 X224.130 S52
S0
G1 X224.257 S199
S0
G1 X224.384 S353
S0
G1 X224.511 S397
S0
G1 X224.638 S275
S0
G1 X224.765 S192
S0
G1 X224.892 S189
S0
G1 X225.019 S188
S0
G1 X225.146 S192
S0
G1 X225.273 S196
S0
G1 X225.400 S184
S0
G1 X226.416 S192
S0
G1 X226.543 S191
S0
G1 X226.670 S188
S0
G1 X226.797 S196
S0
G1 X226.924 S187
S0
G1 X227.051 S209
S0
G1 X227.178 S298
S0
G1 X227.305 S368
S0
G1 X227.432 S362
S0
G1 X227.559 S182
S0
G1 X227.686 S67
S0
G1 X227.940 S5
S0
G1 X228.067 S11
S0
G1 X228.194 S5
S0
G1 X228.321 S2
S0
G1 X228.448 S1
S0
G1 X238.354 S2
S0
G0 Y47.117
G0 X238.354 S0
G1 X228.448 S2
S0
G1 X228.321 S3
S0
G1 X228.194 S8
S0
G1 X228.067 S13
S0
G1 X227.940 S17
S0
G1 X227.813 S16
S0
G1 X227.686 S5
S0
G1 X227.559 S9
S0
G1 X227.432 S66
S0
G1 X227.305 S260
S0
G1 X227.178 S397
S0
G1 X227.051 S392
S0
G1 X226.924 S264
S0
G1 X226.797 S199
S0
G1 X226.670 S192
S0
G1 X226.543 S184
S0
G1 X226.416 S199
S0
G1 X225.400 S188
S0
G1 X225.273 S192
S0
G1 X225.146 S208
S0
G1 X224.892 S192
S0
G1 X224.765 S203
S0
G1 X224.638 S169
S0
G1 X224.511 S216
S0
G1 X224.384 S354
S0
G1 X224.257 S435
S0
G1 X224.130 S283
S0
G1 X224.003 S107
S0
G1 X223.876 S16
S0
G1 X223.749 S6
S0
G1 X223.622 S12
S0
G1 X223.368 S9
S0
G1 X222.352 S7
S0
G1 X219.304 S9
S0
G1 X218.288 S3
S0
G1 X218.161 S8
S0
G1 X218.034 S5
S0
G1 X217.907 S3
S0
G1 X217.780 S6
S0
G1 X217.653 S12
S0
G1 X217.526 S82
S0
G1 X217.399 S248
S0
G1 X217.272 S401
S0
G1 X217.145 S346
S0
G1 X217.018 S248
S0
G1 X216.891 S181
S0
G1 X216.764 S184
S0
G1 X216.637 S200
S0
G1 X216.510 S189
S0
G1 X216.383 S188
S0
G1 X216.256 S201
S0
G1 X216.129 S188
S0
G1 X216.002 S187
S0
G1 X215.875 S192
S0
G1 X215.748 S191
S0
G1 X215.621 S187
S0
G1 X215.494 S188
S0
G1 X215.367 S185
S0
G1 X215.240 S183
S0
G1 X215.113 S177
S0
G1 X214.986 S182
S0
G1 X214.859 S222
S0
G1 X214.732 S300
S0
G1 X214.605 S334
S0
G1 X214.478 S292
S0
G1 X214.351 S202
S0
G1 X214.224 S135
S0
G1 X214.097 S51
S0
G1 X213.970 S27
S0
G1 X213.716 S2
S0
G1 X213.589 S11
S0
G1 X213.462 S19
S0
G1 X213.335 S11
S0
G1 X213.208 S2
S0
G1 X212.954 S9
S0
G1 X212.446 S5
S0
G1 X200.000 S2
S0
G0 Y46.990
G0 X200.000 S0
G1 X207.112 S2
S0
G1 X207.366 S5
S0
G1 X207.874 S2
S0
G1 X208.509 S5
S0
G1 X209.144 S2
S0
G1 X210.160 S5
S0
G1 X212.192 S2
S0
G1 X212.319 S1
S0
G1 X212.446 S13
S0
G1 X212.573 S1
S0
G1 X212.700 S2
S0
G1 X212.827 S11
S0
G1 X212.954 S15
S0
G1 X213.081 S19
S0
G1 X213.208 S47
S0
G1 X213.335 S62
S0
G1 X213.462 S51
S0
G1 X213.589 S47
S0
G1 X213.716 S62
S0
G1 X213.843 S83
S0
G1 X213.970 S101
S0
G1 X214.097 S140
S0
G1 X214.224 S183
S0
G1 X214.351 S302
S0
G1 X214.605 S342
S0
G1 X214.732 S272
S0
G1 X214.859 S204
S0
G1 X214.986 S188
S0
G1 X215.240 S200
S0
G1 X216.256 S193
S0
G1 X216.510 S189
S0
G1 X216.764 S187
S0
G1 X216.891 S191
S0
G1 X217.018 S200
S0
G1 X217.145 S204
S0
G1 X217.272 S208
S0
G1 X217.399 S345
S0
G1 X217.526 S373
S0
G1 X217.653 S272
S0
G1 X217.780 S89
S0
G1 X218.034 S9
S0
G1 X218.161 S26
S0
G1 X218.288 S33
S0
G1 X218.415 S29
S0
G1 X218.542 S32
S0
G1 X218.669 S38
S0
G1 X218.796 S35
S0
G1 X218.923 S25
S0
G1 X219.050 S19
S0
G1 X219.177 S23
S0
G1 X219.304 S33
S0
G1 X219.431 S25
S0
G1 X219.685 S27
S0
G1 X219.812 S18
S0
G1 X219.939 S11
S0
G1 X220.066 S5
S0
G1 X220.193 S7
S0
G1 X220.320 S20
S0
G1 X220.447 S11
S0
G1 X220.701 S8
S0
G1 X220.828 S4
S0
G1 X220.955 S5
S0
G1 X221.082 S6
S0
G1 X221.209 S7
S0
G1 X221.336 S6
S0
G1 X221.717 S16
S0
G1 X221.844 S7
S0
G1 X221.971 S3
S0
G1 X222.098 S4
S0
G1 X222.225 S5
S0
G1 X222.352 S12
S0
G1 X222.479 S16
S0
G1 X222.606 S10
S0
G1 X222.733 S4
S0
G1 X222.860 S7
S0
G1 X222.987 S12
S0
G1 X223.114 S16
S0
G1 X223.241 S15
S0
G1 X223.368 S12
S0
G1 X223.495 S16
S0
G1 X223.622 S8
S0
G1 X223.749 S1
S0
G1 X223.876 S6
S0
G1 X224.003 S71
S0
G1 X224.130 S271
S0
G1 X224.257 S408
S0
G1 X224.384 S385
S0
G1 X224.511 S243
S0
G1 X224.638 S212
S0
G1 X224.765 S188
S0
G1 X224.892 S192
S0
G1 X225.019 S196
S0
G1 X225.146 S192
S0
G1 X225.273 S188
S0
G1 X225.400 S192
S0
G1 X225.527 S196
S0
G1 X225.654 S188
S0
G1 X225.781 S180
S0
G1 X225.908 S184
S0
G1 X226.035 S193
S0
G1 X226.162 S197
S0
G1 X226.289 S187
S0
G1 X226.416 S183
S0
G1 X226.543 S184
S0
G1 X226.670 S189
S0
G1 X226.797 S188
S0
G1 X226.924 S242
S0
G1 X227.051 S371
S0
G1 X227.178 S429
S0
G1 X227.305 S279
S0
G1 X227.432 S74
S0
G1 X227.940 S11
S0
G1 X228.067 S7
S0
G1 X228.194 S4
S0
G1 X232.766 S2
S0
G1 X233.274 S5
S0
G1 X237.592 S2
S0
G1 X237.846 S5
S0
G1 X238.354 S2
S0
G0 Y46.863
G0 X238.354 S0
G1 X237.846 S2
S0
G1 X237.592 S5
S0
G1 X234.544 S2
S0
G1 X233.528 S5
S0
G1 X233.274 S2
S0
G1 X232.766 S5
S0
G1 X228.194 S2
S0
G1 X228.067 S4
S0
G1 X227.940 S7
S0
G1 X227.432 S11
S0
G1 X227.305 S25
S0
G1 X227.178 S123
S0
G1 X227.051 S291
S0
G1 X226.924 S408
S0
G1 X226.797 S376
S0
G1 X226.670 S250
S0
G1 X226.543 S176
S0
G1 X226.416 S185
S0
G1 X226.162 S195
S0
G1 X226.035 S191
S0
G1 X225.908 S182
S0
G1 X225.781 S185
S0
G1 X225.654 S196
S0
G1 X225.527 S200
S0
G1 X225.273 S192
S0
G1 X225.019 S188
S0
G1 X224.892 S192
S0
G1 X224.765 S188
S0
G1 X224.638 S184
S0
G1 X224.511 S200
S0
G1 X224.384 S220
S0
G1 X224.257 S295
S0
G1 X224.130 S403
S0
G1 X224.003 S380
S0
G1 X223.876 S196
S0
G1 X223.749 S46
S0
G1 X223.622 S19
S0
G1 X223.495 S15
S0
G1 X223.368 S3
S0
G1 X223.241 S15
S0
G1 X223.114 S12
S0
G1 X222.987 S6
S0
G1 X222.860 S9
S0
G1 X222.733 S13
S0
G1 X222.606 S15
S0
G1 X222.479 S16
S0
G1 X222.352 S19
S0
G1 X222.098 S9
S0
G1 X221.971 S8
S0
G1 X221.844 S13
S0
G1 X221.717 S11
S0
G1 X221.590 S7
S0
G1 X221.463 S6
S0
G1 X221.336 S7
S0
G1 X221.209 S18
S0
G1 X221.082 S16
S0
G1 X220.955 S11
S0
G1 X220.828 S9
S0
G1 X220.701 S14
S0
G1 X220.574 S22
S0
G1 X220.447 S31
S0
G1 X220.320 S34
S0
G1 X220.193 S39
S0
G1 X220.066 S46
S0
G1 X219.939 S57
S0
G1 X219.812 S69
S0
G1 X219.685 S81
S0
G1 X219.558 S93
S0
G1 X219.431 S105
S0
G1 X219.304 S110
S0
G1 X219.177 S125
S0
G1 X219.050 S136
S0
G1 X218.923 S147
S0
G1 X218.796 S149
S0
G1 X218.669 S140
S0
G1 X218.542 S133
S0
G1 X218.415 S137
S0
G1 X218.288 S140
S0
G1 X218.161 S139
S0
G1 X218.034 S105
S0
G1 X217.907 S78
S0
G1 X217.780 S117
S0
G1 X217.653 S239
S0
G1 X217.526 S356
S0
G1 X217.399 S345
S0
G1 X217.272 S256
S0
G1 X217.145 S192
S0
G1 X216.891 S196
S0
G1 X216.637 S195
S0
G1 X216.510 S197
S0
G1 X215.113 S193
S0
G1 X214.986 S199
S0
G1 X214.859 S195
S0
G1 X214.732 S183
S0
G1 X214.605 S208
S0
G1 X214.478 S251
S0
G1 X214.351 S282
S0
G1 X214.224 S290
S0
G1 X214.097 S361
S0
G1 X213.970 S321
S0
G1 X213.843 S282
S0
G1 X213.716 S263
S0
G1 X213.589 S243
S0
G1 X213.462 S220
S0
G1 X213.335 S225
S0
G1 X213.208 S240
S0
G1 X213.081 S231
S0
G1 X212.954 S117
S0
G1 X212.827 S27
S0
G1 X212.700 S7
S0
G1 X212.573 S2
S0
G1 X212.446 S1
S0
G1 X212.319 S5
S0
G1 X212.192 S9
S0
G1 X210.160 S2
S0
G1 X209.144 S5
S0
G1 X208.509 S2
S0
G1 X207.874 S5
S0
G1 X207.366 S2
S0
G1 X207.112 S5
S0
G1 X204.064 S2
S0
G1 X201.016 S5
S0
G1 X200.000 S2
S0
G0 Y46.736
G0 X200.000 S0
G1 X205.080 S5
S0
G1 X206.096 S2
S0
G1 X207.366 S5
S0
G1 X207.874 S2
S0
G1 X208.509 S5
S0
G1 X209.144 S2
S0
G1 X212.319 S5
S0
G1 X212.573 S1
S0
G1 X212.700 S5
S0
G1 X212.827 S4
S0
G1 X212.954 S27
S0
G1 X213.081 S176
S0
G1 X213.208 S364
S0
G1 X213.335 S388
S0
G1 X213.462 S349
S0
G1 X213.589 S314
S0
G1 X213.716 S310
S0
G1 X213.843 S317
S0
G1 X213.970 S321
S0
G1 X214.097 S309
S0
G1 X214.224 S301
S0
G1 X214.351 S248
S0
G1 X214.478 S221
S0
G1 X214.605 S189
S0
G1 X214.732 S172
S0
G1 X214.859 S184
S0
G1 X214.986 S196
S0
G1 X215.113 S195
S0
G1 X215.240 S191
S0
G1 X216.256 S193
S0
G1 X216.383 S196
S0
G1 X216.510 S197
S0
G1 X216.764 S201
S0
G1 X216.891 S195
S0
G1 X217.018 S191
S0
G1 X217.145 S184
S0
G1 X217.272 S180
S0
G1 X217.399 S185
S0
G1 X217.526 S278
S0
G1 X217.653 S376
S0
G1 X217.780 S385
S0
G1 X217.907 S333
S0
G1 X218.034 S309
S0
G1 X218.161 S325
S0
G1 X218.288 S332
S0
G1 X218.415 S357
S0
G1 X218.542 S351
S0
G1 X218.669 S347
S0
G1 X218.796 S355
S0
G1 X218.923 S364
S0
G1 X219.050 S363
S0
G1 X219.177 S349
S0
G1 X219.304 S332
S0
G1 X219.431 S345
S0
G1 X219.558 S331
S0
G1 X219.685 S317
S0
G1 X219.812 S307
S0
G1 X219.939 S309
S0
G1 X220.066 S293
S0
G1 X220.193 S270
S0
G1 X220.320 S250
S0
G1 X220.447 S223
S0
G1 X220.574 S206
S0
G1 X220.701 S177
S0
G1 X220.828 S137
S0
G1 X220.955 S95
S0
G1 X221.082 S63
S0
G1 X221.209 S40
S0
G1 X221.336 S30
S0
G1 X221.463 S13
S0
G1 X221.590 S8
S0
G1 X221.717 S5
S0
G1 X221.844 S3
S0
G1 X221.971 S9
S0
G1 X222.098 S19
S0
G1 X222.352 S25
S0
G1 X222.479 S9
S0
G1 X222.606 S12
S0
G1 X222.860 S21
S0
G1 X222.987 S8
S0
G1 X223.114 S2
S0
G1 X223.241 S5
S0
G1 X223.368 S11
S0
G1 X223.495 S4
S0
G1 X223.622 S12
S0
G1 X223.749 S45
S0
G1 X223.876 S159
S0
G1 X224.003 S349
S0
G1 X224.130 S436
S0
G1 X224.257 S346
S0
G1 X224.384 S211
S0
G1 X224.511 S192
S0
G1 X224.638 S184
S0
G1 X224.765 S180
S0
G1 X225.273 S188
S0
G1 X225.400 S196
S0
G1 X225.527 S192
S0
G1 X225.781 S204
S0
G1 X225.908 S193
S0
G1 X226.035 S189
S0
G1 X226.289 S195
S0
G1 X226.416 S183
S0
G1 X226.543 S196
S0
G1 X226.670 S230
S0
G1 X226.797 S345
S0
G1 X226.924 S431
S0
G1 X227.051 S333
S0
G1 X227.178 S122
S0
G1 X227.305 S7
S0
G1 X227.432 S11
S0
G1 X227.559 S7
S0
G1 X227.940 S11
S0
G1 X228.067 S7
S0
G1 X228.194 S4
S0
G1 X228.448 S2
S0
G1 X230.480 S5
S0
G1 X232.766 S2
S0
G1 X233.274 S5
S0
G1 X233.528 S2
S0
G1 X237.846 S5
S0
G1 X238.354 S2
S0
G0 Y46.609
G0 X238.354 S0
G1 X237.846 S2
S0
G1 X234.544 S5
S0
G1 X233.528 S9
S0
G1 X233.274 S2
S0
G1 X232.766 S5
S0
G1 X230.480 S2
S0
G1 X228.448 S5
S0
G1 X228.321 S1
S0
G1 X228.067 S5
S0
G1 X227.940 S9
S0
G1 X227.686 S13
S0
G1 X227.432 S9
S0
G1 X227.305 S13
S0
G0 X227.178 S0
G1 X227.051 S35
S0
G1 X226.924 S169
S0
G1 X226.797 S339
S0
G1 X226.670 S410
S0
G1 X226.543 S341
S0
G1 X226.416 S233
S0
G1 X226.289 S180
S0
G1 X226.162 S184
S0
G1 X226.035 S195
S0
G1 X225.908 S203
S0
G1 X225.781 S205
S0
G1 X225.654 S197
S0
G1 X225.527 S193
S0
G1 X225.400 S192
S0
G1 X225.273 S195
S0
G1 X225.146 S187
S0
G1 X225.019 S183
S0
G1 X224.892 S187
S0
G1 X224.765 S191
S0
G1 X224.638 S187
S0
G1 X224.511 S183
S0
G1 X224.384 S179
S0
G1 X224.257 S196
S0
G1 X224.130 S247
S0
G1 X224.003 S365
S0
G1 X223.876 S422
S0
G1 X223.749 S311
S0
G1 X223.622 S116
S0
G1 X223.495 S18
S0
G1 X223.368 S12
S0
G1 X223.241 S2
S0
G1 X223.114 S3
S0
G1 X222.987 S5
S0
G1 X222.860 S16
S0
G1 X222.733 S23
S0
G1 X222.606 S20
S0
G1 X222.479 S15
S0
G1 X222.352 S16
S0
G1 X222.225 S12
S0
G1 X222.098 S16
S0
G1 X221.971 S23
S0
G1 X221.844 S35
S0
G1 X221.717 S52
S0
G1 X221.590 S86
S0
G1 X221.463 S125
S0
G1 X221.336 S153
S0
G1 X221.209 S198
S0
G1 X221.082 S218
S0
G1 X220.955 S250
S0
G1 X220.828 S286
S0
G1 X220.701 S320
S0
G1 X220.574 S343
S0
G1 X220.447 S360
S0
G1 X220.320 S369
S0
G1 X220.193 S407
S0
G1 X220.066 S413
S0
G1 X219.939 S419
S0
G1 X219.812 S417
S0
G1 X219.685 S410
S0
G1 X219.558 S407
S0
G1 X219.431 S405
S0
G1 X219.304 S411
S0
G1 X219.177 S390
S0
G1 X219.050 S385
S0
G1 X218.923 S390
S0
G1 X218.796 S398
S0
G1 X218.542 S405
S0
G1 X218.415 S398
S0
G1 X218.288 S389
S0
G1 X218.161 S383
S0
G1 X218.034 S466
S0
G1 X217.907 S493
S0
G1 X217.780 S443
S0
G1 X217.653 S363
S0
G1 X217.526 S272
S0
G1 X217.399 S200
S0
G1 X217.272 S188
S0
G1 X217.145 S179
S0
G1 X217.018 S183
S0
G1 X216.891 S187
S0
G1 X216.637 S197
S0
G1 X216.510 S201
S0
G1 X216.256 S196
S0
G1 X215.240 S193
S0
G1 X215.113 S200
S0
G1 X214.859 S188
S0
G1 X214.605 S201
S0
G1 X214.351 S187
S0
G1 X214.224 S195
S0
G1 X214.097 S176
S0
G1 X213.970 S221
S0
G1 X213.843 S246
S0
G1 X213.716 S248
S0
G1 X213.589 S262
S0
G1 X213.462 S325
S0
G1 X213.335 S397
S0
G1 X213.208 S436
S0
G1 X213.081 S298
S0
G1 X212.954 S133
S0
G1 X212.827 S15
S0
G1 X212.700 S9
S0
G1 X212.573 S13
S0
G1 X212.192 S2
S0
G1 X209.144 S5
S0
G1 X208.509 S2
S0
G1 X207.874 S5
S0
G1 X207.366 S2
S0
G1 X206.096 S5
S0
G1 X205.080 S2
S0
G1 X204.064 S5
S0
G1 X201.016 S9
S0
G1 X200.000 S5
S0
G0 Y46.482
G0 X200.000 S0
G1 X201.016 S5
S0
G1 X204.064 S9
S0
G1 X205.080 S5
S0
G1 X206.096 S2
S0
G1 X207.112 S9
S0
G1 X207.366 S5
S0
G1 X207.874 S2
S0
G1 X208.509 S5
S0
G1 X209.144 S2
S0
G1 X212.192 S5
S0
G1 X212.573 S2
S0
G1 X212.700 S5
S0
G1 X212.954 S13
S0
G1 X213.081 S55
S0
G1 X213.208 S129
S0
G1 X213.335 S317
S0
G1 X213.462 S362
S0
G1 X213.589 S348
S0
G1 X213.716 S261
S0
G1 X213.843 S192
S0
G1 X213.970 S188
S0
G1 X214.097 S195
S0
G1 X214.224 S185
S0
G1 X214.478 S182
S0
G1 X214.605 S201
S0
G1 X214.732 S216
S0
G1 X214.859 S204
S0
G1 X215.113 S180
S0
G1 X215.240 S200
S0
G1 X216.256 S193
S0
G1 X216.383 S196
S0
G1 X216.637 S192
S0
G1 X217.018 S189
S0
G1 X217.272 S191
S0
G1 X217.399 S212
S0
G1 X217.526 S173
S0
G1 X217.653 S178
S0
G1 X217.780 S248
S0
G1 X217.907 S356
S0
G1 X218.034 S450
S0
G1 X218.161 S426
S0
G1 X218.288 S323
S0
G1 X218.415 S267
S0
G1 X218.542 S268
S0
G1 X218.669 S262
S0
G1 X218.796 S260
S0
G1 X219.050 S256
S0
G1 X219.177 S264
S0
G1 X219.304 S271
S0
G1 X219.431 S272
S0
G1 X219.558 S279
S0
G1 X219.685 S290
S0
G1 X219.812 S295
S0
G1 X219.939 S300
S0
G1 X220.066 S307
S0
G1 X220.193 S324
S0
G1 X220.320 S335
S0
G1 X220.447 S350
S0
G1 X220.574 S363
S0
G1 X220.701 S375
S0
G1 X220.828 S386
S0
G1 X220.955 S394
S0
G1 X221.082 S398
S0
G1 X221.209 S393
S0
G1 X221.336 S391
S0
G1 X221.463 S347
S0
G1 X221.590 S321
S0
G1 X221.717 S273
S0
G1 X221.844 S223
S0
G1 X221.971 S172
S0
G1 X222.098 S120
S0
G1 X222.225 S74
S0
G1 X222.352 S46
S0
G1 X222.479 S43
S0
G1 X222.606 S18
S0
G1 X222.733 S7
S0
G1 X222.860 S9
S0
G1 X223.114 S12
S0
G1 X223.241 S16
S0
G1 X223.368 S27
S0
G1 X223.495 S19
S0
G1 X223.622 S94
S0
G1 X223.749 S272
S0
G1 X223.876 S415
S0
G1 X224.003 S388
S0
G1 X224.130 S259
S0
G1 X224.257 S189
S0
G1 X224.384 S193
S0
G1 X224.511 S183
S0
G1 X224.638 S191
S0
G1 X224.765 S199
S0
G1 X224.892 S195
S0
G1 X225.273 S187
S0
G1 X225.400 S191
S0
G1 X225.527 S193
S0
G1 X225.654 S182
S0
G1 X225.781 S189
S0
G1 X225.908 S203
S0
G1 X226.035 S191
S0
G1 X226.162 S172
S0
G1 X226.289 S192
S0
G1 X226.416 S235
S0
G1 X226.543 S333
S0
G1 X226.670 S403
S0
G1 X226.797 S370
S0
G1 X226.924 S184
S0
G1 X227.051 S40
S0
G1 X227.178 S17
S0
G1 X227.305 S19
S0
G1 X227.432 S5
S0
G1 X228.194 S9
S0
G1 X230.480 S5
S0
G1 X232.766 S2
S0
G1 X233.274 S5
S0
G1 X233.528 S2
S0
G1 X235.560 S9
S0
G1 X237.846 S5
S0
G1 X238.354 S2
S0
G0 Y46.355
G0 X238.354 S0
G1 X237.846 S2
S0
G1 X235.560 S5
S0
G1 X234.544 S9
S0
G1 X233.528 S5
S0
G1 X233.274 S2
S0
G1 X232.766 S5
S0
G1 X230.480 S2
S0
G1 X228.194 S5
S0
G1 X227.686 S9
S0
G1 X227.432 S5
S0
G1 X227.305 S2
S0
G1 X227.178 S16
S0
G1 X227.051 S5
S0
G1 X226.924 S3
S0
G1 X226.797 S52
S0
G1 X226.670 S207
S0
G1 X226.543 S360
S0
G1 X226.416 S435
S0
G1 X226.289 S334
S0
G1 X226.162 S248
S0
G1 X225.908 S172
S0
G1 X225.654 S195
S0
G1 X225.527 S187
S0
G1 X225.273 S189
S0
G1 X225.146 S193
S0
G1 X224.892 S189
S0
G1 X224.765 S197
S0
G1 X224.638 S205
S0
G1 X224.511 S201
S0
G1 X224.384 S189
S0
G1 X224.257 S177
S0
G1 X224.130 S193
S0
G1 X224.003 S215
S0
G1 X223.876 S293
S0
G1 X223.749 S411
S0
G1 X223.622 S412
S0
G1 X223.495 S242
S0
G1 X223.368 S67
S0
G1 X223.241 S16
S0
G1 X223.114 S5
S0
G1 X222.987 S6
S0
G1 X222.860 S17
S0
G1 X222.733 S33
S0
G1 X222.606 S55
S0
G1 X222.479 S106
S0
G1 X222.352 S153
S0
G1 X222.225 S239
S0
G1 X222.098 S272
S0
G1 X221.971 S324
S0
G1 X221.844 S371
S0
G1 X221.717 S398
S0
G1 X221.590 S401
S0
G1 X221.463 S395
S0
G1 X221.336 S386
S0
G1 X221.209 S354
S0
G1 X221.082 S346
S0
G1 X220.955 S332
S0
G1 X220.828 S308
S0
G1 X220.701 S291
S0
G1 X220.574 S275
S0
G1 X220.447 S267
S0
G1 X220.320 S260
S0
G1 X220.193 S232
S0
G1 X220.066 S217
S0
G1 X219.939 S200
S0
G1 X219.812 S197
S0
G1 X219.685 S205
S0
G1 X219.558 S209
S0
G1 X219.431 S202
S0
G1 X219.304 S192
S0
G1 X219.177 S196
S0
G1 X219.050 S206
S0
G1 X218.923 S203
S0
G1 X218.796 S190
S0
G1 X218.669 S178
S0
G1 X218.542 S181
S0
G1 X218.415 S213
S0
G1 X218.288 S245
S0
G1 X218.161 S366
S0
G1 X218.034 S379
S0
G1 X217.907 S337
S0
G1 X217.780 S250
S0
G1 X217.653 S196
S0
G1 X217.399 S187
S0
G1 X217.272 S192
S0
G1 X217.145 S199
S0
G1 X217.018 S197
S0
G1 X216.891 S193
S0
G1 X216.764 S185
S0
G1 X216.510 S184
S0
G1 X216.383 S188
S0
G1 X216.256 S192
S0
G1 X215.240 S193
S0
G1 X215.113 S192
S0
G1 X214.859 S180
S0
G1 X214.732 S192
S0
G1 X214.605 S197
S0
G1 X214.478 S185
S0
G1 X214.351 S183
S0
G1 X214.224 S191
S0
G1 X214.097 S180
S0
G1 X213.970 S172
S0
G1 X213.843 S181
S0
G1 X213.716 S243
S0
G1 X213.589 S346
S0
G1 X213.462 S376
S0
G1 X213.335 S267
S0
G1 X213.208 S125
S0
G1 X213.081 S24
S0
G1 X212.954 S13
S0
G1 X212.827 S16
S0
G1 X212.700 S12
S0
G1 X212.446 S2
S0
G1 X212.319 S15
S0
G1 X212.192 S7
S0
G1 X209.144 S5
S0
G1 X208.509 S2
S0
G1 X207.874 S5
S0
G1 X207.366 S2
S0
G1 X207.112 S5
S0
G1 X206.096 S9
S0
G1 X205.080 S2
S0
G1 X200.000 S5
S0
G0 Y46.228
G0 X200.000 S0
G1 X201.016 S9
S0
G1 X204.064 S5
S0
G1 X205.080 S9
S0
G1 X206.096 S2
S0
G1 X207.366 S5
S0
G1 X207.874 S2
S0
G1 X208.509 S5
S0
G1 X209.144 S2
S0
G1 X210.160 S5
S0
G1 X212.192 S9
S0
G1 X212.319 S7
S0
G1 X212.446 S15
S0
G1 X212.700 S2
S0
G1 X212.954 S16
S0
G1 X213.081 S5
S0
G1 X213.208 S13
S0
G1 X213.335 S30
S0
G1 X213.462 S149
S0
G1 X213.589 S299
S0
G1 X213.716 S381
S0
G1 X213.843 S352
S0
G1 X213.970 S266
S0
G1 X214.097 S195
S0
G1 X214.224 S173
S0
G1 X214.351 S196
S0
G1 X214.478 S184
S0
G1 X214.605 S175
S0
G1 X214.732 S179
S0
G1 X215.113 S189
S0
G1 X215.240 S192
S0
G1 X216.256 S193
S0
G1 X216.891 S188
S0
G1 X217.272 S193
S0
G1 X217.399 S177
S0
G1 X217.526 S200
S0
G1 X217.653 S204
S0
G1 X217.780 S195
S0
G1 X217.907 S212
S0
G1 X218.034 S259
S0
G1 X218.161 S337
S0
G1 X218.288 S406
S0
G1 X218.415 S336
S0
G1 X218.542 S284
S0
G1 X218.669 S221
S0
G1 X218.796 S183
S0
G1 X218.923 S181
S0
G1 X219.177 S189
S0
G1 X219.304 S190
S0
G1 X219.558 S194
S0
G1 X219.685 S193
S0
G1 X219.812 S189
S0
G1 X219.939 S188
S0
G1 X220.066 S187
S0
G1 X220.193 S189
S0
G1 X220.320 S190
S0
G1 X220.447 S184
S0
G1 X220.574 S186
S0
G1 X220.701 S187
S0
G1 X220.828 S193
S0
G1 X220.955 S202
S0
G1 X221.082 S213
S0
G1 X221.209 S229
S0
G1 X221.336 S240
S0
G1 X221.463 S273
S0
G1 X221.590 S299
S0
G1 X221.717 S336
S0
G1 X221.844 S365
S0
G1 X222.098 S386
S0
G1 X222.225 S382
S0
G1 X222.352 S374
S0
G1 X222.479 S332
S0
G1 X222.606 S290
S0
G1 X222.733 S238
S0
G1 X222.860 S183
S0
G1 X222.987 S113
S0
G1 X223.114 S48
S0
G1 X223.241 S20
S0
G1 X223.368 S31
S0
G1 X223.495 S207
S0
G1 X223.622 S372
S0
G1 X223.749 S428
S0
G1 X223.876 S313
S0
G1 X224.003 S211
S0
G1 X224.130 S204
S0
G1 X224.257 S201
S0
G1 X224.384 S181
S0
G1 X224.511 S189
S0
G1 X224.765 S201
S0
G1 X224.892 S189
S0
G1 X225.019 S185
S0
G1 X225.146 S193
S0
G1 X225.273 S197
S0
G1 X225.400 S189
S0
G1 X225.527 S187
S0
G1 X225.781 S195
S0
G1 X225.908 S184
S0
G1 X226.035 S188
S0
G1 X226.162 S240
S0
G1 X226.289 S330
S0
G1 X226.416 S397
S0
G1 X226.543 S369
S0
G1 X226.670 S220
S0
G1 X226.797 S58
S0
G1 X227.178 S2
S0
G1 X227.305 S7
S0
G1 X227.432 S19
S0
G1 X227.686 S5
S0
G1 X228.321 S9
S0
G1 X228.448 S5
S0
G1 X230.480 S9
S0
G1 X232.766 S2
S0
G1 X233.274 S5
S0
G1 X233.528 S2
S0
G1 X235.560 S5
S0
G1 X237.592 S9
S0
G1 X237.846 S5
S0
G1 X238.354 S2
S0
G0 Y46.101
G0 X238.354 S0
G1 X237.846 S2
S0
G1 X237.592 S5
S0
G1 X235.560 S9
S0
G1 X234.544 S5
S0
G1 X233.274 S2
S0
G1 X232.766 S5
S0
G1 X230.480 S2
S0
G1 X228.067 S9
S0
G1 X227.940 S12
S0
G1 X227.686 S9
S0
G1 X227.432 S5
S0
G1 X227.305 S25
S0
G1 X227.178 S13
S0
G1 X227.051 S16
S0
G1 X226.924 S23
S0
G1 X226.797 S3
S0
G1 X226.670 S4
S0
G1 X226.543 S89
S0
G1 X226.416 S196
S0
G1 X226.289 S405
S0
G1 X226.162 S393
S0
G1 X226.035 S323
S0
G1 X225.908 S227
S0
G1 X225.781 S176
S0
G1 X225.654 S187
S0
G1 X225.527 S195
S0
G1 X225.400 S183
S0
G1 X225.273 S189
S0
G1 X225.146 S197
S0
G1 X225.019 S193
S0
G1 X224.765 S182
S0
G1 X224.511 S193
S0
G1 X224.384 S185
S0
G1 X224.257 S205
S0
G1 X224.130 S187
S0
G1 X224.003 S189
S0
G1 X223.876 S176
S0
G1 X223.749 S219
S0
G1 X223.622 S361
S0
G1 X223.495 S423
S0
G1 X223.368 S349
S0
G1 X223.241 S180
S0
G1 X223.114 S165
S0
G1 X222.987 S191
S0
G1 X222.860 S277
S0
G1 X222.733 S354
S0
G1 X222.606 S383
S0
G1 X222.479 S385
S0
G1 X222.352 S394
S0
G1 X222.225 S334
S0
G1 X222.098 S311
S0
G1 X221.971 S271
S0
G1 X221.844 S237
S0
G1 X221.717 S213
S0
G1 X221.590 S192
S0
G1 X221.463 S182
S0
G1 X221.336 S169
S0
G1 X221.209 S176
S0
G1 X221.082 S179
S0
G1 X220.955 S181
S0
G1 X220.828 S180
S0
G1 X220.701 S186
S0
G1 X220.574 S185
S0
G1 X220.320 S183
S0
G1 X220.193 S179
S0
G1 X220.066 S189
S0
G1 X219.939 S200
S0
G1 X219.812 S201
S0
G1 X219.685 S190
S0
G1 X219.558 S184
S0
G1 X219.431 S188
S0
G1 X219.304 S195
S0
G1 X219.177 S201
S0
G1 X219.050 S186
S0
G1 X218.923 S177
S0
G1 X218.796 S186
S0
G1 X218.669 S225
S0
G1 X218.542 S295
S0
G1 X218.415 S370
S0
G1 X218.288 S424
S0
G1 X218.161 S320
S0
G1 X218.034 S240
S0
G1 X217.907 S197
S0
G1 X217.780 S188
S0
G1 X217.653 S172
S0
G1 X217.526 S178
S0
G1 X217.399 S197
S0
G1 X217.272 S196
S0
G1 X217.145 S185
S0
G1 X217.018 S189
S0
G1 X216.510 S192
S0
G1 X216.383 S188
S0
G1 X216.256 S184
S0
G1 X215.240 S193
S0
G1 X214.986 S201
S0
G1 X214.859 S195
S0
G1 X214.732 S191
S0
G1 X214.478 S192
S0
G1 X214.351 S184
S0
G1 X214.224 S181
S0
G1 X214.097 S212
S0
G1 X213.970 S267
S0
G1 X213.843 S365
S0
G1 X213.716 S408
S0
G1 X213.589 S306
S0
G1 X213.462 S125
S0
G1 X213.335 S24
S0
G1 X213.208 S11
S0
G1 X213.081 S32
S0
G1 X212.827 S5
S0
G1 X212.700 S16
S0
G1 X212.446 S5
S0
G1 X212.319 S7
S0
G1 X212.192 S5
S0
G1 X210.160 S9
S0
G1 X209.144 S5
S0
G1 X208.509 S2
S0
G1 X207.874 S5
S0
G1 X207.366 S2
S0
G1 X206.096 S5
S0
G1 X205.080 S2
S0
G1 X204.064 S9
S0
G1 X201.016 S2
S0
G1 X200.000 S9
S0
G0 Y45.974
G0 X200.000 S0
G1 X210.160 S2
S0
G0 X211.176 S0
G1 X211.303 S9
S0
G1 X211.430 S7
S0
G1 X211.557 S9
S0
G1 X211.684 S8
S0
G1 X211.811 S4
S0
G1 X211.938 S5
S0
G1 X212.065 S7
S0
G1 X212.192 S11
S0
G1 X212.319 S6
S0
G1 X212.446 S7
S0
G1 X212.700 S12
S0
G1 X212.827 S16
S0
G1 X212.954 S14
S0
G1 X213.081 S15
S0
G1 X213.208 S14
S0
G1 X213.335 S11
S0
G1 X213.462 S13
S0
G1 X213.589 S34
S0
G1 X213.716 S122
S0
G1 X213.843 S273
S0
G1 X213.970 S400
S0
G1 X214.097 S393
S0
G1 X214.224 S313
S0
G1 X214.351 S224
S0
G1 X214.478 S185
S0
G1 X214.605 S184
S0
G1 X214.732 S199
S0
G1 X214.859 S185
S0
G1 X214.986 S184
S0
G1 X215.113 S196
S0
G1 X215.240 S187
S0
G1 X215.621 S196
S0
G1 X215.748 S201
S0
G1 X215.875 S203
S0
G1 X216.002 S200
S0
G1 X216.129 S193
S0
G1 X216.256 S185
S0
G1 X217.272 S191
S0
G1 X218.288 S195
S0
G1 X218.415 S328
S0
G1 X218.542 S379
S0
G1 X218.669 S401
S0
G1 X218.796 S346
S0
G1 X218.923 S256
S0
G1 X219.050 S197
S0
G1 X219.177 S189
S0
G1 X219.304 S196
S0
G1 X219.431 S169
S0
G1 X219.558 S184
S0
G1 X219.685 S196
S0
G1 X219.812 S197
S0
G1 X219.939 S193
S0
G1 X220.066 S192
S0
G1 X220.193 S195
S0
G1 X220.320 S191
S0
G1 X220.447 S183
S0
G1 X220.574 S181
S0
G1 X220.701 S172
S0
G1 X220.828 S181
S0
G1 X220.955 S190
S0
G1 X221.082 S188
S0
G1 X221.336 S189
S0
G1 X221.463 S199
S0
G1 X221.590 S205
S0
G1 X221.717 S209
S0
G1 X221.844 S213
S0
G1 X221.971 S217
S0
G1 X222.098 S222
S0
G1 X222.352 S221
S0
G1 X222.479 S273
S0
G1 X222.606 S280
S0
G1 X222.733 S330
S0
G1 X222.860 S387
S0
G1 X222.987 S399
S0
G1 X223.114 S395
S0
G1 X223.241 S396
S0
G1 X223.368 S384
S0
G1 X223.495 S443
S0
G1 X223.622 S325
S0
G1 X223.749 S231
S0
G1 X223.876 S196
S0
G1 X224.003 S176
S0
G1 X224.130 S181
S0
G1 X224.257 S193
S0
G1 X224.384 S201
S0
G1 X224.511 S205
S0
G1 X224.638 S189
S0
G1 X224.765 S181
S0
G1 X225.019 S189
S0
G1 X225.146 S176
S0
G1 X225.273 S180
S0
G1 X225.400 S196
S0
G1 X225.654 S184
S0
G1 X225.781 S193
S0
G1 X225.908 S223
S0
G1 X226.035 S325
S0
G1 X226.162 S438
S0
G1 X226.289 S388
S0
G1 X226.416 S224
S0
G1 X226.543 S41
S0
G1 X226.670 S21
S0
G1 X226.797 S6
S0
G1 X226.924 S3
S0
G1 X227.051 S4
S0
G1 X227.178 S13
S0
G1 X227.305 S9
S0
G1 X227.432 S1
S0
G1 X228.448 S5
S0
G1 X238.354 S2
S0
G0 Y45.847
G0 X238.354 S0
G1 X228.448 S2
S0
G1 X227.432 S5
S0
G1 X227.305 S1
S0
G1 X227.051 S5
S0
G1 X226.797 S3
S0
G1 X226.670 S8
S0
G1 X226.543 S17
S0
G1 X226.416 S33
S0
G1 X226.289 S87
S0
G1 X226.162 S232
S0
G1 X226.035 S378
S0
G1 X225.908 S411
S0
G1 X225.781 S338
S0
G1 X225.654 S232
S0
G1 X225.527 S180
S0
G1 X225.400 S185
S0
G1 X225.273 S193
S0
G1 X225.146 S188
S0
G1 X225.019 S187
S0
G1 X224.892 S193
S0
G1 X224.765 S197
S0
G1 X224.638 S192
S0
G1 X224.511 S187
S0
G1 X224.384 S185
S0
G1 X224.257 S175
S0
G1 X224.130 S191
S0
G1 X224.003 S195
S0
G1 X223.749 S192
S0
G1 X223.622 S204
S0
G1 X223.495 S264
S0
G1 X223.368 S350
S0
G1 X223.241 S460
S0
G1 X223.114 S458
S0
G1 X222.987 S395
S0
G1 X222.860 S292
S0
G1 X222.733 S236
S0
G1 X222.606 S218
S0
G1 X222.479 S225
S0
G1 X222.352 S244
S0
G1 X222.225 S304
S0
G1 X222.098 S316
S0
G1 X221.971 S331
S0
G1 X221.844 S352
S0
G1 X221.717 S364
S0
G1 X221.590 S367
S0
G1 X221.463 S363
S0
G1 X221.336 S362
S0
G1 X221.209 S331
S0
G1 X221.082 S319
S0
G1 X220.955 S287
S0
G1 X220.828 S246
S0
G1 X220.701 S205
S0
G1 X220.574 S185
S0
G1 X220.447 S179
S0
G1 X220.320 S174
S0
G1 X220.193 S192
S0
G1 X219.939 S184
S0
G1 X219.812 S195
S0
G1 X219.685 S193
S0
G1 X219.558 S181
S0
G1 X219.431 S185
S0
G1 X219.304 S206
S0
G1 X219.177 S170
S0
G1 X219.050 S229
S0
G1 X218.923 S307
S0
G1 X218.796 S371
S0
G1 X218.669 S394
S0
G1 X218.542 S365
S0
G1 X218.415 S282
S0
G1 X218.288 S208
S0
G1 X217.272 S195
S0
G1 X216.256 S191
S0
G1 X216.129 S177
S0
G1 X216.002 S184
S0
G1 X215.875 S192
S0
G1 X215.748 S199
S0
G1 X215.621 S197
S0
G1 X215.494 S193
S0
G1 X215.367 S184
S0
G1 X215.240 S180
S0
G1 X215.113 S195
S0
G1 X214.859 S209
S0
G1 X214.732 S187
S0
G1 X214.605 S175
S0
G1 X214.478 S189
S0
G1 X214.351 S254
S0
G1 X214.224 S337
S0
G1 X214.097 S426
S0
G1 X213.970 S438
S0
G1 X213.843 S367
S0
G1 X213.716 S203
S0
G1 X213.589 S55
S0
G1 X213.462 S16
S0
G1 X213.335 S13
S0
G1 X213.208 S23
S0
G1 X213.081 S13
S0
G1 X212.954 S5
S0
G1 X212.827 S2
S0
G1 X212.700 S8
S0
G1 X212.573 S15
S0
G1 X212.192 S16
S0
G1 X212.065 S12
S0
G1 X211.938 S8
S0
G1 X211.811 S3
S0
G1 X211.684 S6
S0
G1 X211.557 S7
S0
G1 X211.430 S11
S0
G1 X211.176 S10
S0
G0 X210.160 S0
G1 X200.000 S2
S0
G0 Y45.720
G0 X200.000 S0
G1 X210.160 S2
S0
G0 X211.176 S0
G1 X211.303 S7
S0
G1 X211.430 S11
S0
G1 X211.557 S13
S0
G1 X211.684 S9
S0
G1 X211.811 S4
S0
G1 X211.938 S6
S0
G1 X212.065 S13
S0
G1 X212.192 S20
S0
G1 X212.319 S8
S0
G1 X212.446 S5
S0
G1 X212.573 S6
S0
G1 X212.700 S23
S0
G1 X212.827 S27
S0
G1 X212.954 S13
S0
G1 X213.208 S4
S0
G1 X213.335 S36
S0
G1 X213.462 S73
S0
G1 X213.589 S136
S0
G1 X213.716 S207
S0
G1 X213.843 S300
S0
G1 X213.970 S399
S0
G1 X214.097 S451
S0
G1 X214.224 S450
S0
G1 X214.351 S427
S0
G1 X214.478 S356
S0
G1 X214.605 S256
S0
G1 X214.732 S196
S0
G1 X214.859 S189
S0
G1 X214.986 S188
S0
G1 X215.113 S191
S0
G1 X215.240 S207
S0
G1 X215.367 S189
S0
G1 X215.494 S193
S0
G1 X215.621 S197
S0
G1 X215.748 S195
S0
G1 X215.875 S191
S0
G1 X216.002 S188
S0
G1 X216.129 S184
S0
G1 X216.256 S180
S0
G1 X217.272 S191
S0
G1 X218.288 S193
S0
G1 X218.415 S161
S0
G1 X218.542 S200
S0
G1 X218.669 S271
S0
G1 X218.796 S344
S0
G1 X218.923 S394
S0
G1 X219.050 S392
S0
G1 X219.177 S332
S0
G1 X219.304 S269
S0
G1 X219.431 S216
S0
G1 X219.558 S177
S0
G1 X219.685 S171
S0
G1 X219.812 S188
S0
G1 X219.939 S192
S0
G1 X220.066 S176
S0
G1 X220.193 S168
S0
G1 X220.320 S186
S0
G1 X220.447 S222
S0
G1 X220.574 S265
S0
G1 X220.701 S304
S0
G1 X220.828 S319
S0
G1 X220.955 S333
S0
G1 X221.082 S355
S0
G1 X221.209 S377
S0
G1 X221.336 S378
S0
G1 X221.463 S369
S0
G1 X221.590 S373
S0
G1 X221.717 S380
S0
G1 X221.844 S389
S0
G1 X221.971 S391
S0
G1 X222.098 S392
S0
G1 X222.225 S388
S0
G1 X222.352 S387
S0
G1 X222.479 S375
S0
G1 X222.606 S347
S0
G1 X222.733 S300
S0
G1 X222.860 S258
S0
G1 X222.987 S288
S0
G1 X223.114 S389
S0
G1 X223.241 S434
S0
G1 X223.368 S396
S0
G1 X223.495 S256
S0
G1 X223.622 S209
S0
G1 X223.749 S185
S0
G1 X223.876 S193
S0
G1 X224.003 S197
S0
G1 X224.130 S207
S0
G1 X224.257 S200
S0
G1 X224.384 S168
S0
G1 X224.511 S191
S0
G1 X224.638 S195
S0
G1 X224.765 S193
S0
G1 X224.892 S188
S0
G1 X225.019 S187
S0
G1 X225.146 S196
S0
G1 X225.273 S191
S0
G1 X225.400 S184
S0
G1 X225.527 S181
S0
G1 X225.654 S239
S0
G1 X225.781 S342
S0
G1 X225.908 S428
S0
G1 X226.035 S397
S0
G1 X226.162 S228
S0
G1 X226.289 S64
S0
G1 X226.416 S7
S0
G1 X226.543 S17
S0
G1 X226.670 S13
S0
G1 X226.797 S7
S0
G1 X226.924 S4
S0
G1 X227.051 S2
S0
G1 X227.305 S1
S0
G1 X238.354 S2
S0
G0 Y45.593
G0 X238.354 S0
G1 X226.924 S2
S0
G1 X226.797 S9
S0
G1 X226.670 S11
S0
G1 X226.543 S7
S0
G1 X226.416 S5
S0
G1 X226.289 S14
S0
G1 X226.162 S5
S0
G1 X226.035 S62
S0
G1 X225.908 S227
S0
G1 X225.781 S377
S0
G1 X225.654 S431
S0
G1 X225.527 S361
S0
G1 X225.400 S239
S0
G1 X225.146 S184
S0
G1 X225.019 S188
S0
G1 X224.765 S195
S0
G1 X224.638 S188
S0
G1 X224.511 S191
S0
G1 X224.384 S199
S0
G1 X224.257 S185
S0
G1 X224.130 S209
S0
G1 X224.003 S205
S0
G1 X223.876 S189
S0
G1 X223.622 S193
S0
G1 X223.495 S188
S0
G1 X223.368 S204
S0
G1 X223.241 S271
S0
G1 X223.114 S376
S0
G1 X222.987 S427
S0
G1 X222.860 S402
S0
G1 X222.733 S397
S0
G1 X222.606 S414
S0
G1 X222.479 S410
S0
G1 X222.352 S399
S0
G1 X222.225 S345
S0
G1 X222.098 S333
S0
G1 X221.971 S308
S0
G1 X221.844 S285
S0
G1 X221.717 S267
S0
G1 X221.463 S253
S0
G1 X221.336 S246
S0
G1 X221.209 S267
S0
G1 X221.082 S293
S0
G1 X220.955 S321
S0
G1 X220.828 S337
S0
G1 X220.701 S352
S0
G1 X220.574 S364
S0
G1 X220.447 S338
S0
G1 X220.320 S304
S0
G1 X220.193 S257
S0
G1 X220.066 S221
S0
G1 X219.939 S189
S0
G1 X219.812 S173
S0
G1 X219.685 S177
S0
G1 X219.558 S201
S0
G1 X219.431 S252
S0
G1 X219.304 S301
S0
G1 X219.177 S410
S0
G1 X219.050 S403
S0
G1 X218.923 S373
S0
G1 X218.796 S301
S0
G1 X218.669 S227
S0
G1 X218.542 S188
S0
G1 X218.415 S184
S0
G1 X218.288 S199
S0
G1 X217.272 S193
S0
G1 X216.256 S191
S0
G1 X216.129 S192
S0
G1 X215.875 S188
S0
G1 X215.748 S187
S0
G1 X215.621 S195
S0
G1 X215.494 S200
S0
G1 X215.367 S204
S0
G1 X215.113 S208
S0
G1 X214.986 S162
S0
G1 X214.859 S165
S0
G1 X214.732 S223
S0
G1 X214.605 S294
S0
G1 X214.478 S372
S0
G1 X214.351 S410
S0
G1 X214.224 S392
S0
G1 X214.097 S336
S0
G1 X213.970 S361
S0
G1 X213.843 S393
S0
G1 X213.716 S420
S0
G1 X213.589 S422
S0
G1 X213.462 S364
S0
G1 X213.335 S238
S0
G1 X213.208 S127
S0
G1 X213.081 S70
S0
G1 X212.954 S35
S0
G1 X212.827 S13
S0
G1 X212.700 S10
S0
G1 X212.573 S8
S0
G1 X212.446 S5
S0
G1 X212.319 S7
S0
G1 X212.192 S17
S0
G1 X212.065 S22
S0
G1 X211.938 S16
S0
G1 X211.811 S9
S0
G1 X211.557 S7
S0
G1 X211.430 S8
S0
G1 X211.303 S5
S0
G1 X211.176 S4
S0
G0 X210.160 S0
G1 X200.000 S2
S0
G0 Y45.466
G0 X200.000 S0
G1 X210.160 S2
S0
G0 X211.176 S0
G1 X211.430 S4
S0
G1 X211.557 S8
S0
G1 X211.684 S11
S0
G1 X211.811 S7
S0
G1 X211.938 S4
S0
G1 X212.065 S8
S0
G1 X212.192 S14
S0
G1 X212.319 S24
S0
G1 X212.446 S19
S0
G1 X212.700 S16
S0
G1 X212.827 S32
S0
G1 X212.954 S76
S0
G1 X213.081 S170
S0
G1 X213.208 S261
S0
G1 X213.335 S344
S0
G1 X213.462 S385
S0
G1 X213.589 S417
S0
G1 X213.716 S398
S0
G1 X213.843 S333
S0
G1 X213.970 S272
S0
G1 X214.097 S234
S0
G1 X214.224 S218
S0
G1 X214.351 S273
S0
G1 X214.478 S365
S0
G1 X214.605 S422
S0
G1 X214.732 S404
S0
G1 X214.859 S337
S0
G1 X214.986 S239
S0
G1 X215.113 S179
S0
G1 X215.240 S183
S0
G1 X215.367 S194
S0
G1 X215.494 S193
S0
G1 X215.621 S197
S0
G1 X215.748 S196
S0
G1 X215.875 S195
S0
G1 X216.256 S192
S0
G1 X217.272 S191
S0
G1 X218.288 S192
S0
G1 X218.415 S203
S0
G1 X218.542 S190
S0
G1 X218.669 S173
S0
G1 X218.796 S183
S0
G1 X218.923 S223
S0
G1 X219.050 S285
S0
G1 X219.177 S348
S0
G1 X219.304 S393
S0
G1 X219.431 S415
S0
G1 X219.558 S388
S0
G1 X219.685 S321
S0
G1 X219.812 S253
S0
G1 X219.939 S226
S0
G1 X220.066 S257
S0
G1 X220.193 S304
S0
G1 X220.320 S332
S0
G1 X220.447 S306
S0
G1 X220.574 S300
S0
G1 X220.701 S278
S0
G1 X220.828 S249
S0
G1 X220.955 S234
S0
G1 X221.082 S228
S0
G1 X221.209 S203
S0
G1 X221.336 S175
S0
G1 X221.463 S203
S0
G1 X221.590 S199
S0
G1 X221.717 S192
S0
G1 X221.844 S187
S0
G1 X221.971 S193
S0
G1 X222.098 S204
S0
G1 X222.225 S214
S0
G1 X222.352 S223
S0
G1 X222.479 S266
S0
G1 X222.606 S294
S0
G1 X222.733 S357
S0
G1 X222.860 S419
S0
G1 X222.987 S454
S0
G1 X223.114 S443
S0
G1 X223.241 S341
S0
G1 X223.368 S208
S0
G1 X223.622 S181
S0
G1 X223.876 S200
S0
G1 X224.003 S184
S0
G1 X224.130 S192
S0
G1 X224.257 S207
S0
G1 X224.384 S200
S0
G1 X224.511 S184
S0
G1 X224.638 S182
S0
G1 X224.765 S192
S0
G1 X224.892 S207
S0
G1 X225.019 S192
S0
G1 X225.146 S181
S0
G1 X225.273 S207
S0
G1 X225.400 S258
S0
G1 X225.527 S376
S0
G1 X225.654 S427
S0
G1 X225.781 S370
S0
G1 X225.908 S207
S0
G1 X226.035 S62
S0
G1 X226.162 S5
S0
G1 X226.289 S2
S0
G1 X226.416 S36
S0
G1 X226.543 S4
S0
G1 X226.670 S5
S0
G1 X226.797 S12
S0
G1 X226.924 S9
S0
G0 X227.051 S0
G1 X238.354 S2
S0
G0 Y45.339
G0 X238.354 S0
G1 X237.592 S5
S0
G1 X235.560 S2
S0
G1 X234.544 S5
S0
G1 X233.528 S2
S0
G1 X231.496 S5
S0
G1 X230.480 S2
S0
G1 X228.448 S5
S0
G1 X227.051 S2
S0
G0 X226.924 S0
G1 X226.797 S7
S0
G1 X226.670 S8
S0
G1 X226.543 S4
S0
G1 X226.416 S2
S0
G1 X226.289 S7
S0
G1 X226.162 S8
S0
G1 X226.035 S9
S0
G1 X225.908 S12
S0
G1 X225.781 S54
S0
G1 X225.654 S188
S0
G1 X225.527 S352
S0
G1 X225.400 S455
S0
G1 X225.273 S388
S0
G1 X225.146 S298
S0
G1 X225.019 S204
S0
G1 X224.892 S176
S0
G1 X224.765 S184
S0
G1 X224.384 S188
S0
G1 X224.257 S196
S0
G1 X224.130 S200
S0
G1 X224.003 S188
S0
G1 X223.876 S189
S0
G1 X223.749 S205
S0
G1 X223.622 S195
S0
G1 X223.495 S179
S0
G1 X223.368 S191
S0
G1 X223.241 S266
S0
G1 X223.114 S356
S0
G1 X222.987 S415
S0
G1 X222.860 S391
S0
G1 X222.733 S321
S0
G1 X222.606 S235
S0
G1 X222.479 S192
S0
G1 X222.352 S201
S0
G1 X222.225 S177
S0
G1 X222.098 S180
S0
G1 X221.971 S184
S0
G1 X221.844 S188
S0
G1 X221.590 S193
S0
G1 X221.463 S195
S0
G1 X221.336 S197
S0
G1 X221.209 S188
S0
G1 X221.082 S172
S0
G1 X220.955 S164
S0
G1 X220.828 S192
S0
G1 X220.701 S236
S0
G1 X220.574 S262
S0
G1 X220.447 S263
S0
G1 X220.320 S252
S0
G1 X220.193 S278
S0
G1 X220.066 S320
S0
G1 X219.939 S352
S0
G1 X219.812 S368
S0
G1 X219.685 S392
S0
G1 X219.558 S415
S0
G1 X219.431 S394
S0
G1 X219.304 S356
S0
G1 X219.177 S269
S0
G1 X219.050 S236
S0
G1 X218.923 S201
S0
G1 X218.796 S191
S0
G1 X218.669 S196
S0
G1 X218.542 S192
S0
G1 X218.415 S189
S0
G1 X218.288 S184
S0
G1 X217.272 S192
S0
G1 X216.256 S191
S0
G1 X216.129 S181
S0
G1 X216.002 S192
S0
G1 X215.875 S200
S0
G1 X215.748 S204
S0
G1 X215.621 S193
S0
G1 X215.494 S186
S0
G1 X215.240 S176
S0
G1 X215.113 S208
S0
G1 X214.986 S270
S0
G1 X214.859 S369
S0
G1 X214.732 S429
S0
G1 X214.605 S424
S0
G1 X214.478 S360
S0
G1 X214.351 S268
S0
G1 X214.224 S186
S0
G1 X214.097 S178
S0
G1 X213.970 S181
S0
G1 X213.843 S194
S0
G1 X213.716 S216
S0
G1 X213.589 S255
S0
G1 X213.462 S311
S0
G1 X213.335 S379
S0
G1 X213.208 S426
S0
G1 X213.081 S423
S0
G1 X212.954 S372
S0
G1 X212.827 S285
S0
G1 X212.700 S184
S0
G1 X212.573 S97
S0
G1 X212.446 S35
S0
G1 X212.319 S1
S0
G1 X212.192 S6
S0
G1 X212.065 S5
S0
G1 X211.938 S4
S0
G1 X211.811 S2
S0
G1 X211.684 S8
S0
G1 X211.557 S12
S0
G1 X211.430 S17
S0
G1 X211.303 S12
S0
G1 X211.176 S8
S0
G0 X210.160 S0
G1 X208.128 S2
S0
G1 X207.112 S5
S0
G1 X206.096 S2
S0
G1 X200.000 S5
S0
G0 Y45.212
G0 X200.000 S0
G1 X206.096 S5
S0
G1 X207.112 S2
S0
G1 X208.128 S5
S0
G1 X210.160 S2
S0
G0 X211.176 S0
G1 X211.303 S13
S0
G1 X211.430 S16
S0
G1 X211.557 S13
S0
G1 X211.684 S8
S0
G1 X211.811 S10
S0
G1 X211.938 S14
S0
G1 X212.065 S20
S0
G1 X212.192 S32
S0
G1 X212.319 S40
S0
G1 X212.446 S82
S0
G1 X212.573 S169
S0
G1 X212.700 S262
S0
G1 X212.827 S358
S0
G1 X212.954 S422
S0
G1 X213.081 S419
S0
G1 X213.208 S382
S0
G1 X213.335 S316
S0
G1 X213.462 S260
S0
G1 X213.589 S209
S0
G1 X213.716 S200
S0
G1 X213.843 S201
S0
G1 X213.970 S197
S0
G1 X214.097 S185
S0
G1 X214.224 S181
S0
G1 X214.351 S170
S0
G1 X214.478 S189
S0
G1 X214.605 S248
S0
G1 X214.732 S325
S0
G1 X214.859 S391
S0
G1 X214.986 S413
S0
G1 X215.113 S376
S0
G1 X215.240 S315
S0
G1 X215.367 S228
S0
G1 X215.494 S208
S0
G1 X215.621 S188
S0
G1 X215.748 S185
S0
G1 X215.875 S192
S0
G1 X216.002 S196
S0
G1 X216.129 S193
S0
G1 X216.256 S185
S0
G1 X217.272 S191
S0
G1 X218.288 S188
S0
G1 X218.415 S187
S0
G1 X218.542 S188
S0
G1 X218.669 S197
S0
G1 X218.796 S201
S0
G1 X218.923 S187
S0
G1 X219.050 S172
S0
G1 X219.177 S184
S0
G1 X219.304 S204
S0
G1 X219.431 S227
S0
G1 X219.558 S283
S0
G1 X219.685 S351
S0
G1 X219.812 S403
S0
G1 X219.939 S427
S0
G1 X220.066 S406
S0
G1 X220.193 S340
S0
G1 X220.320 S277
S0
G1 X220.447 S284
S0
G1 X220.574 S314
S0
G1 X220.701 S349
S0
G1 X220.828 S341
S0
G1 X220.955 S271
S0
G1 X221.082 S196
S0
G1 X221.209 S181
S0
G1 X221.336 S204
S0
G1 X221.463 S182
S0
G1 X221.590 S185
S0
G1 X221.717 S189
S0
G1 X221.971 S197
S0
G1 X222.352 S196
S0
G1 X222.479 S195
S0
G1 X222.606 S175
S0
G1 X222.733 S188
S0
G1 X222.860 S223
S0
G1 X222.987 S287
S0
G1 X223.114 S365
S0
G1 X223.241 S405
S0
G1 X223.368 S392
S0
G1 X223.495 S279
S0
G1 X223.622 S220
S0
G1 X223.749 S191
S0
G1 X223.876 S195
S0
G1 X224.003 S191
S0
G1 X224.130 S193
S0
G1 X224.257 S201
S0
G1 X224.384 S193
S0
G1 X224.511 S197
S0
G1 X224.638 S196
S0
G1 X224.892 S188
S0
G1 X225.019 S230
S0
G1 X225.146 S313
S0
G1 X225.273 S388
S0
G1 X225.400 S424
S0
G1 X225.527 S333
S0
G1 X225.654 S185
S0
G1 X225.781 S47
S0
G1 X225.908 S11
S0
G1 X226.162 S16
S0
G1 X226.289 S9
S0
G1 X226.416 S2
S0
G1 X226.797 S4
S0
G1 X226.924 S3
S0
G0 X227.051 S0
G1 X227.305 S2
S0
G1 X230.480 S5
S0
G1 X231.496 S2
S0
G1 X233.528 S5
S0
G1 X234.544 S2
S0
G1 X235.560 S5
S0
G1 X237.592 S2
S0
G1 X238.354 S5
S0
G0 Y45.085
G0 X238.354 S0
G1 X237.592 S5
S0
G1 X235.560 S2
S0
G1 X234.544 S5
S0
G1 X233.528 S2
S0
G1 X231.496 S5
S0
G1 X230.480 S2
S0
G1 X227.432 S5
S0
G1 X227.305 S7
S0
G1 X227.051 S5
S0
G1 X226.924 S3
S0
G0 X226.797 S0
G1 X226.543 S4
S0
G1 X226.416 S8
S0
G1 X226.289 S20
S0
G1 X226.162 S6
S0
G1 X226.035 S3
S0
G1 X225.908 S12
S0
G1 X225.781 S27
S0
G1 X225.654 S11
S0
G1 X225.527 S50
S0
G1 X225.400 S149
S0
G1 X225.273 S348
S0
G1 X225.146 S422
S0
G1 X225.019 S438
S0
G1 X224.892 S344
S0
G1 X224.765 S239
S0
G1 X224.638 S201
S0
G1 X224.511 S188
S0
G1 X224.384 S173
S0
G1 X224.257 S197
S0
G1 X224.130 S205
S0
G1 X224.003 S197
S0
G1 X223.876 S188
S0
G1 X223.749 S184
S0
G1 X223.622 S192
S0
G1 X223.495 S270
S0
G1 X223.368 S376
S0
G1 X223.241 S436
S0
G1 X223.114 S393
S0
G1 X222.987 S282
S0
G1 X222.860 S188
S0
G1 X222.733 S176
S0
G1 X222.606 S196
S0
G1 X222.479 S198
S0
G1 X222.225 S195
S0
G1 X222.098 S193
S0
G1 X221.971 S189
S0
G1 X221.844 S184
S0
G1 X221.717 S185
S0
G1 X221.590 S192
S0
G1 X221.463 S197
S0
G1 X221.336 S200
S0
G1 X221.209 S184
S0
G1 X221.082 S200
S0
G1 X220.955 S263
S0
G1 X220.828 S357
S0
G1 X220.701 S409
S0
G1 X220.574 S396
S0
G1 X220.447 S380
S0
G1 X220.320 S387
S0
G1 X220.193 S409
S0
G1 X220.066 S416
S0
G1 X219.939 S408
S0
G1 X219.812 S361
S0
G1 X219.685 S287
S0
G1 X219.558 S223
S0
G1 X219.431 S200
S0
G1 X219.177 S205
S0
G1 X219.050 S196
S0
G1 X218.923 S192
S0
G1 X218.796 S200
S0
G1 X218.669 S197
S0
G1 X218.542 S184
S0
G1 X218.415 S187
S0
G1 X218.288 S205
S0
G1 X217.272 S188
S0
G1 X216.256 S191
S0
G1 X216.129 S201
S0
G1 X216.002 S197
S0
G1 X215.875 S188
S0
G1 X215.621 S172
S0
G1 X215.494 S204
S0
G1 X215.367 S263
S0
G1 X215.240 S305
S0
G1 X215.113 S421
S0
G1 X214.986 S438
S0
G1 X214.859 S379
S0
G1 X214.732 S284
S0
G1 X214.605 S216
S0
G1 X214.478 S174
S0
G1 X214.351 S158
S0
G1 X214.224 S182
S0
G1 X214.097 S184
S0
G1 X213.970 S180
S0
G1 X213.843 S189
S0
G1 X213.716 S199
S0
G1 X213.589 S192
S0
G1 X213.462 S183
S0
G1 X213.335 S189
S0
G1 X213.208 S208
S0
G1 X213.081 S244
S0
G1 X212.954 S307
S0
G1 X212.827 S374
S0
G1 X212.700 S407
S0
G1 X212.573 S410
S0
G1 X212.446 S372
S0
G1 X212.319 S269
S0
G1 X212.192 S167
S0
G1 X212.065 S66
S0
G1 X211.938 S46
S0
G1 X211.811 S25
S0
G1 X211.684 S13
S0
G1 X211.557 S9
S0
G1 X211.430 S6
S0
G1 X211.303 S7
S0
G1 X211.176 S8
S0
G0 X210.160 S0
G1 X208.128 S2
S0
G1 X207.112 S5
S0
G1 X206.096 S2
S0
G1 X200.000 S5
S0
G0 Y44.958
G0 X200.000 S0
G1 X202.032 S9
S0
G1 X203.048 S5
S0
G1 X204.064 S9
S0
G1 X206.096 S5
S0
G1 X206.350 S12
S0
G1 X206.604 S9
S0
G1 X206.985 S5
S0
G1 X207.112 S2
S0
G1 X208.128 S5
S0
G1 X208.255 S9
S0
G1 X208.890 S5
S0
G1 X209.271 S2
S0
G1 X209.398 S1
S0
G1 X209.525 S3
S0
G1 X209.906 S2
S0
G1 X210.033 S7
S0
G1 X210.160 S10
S0
G1 X210.287 S9
S0
G1 X210.414 S16
S0
G1 X210.541 S13
S0
G1 X210.795 S9
S0
G1 X210.922 S14
S0
G1 X211.049 S12
S0
G1 X211.176 S2
S0
G1 X211.303 S19
S0
G1 X211.557 S14
S0
G1 X211.684 S15
S0
G1 X211.811 S27
S0
G1 X211.938 S69
S0
G1 X212.065 S180
S0
G1 X212.192 S282
S0
G1 X212.319 S370
S0
G1 X212.446 S390
S0
G1 X212.573 S395
S0
G1 X212.700 S371
S0
G1 X212.827 S312
S0
G1 X212.954 S252
S0
G1 X213.081 S213
S0
G1 X213.208 S195
S0
G1 X213.462 S189
S0
G1 X213.716 S190
S0
G1 X214.224 S189
S0
G1 X214.351 S177
S0
G1 X214.478 S180
S0
G1 X214.605 S185
S0
G1 X214.732 S181
S0
G1 X214.859 S193
S0
G1 X214.986 S248
S0
G1 X215.113 S332
S0
G1 X215.240 S393
S0
G1 X215.367 S423
S0
G1 X215.494 S375
S0
G1 X215.621 S298
S0
G1 X215.748 S221
S0
G1 X215.875 S186
S0
G1 X216.002 S189
S0
G1 X216.129 S199
S0
G1 X216.256 S196
S0
G1 X216.383 S183
S0
G1 X216.764 S185
S0
G1 X216.891 S191
S0
G1 X217.018 S199
S0
G1 X217.272 S201
S0
G1 X217.399 S195
S0
G1 X217.526 S191
S0
G1 X217.653 S187
S0
G1 X217.907 S183
S0
G1 X218.034 S187
S0
G1 X218.161 S191
S0
G1 X218.288 S195
S0
G1 X218.796 S189
S0
G1 X219.304 S193
S0
G1 X219.431 S184
S0
G1 X219.558 S189
S0
G1 X219.685 S197
S0
G1 X219.812 S204
S0
G1 X219.939 S224
S0
G1 X220.066 S267
S0
G1 X220.193 S321
S0
G1 X220.320 S360
S0
G1 X220.447 S400
S0
G1 X220.701 S428
S0
G1 X220.828 S463
S0
G1 X220.955 S447
S0
G1 X221.082 S357
S0
G1 X221.209 S271
S0
G1 X221.336 S181
S0
G1 X221.463 S203
S0
G1 X221.590 S188
S0
G1 X221.717 S184
S0
G1 X221.971 S191
S0
G1 X222.098 S188
S0
G1 X222.225 S195
S0
G1 X222.352 S211
S0
G1 X222.479 S183
S0
G1 X222.606 S175
S0
G1 X222.733 S187
S0
G1 X222.860 S197
S0
G1 X222.987 S173
S0
G1 X223.114 S176
S0
G1 X223.241 S279
S0
G1 X223.368 S400
S0
G1 X223.495 S447
S0
G1 X223.622 S381
S0
G1 X223.749 S254
S0
G1 X223.876 S175
S0
G1 X224.003 S186
S0
G1 X224.130 S201
S0
G1 X224.384 S192
S0
G1 X224.511 S180
S0
G1 X224.638 S204
S0
G1 X224.765 S275
S0
G1 X224.892 S376
S0
G1 X225.019 S447
S0
G1 X225.146 S456
S0
G1 X225.273 S410
S0
G1 X225.400 S374
S0
G1 X225.527 S183
S0
G1 X225.654 S99
S0
G1 X225.781 S22
S0
G1 X225.908 S8
S0
G1 X226.035 S12
S0
G1 X226.162 S6
S0
G1 X226.289 S2
S0
G1 X226.416 S12
S0
G1 X226.670 S6
S0
G1 X226.797 S5
S0
G1 X226.924 S4
S0
G1 X227.178 S2
S0
G1 X227.305 S7
S0
G1 X228.448 S9
S0
G1 X229.464 S5
S0
G1 X234.544 S9
S0
G1 X235.560 S5
S0
G1 X235.941 S2
S0
G1 X236.195 S5
S0
G1 X236.322 S9
S0
G1 X236.576 S12
S0
G1 X237.592 S9
S0
G1 X238.354 S2
S0
G0 Y44.831
G0 X238.354 S0
G1 X237.592 S2
S0
G1 X236.576 S9
S0
G1 X236.449 S12
S0
G1 X236.195 S9
S0
G1 X236.068 S5
S0
G1 X235.560 S2
S0
G1 X234.544 S5
S0
G1 X233.528 S9
S0
G1 X231.496 S5
S0
G1 X230.480 S9
S0
G1 X228.448 S5
S0
G1 X227.432 S9
S0
G1 X227.305 S12
S0
G1 X227.178 S7
S0
G1 X227.051 S5
S0
G1 X226.924 S4
S0
G1 X226.797 S8
S0
G1 X226.670 S17
S0
G1 X226.543 S20
S0
G1 X226.416 S21
S0
G1 X226.289 S15
S0
G1 X226.162 S29
S0
G1 X226.035 S24
S0
G1 X225.908 S20
S0
G1 X225.781 S42
S0
G1 X225.654 S118
S0
G1 X225.527 S249
S0
G1 X225.400 S350
S0
G1 X225.273 S393
S0
G1 X225.146 S365
S0
G1 X225.019 S361
S0
G1 X224.892 S398
S0
G1 X224.765 S427
S0
G1 X224.638 S387
S0
G1 X224.511 S302
S0
G1 X224.384 S230
S0
G1 X224.257 S200
S0
G1 X224.130 S188
S0
G1 X224.003 S189
S0
G1 X223.876 S194
S0
G1 X223.749 S226
S0
G1 X223.622 S325
S0
G1 X223.495 S419
S0
G1 X223.368 S455
S0
G1 X223.241 S365
S0
G1 X223.114 S275
S0
G1 X222.987 S197
S0
G1 X222.860 S181
S0
G1 X222.733 S184
S0
G1 X222.606 S183
S0
G1 X222.479 S191
S0
G1 X222.352 S212
S0
G1 X222.225 S199
S0
G1 X222.098 S191
S0
G1 X221.844 S184
S0
G1 X221.590 S191
S0
G1 X221.463 S188
S0
G1 X221.336 S184
S0
G1 X221.209 S227
S0
G1 X221.082 S329
S0
G1 X220.955 S391
S0
G1 X220.828 S423
S0
G1 X220.701 S391
S0
G1 X220.574 S325
S0
G1 X220.447 S313
S0
G1 X220.320 S301
S0
G1 X220.193 S242
S0
G1 X220.066 S223
S0
G1 X219.939 S201
S0
G1 X219.812 S189
S0
G1 X219.685 S185
S0
G1 X219.558 S189
S0
G1 X219.304 S185
S0
G1 X218.288 S197
S0
G1 X218.161 S199
S0
G1 X218.034 S195
S0
G1 X217.526 S191
S0
G1 X217.399 S195
S0
G1 X217.272 S199
S0
G1 X217.145 S209
S0
G1 X217.018 S193
S0
G1 X216.891 S185
S0
G1 X216.764 S192
S0
G1 X216.637 S204
S0
G1 X216.510 S208
S0
G1 X216.383 S203
S0
G1 X216.256 S199
S0
G1 X216.129 S175
S0
G1 X216.002 S184
S0
G1 X215.875 S208
S0
G1 X215.748 S263
S0
G1 X215.621 S349
S0
G1 X215.494 S415
S0
G1 X215.367 S423
S0
G1 X215.240 S399
S0
G1 X215.113 S295
S0
G1 X214.986 S257
S0
G1 X214.859 S209
S0
G1 X214.605 S182
S0
G1 X214.478 S189
S0
G1 X214.351 S184
S0
G1 X214.224 S180
S0
G1 X213.716 S189
S0
G1 X213.462 S190
S0
G1 X213.208 S189
S0
G1 X213.081 S188
S0
G1 X212.954 S187
S0
G1 X212.827 S185
S0
G1 X212.700 S205
S0
G1 X212.573 S248
S0
G1 X212.446 S312
S0
G1 X212.319 S370
S0
G1 X212.192 S410
S0
G1 X212.065 S390
S0
G1 X211.938 S336
S0
G1 X211.811 S250
S0
G1 X211.684 S152
S0
G1 X211.557 S70
S0
G1 X211.430 S23
S0
G1 X211.303 S9
S0
G1 X211.176 S17
S0
G1 X211.049 S7
S0
G1 X210.922 S16
S0
G1 X210.795 S20
S0
G1 X210.668 S11
S0
G1 X210.541 S5
S0
G1 X210.160 S4
S0
G1 X210.033 S17
S0
G1 X209.906 S8
S0
G1 X209.652 S2
S0
G1 X209.525 S5
S0
G1 X209.398 S7
S0
G1 X209.271 S4
S0
G1 X209.144 S1
S0
G1 X208.636 S2
S0
G1 X207.112 S5
S0
G1 X206.858 S2
S0
G1 X206.477 S5
S0
G1 X206.096 S9
S0
G1 X200.000 S5
S0
G0 Y44.704
G0 X200.000 S0
G1 X206.096 S2
S0
G1 X206.604 S5
S0
G1 X208.128 S2
S0
G1 X208.382 S5
S0
G1 X209.144 S2
S0
G1 X209.271 S4
S0
G1 X209.398 S8
S0
G1 X209.525 S11
S0
G1 X209.652 S7
S0
G1 X209.906 S5
S0
G1 X210.033 S12
S0
G1 X210.160 S19
S0
G1 X210.287 S20
S0
G1 X210.414 S12
S0
G1 X210.541 S8
S0
G1 X210.668 S9
S0
G1 X210.795 S7
S0
G1 X210.922 S4
S0
G1 X211.049 S5
S0
G1 X211.176 S8
S0
G1 X211.303 S19
S0
G1 X211.430 S62
S0
G1 X211.557 S144
S0
G1 X211.684 S250
S0
G1 X211.811 S347
S0
G1 X211.938 S408
S0
G1 X212.065 S406
S0
G1 X212.192 S382
S0
G1 X212.319 S299
S0
G1 X212.446 S257
S0
G1 X212.573 S205
S0
G1 X212.827 S178
S0
G1 X212.954 S189
S0
G1 X213.081 S196
S0
G1 X213.208 S199
S0
G1 X213.589 S190
S0
G1 X214.224 S189
S0
G1 X214.351 S185
S0
G1 X214.478 S189
S0
G1 X214.605 S193
S0
G1 X214.732 S196
S0
G1 X214.859 S187
S0
G1 X214.986 S183
S0
G1 X215.113 S194
S0
G1 X215.240 S205
S0
G1 X215.367 S253
S0
G1 X215.494 S327
S0
G1 X215.621 S405
S0
G1 X215.748 S427
S0
G1 X215.875 S380
S0
G1 X216.002 S310
S0
G1 X216.129 S247
S0
G1 X216.256 S212
S0
G1 X216.383 S187
S0
G1 X216.510 S183
S0
G1 X216.637 S196
S0
G1 X216.764 S207
S0
G1 X216.891 S199
S0
G1 X217.018 S182
S0
G1 X217.145 S180
S0
G1 X217.272 S197
S0
G1 X218.288 S183
S0
G1 X218.923 S189
S0
G1 X219.304 S185
S0
G1 X219.431 S192
S0
G1 X219.558 S196
S0
G1 X219.685 S200
S0
G1 X219.812 S204
S0
G1 X219.939 S200
S0
G1 X220.320 S197
S0
G1 X220.574 S203
S0
G1 X220.701 S231
S0
G1 X220.828 S317
S0
G1 X220.955 S388
S0
G1 X221.082 S419
S0
G1 X221.209 S391
S0
G1 X221.336 S293
S0
G1 X221.463 S193
S0
G1 X221.590 S201
S0
G1 X221.717 S205
S0
G1 X221.844 S197
S0
G1 X222.098 S189
S0
G1 X222.225 S193
S0
G1 X222.352 S201
S0
G1 X222.479 S197
S0
G1 X222.606 S185
S0
G1 X222.733 S183
S0
G1 X222.860 S200
S0
G1 X222.987 S228
S0
G1 X223.114 S260
S0
G1 X223.241 S309
S0
G1 X223.368 S349
S0
G1 X223.495 S415
S0
G1 X223.622 S442
S0
G1 X223.749 S392
S0
G1 X223.876 S280
S0
G1 X224.003 S187
S0
G1 X224.130 S177
S0
G1 X224.257 S216
S0
G1 X224.384 S264
S0
G1 X224.511 S338
S0
G1 X224.638 S408
S0
G1 X224.765 S475
S0
G1 X224.892 S459
S0
G1 X225.019 S363
S0
G1 X225.273 S281
S0
G1 X225.400 S319
S0
G1 X225.527 S394
S0
G1 X225.654 S378
S0
G1 X225.781 S315
S0
G1 X225.908 S199
S0
G1 X226.035 S78
S0
G1 X226.162 S20
S0
G1 X226.289 S11
S0
G1 X226.416 S24
S0
G1 X226.543 S7
S0
G1 X226.670 S5
S0
G1 X226.797 S4
S0
G1 X227.051 S6
S0
G1 X227.178 S5
S0
G1 X227.305 S9
S0
G1 X227.432 S20
S0
G1 X228.448 S5
S0
G1 X230.480 S2
S0
G1 X231.496 S5
S0
G1 X233.528 S2
S0
G1 X234.544 S5
S0
G1 X236.068 S2
S0
G1 X236.322 S5
S0
G1 X236.576 S9
S0
G1 X237.592 S5
S0
G1 X238.354 S2
S0
G0 Y44.577
G0 X238.354 S0
G1 X236.576 S2
S0
G1 X236.068 S5
S0
G1 X228.448 S2
S0
G1 X227.432 S5
S0
G1 X227.305 S8
S0
G1 X227.178 S3
S0
G1 X227.051 S6
S0
G1 X226.924 S7
S0
G1 X226.797 S6
S0
G1 X226.670 S2
S0
G1 X226.543 S3
S0
G1 X226.416 S6
S0
G1 X226.289 S21
S0
G1 X226.162 S28
S0
G1 X226.035 S106
S0
G1 X225.908 S255
S0
G1 X225.781 S383
S0
G1 X225.654 S411
S0
G1 X225.527 S360
S0
G1 X225.400 S303
S0
G1 X225.273 S268
S0
G1 X225.146 S281
S0
G1 X225.019 S324
S0
G1 X224.892 S396
S0
G1 X224.765 S443
S0
G1 X224.638 S456
S0
G1 X224.511 S443
S0
G1 X224.384 S437
S0
G1 X224.257 S384
S0
G1 X224.130 S309
S0
G1 X224.003 S231
S0
G1 X223.876 S235
S0
G1 X223.749 S336
S0
G1 X223.622 S438
S0
G1 X223.495 S441
S0
G1 X223.368 S370
S0
G1 X223.241 S353
S0
G1 X223.114 S349
S0
G1 X222.987 S330
S0
G1 X222.860 S298
S0
G1 X222.733 S259
S0
G1 X222.606 S224
S0
G1 X222.479 S201
S0
G1 X222.352 S189
S0
G1 X222.225 S205
S0
G1 X222.098 S189
S0
G1 X221.971 S185
S0
G1 X221.717 S189
S0
G1 X221.590 S185
S0
G1 X221.463 S205
S0
G1 X221.336 S232
S0
G1 X221.209 S352
S0
G1 X221.082 S415
S0
G1 X220.955 S411
S0
G1 X220.828 S356
S0
G1 X220.701 S301
S0
G1 X220.574 S231
S0
G1 X220.447 S184
S0
G1 X220.320 S172
S0
G1 X220.193 S188
S0
G1 X220.066 S192
S0
G1 X219.939 S197
S0
G1 X219.812 S201
S0
G1 X219.685 S196
S0
G1 X219.558 S192
S0
G1 X219.304 S188
S0
G1 X218.669 S183
S0
G1 X218.288 S187
S0
G1 X218.034 S183
S0
G1 X217.526 S187
S0
G1 X217.272 S183
S0
G1 X217.145 S205
S0
G1 X217.018 S197
S0
G1 X216.891 S191
S0
G1 X216.764 S195
S0
G1 X216.637 S180
S0
G1 X216.510 S173
S0
G1 X216.383 S195
S0
G1 X216.256 S236
S0
G1 X216.129 S299
S0
G1 X216.002 S353
S0
G1 X215.875 S404
S0
G1 X215.748 S408
S0
G1 X215.621 S356
S0
G1 X215.494 S280
S0
G1 X215.367 S216
S0
G1 X215.240 S182
S0
G1 X215.113 S181
S0
G1 X214.986 S188
S0
G1 X214.859 S193
S0
G1 X214.732 S196
S0
G1 X214.478 S198
S0
G1 X214.351 S191
S0
G1 X213.462 S189
S0
G1 X213.208 S190
S0
G1 X213.081 S183
S0
G1 X212.954 S191
S0
G1 X212.827 S198
S0
G1 X212.700 S191
S0
G1 X212.446 S185
S0
G1 X212.319 S196
S0
G1 X212.192 S208
S0
G1 X212.065 S252
S0
G1 X211.938 S314
S0
G1 X211.811 S386
S0
G1 X211.684 S421
S0
G1 X211.557 S406
S0
G1 X211.430 S332
S0
G1 X211.303 S216
S0
G1 X211.176 S117
S0
G1 X211.049 S54
S0
G1 X210.922 S25
S0
G1 X210.795 S6
S0
G1 X210.668 S12
S0
G1 X210.541 S20
S0
G1 X210.414 S7
S0
G1 X210.287 S5
S0
G1 X210.160 S7
S0
G1 X210.033 S16
S0
G1 X209.906 S12
S0
G1 X209.779 S5
S0
G1 X209.652 S3
S0
G1 X209.525 S7
S0
G1 X209.398 S11
S0
G1 X209.271 S7
S0
G1 X209.144 S3
S0
G1 X200.000 S2
S0
G0 Y44.450
G0 X200.000 S0
G1 X209.144 S2
S0
G0 X209.271 S0
G1 X209.398 S3
S0
G1 X209.525 S7
S0
G1 X209.652 S3
S0
G0 X209.906 S0
G1 X210.033 S8
S0
G1 X210.160 S16
S0
G1 X210.287 S24
S0
G1 X210.414 S20
S0
G1 X210.668 S19
S0
G1 X210.795 S18
S0
G1 X210.922 S40
S0
G1 X211.049 S93
S0
G1 X211.176 S161
S0
G1 X211.303 S308
S0
G1 X211.430 S370
S0
G1 X211.557 S414
S0
G1 X211.684 S386
S0
G1 X211.811 S319
S0
G1 X211.938 S257
S0
G1 X212.065 S209
S0
G1 X212.192 S185
S0
G1 X212.319 S200
S0
G1 X212.446 S197
S0
G1 X212.573 S191
S0
G1 X212.827 S189
S0
G1 X212.954 S188
S0
G1 X213.208 S190
S0
G1 X213.970 S189
S0
G1 X214.224 S190
S0
G1 X214.351 S194
S0
G1 X214.478 S190
S0
G1 X214.605 S191
S0
G1 X214.732 S189
S0
G1 X214.859 S197
S0
G1 X215.113 S196
S0
G1 X215.240 S193
S0
G1 X215.367 S206
S0
G1 X215.621 S182
S0
G1 X215.748 S236
S0
G1 X215.875 S316
S0
G1 X216.002 S379
S0
G1 X216.129 S403
S0
G1 X216.256 S399
S0
G1 X216.383 S349
S0
G1 X216.510 S289
S0
G1 X216.637 S224
S0
G1 X216.764 S193
S0
G1 X216.891 S184
S0
G1 X217.018 S185
S0
G1 X217.145 S197
S0
G1 X217.272 S212
S0
G1 X217.526 S195
S0
G1 X218.034 S199
S0
G1 X218.796 S195
S0
G1 X219.304 S191
S0
G1 X219.431 S195
S0
G1 X219.558 S191
S0
G1 X219.685 S187
S0
G1 X219.939 S184
S0
G1 X220.066 S185
S0
G1 X220.320 S189
S0
G1 X220.447 S213
S0
G1 X220.574 S240
S0
G1 X220.701 S303
S0
G1 X220.828 S334
S0
G1 X220.955 S346
S0
G1 X221.082 S385
S0
G1 X221.209 S409
S0
G1 X221.336 S401
S0
G1 X221.463 S294
S0
G1 X221.590 S220
S0
G1 X221.717 S169
S0
G1 X221.844 S180
S0
G1 X221.971 S200
S0
G1 X222.098 S192
S0
G1 X222.225 S196
S0
G1 X222.352 S223
S0
G1 X222.479 S251
S0
G1 X222.606 S274
S0
G1 X222.733 S303
S0
G1 X222.860 S321
S0
G1 X222.987 S341
S0
G1 X223.114 S357
S0
G1 X223.241 S358
S0
G1 X223.368 S349
S0
G1 X223.495 S360
S0
G1 X223.622 S424
S0
G1 X223.749 S454
S0
G1 X223.876 S407
S0
G1 X224.003 S352
S0
G1 X224.130 S361
S0
G1 X224.257 S420
S0
G1 X224.384 S460
S0
G1 X224.511 S442
S0
G1 X224.638 S409
S0
G1 X224.765 S392
S0
G1 X224.892 S411
S0
G1 X225.019 S436
S0
G1 X225.146 S427
S0
G1 X225.273 S387
S0
G1 X225.400 S355
S0
G1 X225.527 S305
S0
G1 X225.654 S303
S0
G1 X225.781 S337
S0
G1 X225.908 S390
S0
G1 X226.035 S394
S0
G1 X226.162 S309
S0
G1 X226.289 S168
S0
G1 X226.416 S67
S0
G1 X226.543 S36
S0
G1 X226.670 S18
S0
G1 X226.797 S4
S0
G1 X226.924 S11
S0
G1 X227.051 S13
S0
G1 X227.178 S6
S0
G1 X227.432 S4
S0
G1 X228.448 S5
S0
G1 X236.449 S2
S0
G1 X236.576 S5
S0
G1 X238.354 S2
S0
G0 Y44.323
G0 X238.354 S0
G1 X228.448 S2
S0
G1 X227.432 S5
S0
G1 X227.305 S12
S0
G1 X227.178 S9
S0
G1 X226.924 S7
S0
G1 X226.797 S2
S0
G1 X226.670 S5
S0
G1 X226.543 S31
S0
G1 X226.416 S82
S0
G1 X226.289 S215
S0
G1 X226.162 S316
S0
G1 X226.035 S399
S0
G1 X225.908 S388
S0
G1 X225.781 S337
S0
G1 X225.654 S328
S0
G1 X225.527 S367
S0
G1 X225.400 S403
S0
G1 X225.273 S447
S0
G1 X225.146 S435
S0
G1 X225.019 S423
S0
G1 X224.892 S400
S0
G1 X224.765 S369
S0
G1 X224.638 S349
S0
G1 X224.511 S361
S0
G1 X224.384 S389
S0
G1 X224.257 S419
S0
G1 X224.130 S442
S0
G1 X224.003 S451
S0
G1 X223.876 S448
S0
G1 X223.749 S447
S0
G1 X223.622 S424
S0
G1 X223.495 S384
S0
G1 X223.368 S361
S0
G1 X223.241 S366
S0
G1 X223.114 S362
S0
G1 X222.987 S357
S0
G1 X222.733 S352
S0
G1 X222.606 S349
S0
G1 X222.479 S337
S0
G1 X222.352 S321
S0
G1 X222.225 S286
S0
G1 X222.098 S263
S0
G1 X221.971 S255
S0
G1 X221.844 S259
S0
G1 X221.717 S235
S0
G1 X221.590 S227
S0
G1 X221.463 S294
S0
G1 X221.336 S380
S0
G1 X221.209 S416
S0
G1 X221.082 S373
S0
G1 X220.955 S358
S0
G1 X220.828 S354
S0
G1 X220.701 S365
S0
G1 X220.574 S362
S0
G1 X220.447 S307
S0
G1 X220.320 S271
S0
G1 X220.193 S226
S0
G1 X220.066 S217
S0
G1 X219.939 S201
S0
G1 X219.812 S189
S0
G1 X219.558 S188
S0
G1 X219.431 S195
S0
G1 X219.304 S199
S0
G1 X218.923 S192
S0
G1 X218.415 S188
S0
G1 X218.288 S184
S0
G1 X218.161 S191
S0
G1 X217.399 S187
S0
G1 X217.272 S191
S0
G1 X217.145 S169
S0
G1 X217.018 S172
S0
G1 X216.891 S187
S0
G1 X216.764 S227
S0
G1 X216.637 S283
S0
G1 X216.510 S337
S0
G1 X216.383 S379
S0
G1 X216.256 S399
S0
G1 X216.129 S379
S0
G1 X216.002 S323
S0
G1 X215.875 S251
S0
G1 X215.748 S208
S0
G1 X215.621 S186
S0
G1 X215.494 S182
S0
G1 X215.367 S195
S0
G1 X215.240 S200
S0
G1 X215.113 S188
S0
G1 X214.986 S193
S0
G1 X214.859 S188
S0
G1 X214.732 S184
S0
G1 X214.605 S180
S0
G1 X214.478 S181
S0
G1 X214.351 S190
S0
G1 X214.224 S198
S0
G1 X213.843 S190
S0
G1 X213.208 S189
S0
G1 X213.081 S208
S0
G1 X212.954 S193
S0
G1 X212.827 S182
S0
G1 X212.700 S179
S0
G1 X212.573 S185
S0
G1 X212.319 S189
S0
G1 X212.192 S186
S0
G1 X212.065 S191
S0
G1 X211.938 S184
S0
G1 X211.811 S187
S0
G1 X211.684 S214
S0
G1 X211.557 S276
S0
G1 X211.430 S352
S0
G1 X211.303 S399
S0
G1 X211.176 S413
S0
G1 X211.049 S363
S0
G1 X210.922 S272
S0
G1 X210.795 S157
S0
G1 X210.668 S66
S0
G1 X210.541 S22
S0
G1 X210.414 S9
S0
G1 X210.287 S17
S0
G1 X210.160 S32
S0
G1 X210.033 S12
S0
G1 X209.906 S8
S0
G1 X209.652 S1
S0
G1 X209.398 S3
S0
G1 X209.271 S5
S0
G1 X208.382 S2
S0
G1 X208.128 S5
S0
G1 X200.000 S2
S0
G0 Y44.196
G0 X200.000 S0
G1 X202.032 S2
S0
G1 X203.048 S5
S0
G1 X204.064 S2
S0
G1 X206.096 S5
S0
G1 X206.731 S2
S0
G1 X208.636 S5
S0
G1 X209.144 S2
S0
G1 X209.271 S5
S0
G1 X209.398 S9
S0
G1 X209.525 S11
S0
G1 X209.652 S7
S0
G1 X209.906 S4
S0
G1 X210.033 S11
S0
G1 X210.160 S15
S0
G1 X210.287 S5
S0
G1 X210.414 S21
S0
G1 X210.541 S52
S0
G1 X210.668 S117
S0
G1 X210.795 S221
S0
G1 X210.922 S332
S0
G1 X211.049 S413
S0
G1 X211.176 S453
S0
G1 X211.303 S347
S0
G1 X211.430 S303
S0
G1 X211.557 S245
S0
G1 X211.684 S207
S0
G1 X211.811 S191
S0
G1 X211.938 S185
S0
G1 X212.065 S192
S0
G1 X212.192 S204
S0
G1 X212.319 S189
S0
G1 X212.446 S193
S0
G1 X212.573 S192
S0
G1 X212.700 S189
S0
G1 X212.827 S183
S0
G1 X212.954 S181
S0
G1 X213.081 S179
S0
G1 X213.208 S183
S0
G1 X213.716 S189
S0
G1 X213.970 S190
S0
G1 X214.224 S188
S0
G1 X214.351 S196
S0
G1 X214.478 S190
S0
G1 X214.605 S185
S0
G1 X214.732 S181
S0
G1 X214.859 S185
S0
G1 X214.986 S184
S0
G1 X215.113 S185
S0
G1 X215.240 S181
S0
G1 X215.367 S193
S0
G1 X215.494 S200
S0
G1 X215.621 S209
S0
G1 X215.748 S189
S0
G1 X215.875 S163
S0
G1 X216.002 S166
S0
G1 X216.129 S225
S0
G1 X216.256 S292
S0
G1 X216.383 S399
S0
G1 X216.510 S426
S0
G1 X216.637 S435
S0
G1 X216.764 S396
S0
G1 X216.891 S338
S0
G1 X217.018 S286
S0
G1 X217.145 S235
S0
G1 X217.272 S192
S0
G1 X217.526 S195
S0
G1 X217.653 S191
S0
G1 X217.907 S187
S0
G1 X218.034 S191
S0
G1 X218.288 S195
S0
G1 X218.415 S192
S0
G1 X218.669 S196
S0
G1 X218.796 S200
S0
G1 X218.923 S204
S0
G1 X219.177 S208
S0
G1 X219.304 S212
S0
G1 X219.431 S199
S0
G1 X219.558 S207
S0
G1 X219.685 S215
S0
G1 X219.812 S224
S0
G1 X219.939 S232
S0
G1 X220.066 S248
S0
G1 X220.193 S271
S0
G1 X220.320 S291
S0
G1 X220.447 S321
S0
G1 X220.574 S341
S0
G1 X220.701 S369
S0
G1 X220.955 S361
S0
G1 X221.082 S341
S0
G1 X221.209 S321
S0
G1 X221.336 S388
S0
G1 X221.463 S431
S0
G1 X221.590 S380
S0
G1 X221.717 S329
S0
G1 X221.844 S313
S0
G1 X221.971 S321
S0
G1 X222.098 S333
S0
G1 X222.225 S337
S0
G1 X222.352 S345
S0
G1 X222.479 S352
S0
G1 X222.733 S349
S0
G1 X222.860 S358
S0
G1 X222.987 S360
S0
G1 X223.114 S356
S0
G1 X223.241 S362
S0
G1 X223.368 S366
S0
G1 X223.622 S350
S0
G1 X223.749 S397
S0
G1 X223.876 S447
S0
G1 X224.003 S455
S0
G1 X224.130 S439
S0
G1 X224.257 S404
S0
G1 X224.384 S362
S0
G1 X224.511 S354
S0
G1 X224.638 S350
S0
G1 X224.765 S345
S0
G1 X224.892 S349
S0
G1 X225.019 S352
S0
G1 X225.146 S360
S0
G1 X225.273 S393
S0
G1 X225.400 S423
S0
G1 X225.527 S434
S0
G1 X225.654 S439
S0
G1 X225.781 S411
S0
G1 X225.908 S371
S0
G1 X226.035 S364
S0
G1 X226.162 S387
S0
G1 X226.289 S390
S0
G1 X226.416 S370
S0
G1 X226.543 S223
S0
G1 X226.670 S121
S0
G1 X226.797 S26
S0
G1 X226.924 S7
S0
G1 X227.051 S5
S0
G1 X227.178 S9
S0
G1 X227.305 S8
S0
G1 X227.432 S13
S0
G1 X228.448 S1
S0
G1 X229.464 S5
S0
G1 X230.480 S2
S0
G1 X231.496 S5
S0
G1 X233.528 S2
S0
G1 X235.560 S5
S0
G1 X236.576 S2
S0
G1 X237.592 S5
S0
G1 X238.354 S2
S0
G0 Y44.069
G0 X238.354 S0
G1 X237.592 S2
S0
G1 X236.576 S5
S0
G1 X235.560 S2
S0
G1 X233.528 S5
S0
G1 X231.496 S2
S0
G1 X230.480 S5
S0
G1 X229.464 S2
S0
G1 X228.448 S5
S0
G1 X227.432 S1
S0
G1 X227.305 S4
S0
G1 X227.178 S5
S0
G1 X227.051 S10
S0
G1 X226.924 S20
S0
G1 X226.797 S36
S0
G1 X226.670 S110
S0
G1 X226.543 S266
S0
G1 X226.416 S408
S0
G1 X226.289 S432
S0
G1 X226.162 S419
S0
G1 X226.035 S410
S0
G1 X225.908 S422
S0
G1 X225.781 S442
S0
G1 X225.654 S443
S0
G1 X225.527 S423
S0
G1 X225.400 S401
S0
G1 X225.273 S376
S0
G1 X225.146 S357
S0
G1 X225.019 S345
S0
G1 X224.892 S353
S0
G1 X224.765 S361
S0
G1 X224.638 S358
S0
G1 X224.511 S352
S0
G1 X224.384 S356
S0
G1 X224.257 S358
S0
G1 X224.130 S377
S0
G1 X224.003 S400
S0
G1 X223.876 S436
S0
G1 X223.749 S454
S0
G1 X223.622 S408
S0
G1 X223.495 S354
S0
G1 X223.368 S353
S0
G1 X223.241 S338
S0
G1 X223.114 S342
S0
G1 X222.987 S352
S0
G1 X222.860 S368
S0
G1 X222.733 S366
S0
G1 X222.606 S349
S0
G1 X222.479 S348
S0
G1 X222.352 S364
S0
G1 X222.225 S352
S0
G1 X222.098 S368
S0
G1 X221.971 S360
S0
G1 X221.844 S337
S0
G1 X221.717 S345
S0
G1 X221.590 S384
S0
G1 X221.463 S419
S0
G1 X221.336 S427
S0
G1 X221.209 S349
S0
G1 X221.082 S282
S0
G1 X220.955 S333
S0
G1 X220.828 S369
S0
G1 X220.701 S345
S0
G1 X220.447 S353
S0
G1 X220.320 S357
S0
G1 X220.193 S365
S0
G1 X220.066 S350
S0
G1 X219.939 S326
S0
G1 X219.812 S314
S0
G1 X219.685 S310
S0
G1 X219.558 S298
S0
G1 X219.431 S282
S0
G1 X219.304 S266
S0
G1 X219.050 S251
S0
G1 X218.923 S247
S0
G1 X218.796 S243
S0
G1 X218.669 S239
S0
G1 X218.415 S231
S0
G1 X218.288 S227
S0
G1 X218.161 S230
S0
G1 X218.034 S226
S0
G1 X217.907 S218
S0
G1 X217.653 S214
S0
G1 X217.526 S218
S0
G1 X217.399 S226
S0
G1 X217.272 S230
S0
G1 X217.145 S310
S0
G1 X217.018 S369
S0
G1 X216.891 S417
S0
G1 X216.764 S435
S0
G1 X216.637 S454
S0
G1 X216.510 S476
S0
G1 X216.383 S458
S0
G1 X216.256 S423
S0
G1 X216.129 S324
S0
G1 X216.002 S261
S0
G1 X215.875 S195
S0
G1 X215.748 S172
S0
G1 X215.621 S179
S0
G1 X215.494 S178
S0
G1 X215.240 S177
S0
G1 X215.113 S184
S0
G1 X214.986 S186
S0
G1 X214.859 S190
S0
G1 X214.732 S194
S0
G1 X214.605 S193
S0
G1 X214.478 S189
S0
G1 X214.224 S191
S0
G1 X213.970 S188
S0
G1 X213.716 S190
S0
G1 X213.208 S189
S0
G1 X213.081 S186
S0
G1 X212.954 S189
S0
G1 X212.827 S190
S0
G1 X212.700 S184
S0
G1 X212.573 S183
S0
G1 X212.446 S182
S0
G1 X212.319 S185
S0
G1 X212.192 S189
S0
G1 X212.065 S197
S0
G1 X211.938 S196
S0
G1 X211.811 S197
S0
G1 X211.684 S200
S0
G1 X211.557 S186
S0
G1 X211.430 S180
S0
G1 X211.303 S204
S0
G1 X211.176 S248
S0
G1 X211.049 S291
S0
G1 X210.922 S367
S0
G1 X210.795 S422
S0
G1 X210.668 S394
S0
G1 X210.541 S298
S0
G1 X210.414 S187
S0
G1 X210.287 S94
S0
G1 X210.160 S34
S0
G1 X210.033 S23
S0
G1 X209.906 S16
S0
G1 X209.779 S7
S0
G1 X209.652 S8
S0
G1 X209.525 S12
S0
G1 X209.398 S16
S0
G1 X209.271 S12
S0
G1 X209.144 S8
S0
G1 X208.890 S2
S0
G1 X208.255 S5
S0
G1 X208.128 S9
S0
G1 X206.731 S5
S0
G1 X206.096 S2
S0
G1 X204.064 S5
S0
G1 X203.048 S2
S0
G1 X202.032 S5
S0
G1 X200.000 S2
S0
G0 Y43.942
G0 X200.000 S0
G1 X201.016 S9
S0
G1 X202.032 S2
S0
G1 X203.048 S5
S0
G1 X204.064 S2
S0
G1 X206.096 S5
S0
G1 X206.731 S2
S0
G1 X208.128 S5
S0
G1 X208.255 S8
S0
G1 X208.382 S9
S0
G1 X208.509 S2
S0
G1 X208.636 S4
S0
G1 X208.890 S6
S0
G1 X209.017 S5
S0
G1 X209.144 S8
S0
G1 X209.271 S15
S0
G1 X209.398 S7
S0
G1 X209.525 S11
S0
G1 X209.652 S31
S0
G1 X209.779 S22
S0
G1 X209.906 S9
S0
G1 X210.033 S25
S0
G1 X210.160 S55
S0
G1 X210.287 S145
S0
G1 X210.414 S279
S0
G1 X210.541 S402
S0
G1 X210.668 S429
S0
G1 X210.795 S385
S0
G1 X210.922 S327
S0
G1 X211.049 S268
S0
G1 X211.176 S219
S0
G1 X211.557 S189
S0
G1 X211.684 S188
S0
G1 X211.811 S189
S0
G1 X212.065 S190
S0
G1 X212.446 S189
S0
G1 X212.700 S190
S0
G1 X212.954 S191
S0
G1 X213.208 S189
S0
G1 X213.335 S196
S0
G1 X213.589 S193
S0
G1 X213.716 S195
S0
G1 X213.970 S192
S0
G1 X214.224 S193
S0
G1 X214.351 S168
S0
G1 X214.478 S189
S0
G1 X214.605 S198
S0
G1 X214.732 S190
S0
G1 X214.859 S193
S0
G1 X215.113 S197
S0
G1 X215.240 S177
S0
G1 X215.367 S169
S0
G1 X215.494 S174
S0
G1 X215.621 S173
S0
G1 X215.748 S191
S0
G1 X215.875 S248
S0
G1 X216.002 S328
S0
G1 X216.129 S394
S0
G1 X216.256 S419
S0
G1 X216.383 S444
S0
G1 X216.510 S428
S0
G1 X216.764 S412
S0
G1 X216.891 S427
S0
G1 X217.018 S440
S0
G1 X217.145 S438
S0
G1 X217.272 S435
S0
G1 X217.399 S376
S0
G1 X217.526 S357
S0
G1 X217.653 S325
S0
G1 X217.780 S305
S0
G1 X218.034 S301
S0
G1 X218.161 S302
S0
G1 X218.288 S303
S0
G1 X218.415 S301
S0
G1 X218.542 S298
S0
G1 X218.669 S301
S0
G1 X218.796 S317
S0
G1 X218.923 S313
S0
G1 X219.050 S311
S0
G1 X219.177 S317
S0
G1 X219.304 S337
S0
G1 X219.431 S329
S0
G1 X219.558 S337
S0
G1 X219.685 S349
S0
G1 X219.812 S361
S0
G1 X220.066 S365
S0
G1 X220.320 S361
S0
G1 X220.447 S352
S0
G1 X220.574 S356
S0
G1 X220.701 S364
S0
G1 X220.828 S368
S0
G1 X220.955 S364
S0
G1 X221.082 S352
S0
G1 X221.209 S341
S0
G1 X221.336 S333
S0
G1 X221.463 S400
S0
G1 X221.590 S428
S0
G1 X221.717 S424
S0
G1 X221.844 S377
S0
G1 X221.971 S341
S0
G1 X222.098 S344
S0
G1 X222.225 S361
S0
G1 X222.352 S366
S0
G1 X222.479 S356
S0
G1 X222.606 S357
S0
G1 X222.733 S358
S0
G1 X222.860 S357
S0
G1 X222.987 S353
S0
G1 X223.114 S352
S0
G1 X223.368 S350
S0
G1 X223.495 S349
S0
G1 X223.622 S354
S0
G1 X223.749 S396
S0
G1 X223.876 S446
S0
G1 X224.003 S438
S0
G1 X224.130 S381
S0
G1 X224.257 S341
S0
G1 X224.384 S340
S0
G1 X224.511 S341
S0
G1 X224.638 S357
S0
G1 X224.765 S358
S0
G1 X224.892 S353
S0
G1 X225.019 S357
S0
G1 X225.146 S370
S0
G1 X225.273 S361
S0
G1 X225.400 S342
S0
G1 X225.527 S362
S0
G1 X225.654 S367
S0
G1 X225.781 S388
S0
G1 X225.908 S411
S0
G1 X226.035 S429
S0
G1 X226.162 S441
S0
G1 X226.289 S442
S0
G1 X226.416 S438
S0
G1 X226.543 S451
S0
G1 X226.670 S411
S0
G1 X226.797 S316
S0
G1 X226.924 S163
S0
G1 X227.051 S39
S0
G1 X227.178 S9
S0
G1 X227.305 S19
S0
G1 X227.432 S13
S0
G1 X227.559 S16
S0
G1 X227.813 S7
S0
G1 X227.940 S13
S0
G1 X228.067 S12
S0
G1 X228.194 S1
S0
G1 X228.321 S2
S0
G1 X228.448 S8
S0
G1 X228.702 S5
S0
G1 X229.210 S2
S0
G1 X230.480 S5
S0
G1 X231.496 S2
S0
G1 X231.877 S5
S0
G1 X234.163 S2
S0
G1 X234.544 S5
S0
G1 X236.576 S2
S0
G1 X238.354 S5
S0
G0 Y43.815
G0 X238.354 S0
G1 X236.576 S5
S0
G1 X234.544 S2
S0
G1 X234.163 S5
S0
G1 X231.877 S2
S0
G1 X231.496 S5
S0
G1 X230.480 S2
S0
G1 X229.210 S5
S0
G1 X228.702 S2
S0
G1 X228.448 S5
S0
G1 X228.321 S2
S0
G1 X228.194 S6
S0
G1 X228.067 S8
S0
G1 X227.940 S5
S0
G1 X227.813 S2
S0
G1 X227.559 S5
S0
G1 X227.432 S6
S0
G1 X227.305 S5
S0
G1 X227.178 S12
S0
G1 X227.051 S43
S0
G1 X226.924 S161
S0
G1 X226.797 S327
S0
G1 X226.670 S430
S0
G1 X226.543 S453
S0
G1 X226.416 S458
S0
G1 X226.289 S455
S0
G1 X226.162 S438
S0
G1 X226.035 S416
S0
G1 X225.908 S394
S0
G1 X225.781 S380
S0
G1 X225.654 S367
S0
G1 X225.527 S358
S0
G1 X225.400 S348
S0
G1 X225.273 S349
S0
G1 X225.146 S345
S0
G1 X225.019 S343
S0
G1 X224.892 S340
S0
G1 X224.765 S341
S0
G1 X224.638 S352
S0
G1 X224.511 S375
S0
G1 X224.384 S401
S0
G1 X224.257 S420
S0
G1 X224.130 S462
S0
G1 X224.003 S507
S0
G1 X223.876 S505
S0
G1 X223.749 S458
S0
G1 X223.622 S404
S0
G1 X223.495 S377
S0
G1 X223.368 S374
S0
G1 X223.114 S349
S0
G1 X222.987 S350
S0
G1 X222.860 S346
S0
G1 X222.733 S345
S0
G1 X222.606 S344
S0
G1 X222.479 S346
S0
G1 X222.352 S345
S0
G1 X222.225 S353
S0
G1 X222.098 S354
S0
G1 X221.971 S345
S0
G1 X221.844 S347
S0
G1 X221.717 S386
S0
G1 X221.590 S433
S0
G1 X221.463 S435
S0
G1 X221.336 S409
S0
G1 X221.082 S346
S0
G1 X220.701 S354
S0
G1 X220.574 S353
S0
G1 X220.447 S349
S0
G1 X220.320 S345
S0
G1 X220.066 S348
S0
G1 X219.939 S352
S0
G1 X219.812 S356
S0
G1 X219.685 S352
S0
G1 X219.558 S348
S0
G1 X219.431 S340
S0
G1 X219.304 S336
S0
G1 X219.177 S377
S0
G1 X219.050 S362
S0
G1 X218.923 S353
S0
G1 X218.669 S357
S0
G1 X218.542 S353
S0
G1 X218.415 S354
S0
G1 X218.288 S365
S0
G1 X218.161 S353
S0
G1 X218.034 S368
S0
G1 X217.907 S388
S0
G1 X217.780 S404
S0
G1 X217.653 S419
S0
G1 X217.526 S436
S0
G1 X217.399 S447
S0
G1 X217.272 S457
S0
G1 X217.145 S423
S0
G1 X217.018 S412
S0
G1 X216.891 S388
S0
G1 X216.764 S362
S0
G1 X216.637 S346
S0
G1 X216.510 S352
S0
G1 X216.383 S376
S0
G1 X216.256 S396
S0
G1 X216.129 S446
S0
G1 X216.002 S450
S0
G1 X215.875 S430
S0
G1 X215.748 S375
S0
G1 X215.621 S309
S0
G1 X215.494 S252
S0
G1 X215.367 S209
S0
G1 X215.240 S178
S0
G1 X215.113 S181
S0
G1 X214.986 S189
S0
G1 X214.859 S193
S0
G1 X214.605 S186
S0
G1 X214.478 S189
S0
G1 X214.351 S192
S0
G1 X214.224 S188
S0
G1 X213.208 S193
S0
G1 X212.954 S189
S0
G1 X212.700 S191
S0
G1 X212.446 S190
S0
G1 X212.065 S189
S0
G1 X211.811 S190
S0
G1 X211.684 S189
S0
G1 X211.430 S188
S0
G1 X211.176 S189
S0
G1 X211.049 S176
S0
G1 X210.922 S197
S0
G1 X210.795 S232
S0
G1 X210.668 S279
S0
G1 X210.541 S343
S0
G1 X210.414 S395
S0
G1 X210.287 S394
S0
G1 X210.160 S367
S0
G1 X210.033 S199
S0
G1 X209.906 S98
S0
G1 X209.779 S20
S0
G1 X209.652 S6
S0
G1 X209.525 S24
S0
G1 X209.398 S26
S0
G1 X209.271 S8
S0
G1 X209.017 S5
S0
G1 X208.890 S7
S0
G1 X208.636 S12
S0
G1 X208.509 S7
S0
G1 X208.382 S9
S0
G1 X208.255 S4
S0
G1 X208.128 S6
S0
G1 X206.731 S5
S0
G1 X206.096 S2
S0
G1 X204.064 S5
S0
G1 X203.048 S2
S0
G1 X202.032 S5
S0
G1 X201.016 S2
S0
G1 X200.000 S9
S0
G0 Y43.688
G0 X200.000 S0
G1 X201.016 S5
S0
G1 X202.032 S2
S0
G1 X203.048 S5
S0
G1 X204.064 S2
S0
G1 X206.096 S5
S0
G1 X206.731 S2
S0
G1 X208.128 S5
S0
G1 X208.255 S9
S0
G1 X208.382 S6
S0
G1 X208.509 S1
S0
G1 X208.636 S5
S0
G1 X208.763 S11
S0
G1 X208.890 S4
S0
G1 X209.144 S2
S0
G1 X209.398 S7
S0
G1 X209.525 S13
S0
G1 X209.652 S30
S0
G1 X209.779 S63
S0
G1 X209.906 S145
S0
G1 X210.033 S278
S0
G1 X210.160 S391
S0
G1 X210.287 S433
S0
G1 X210.414 S382
S0
G1 X210.541 S302
S0
G1 X210.668 S232
S0
G1 X210.795 S198
S0
G1 X210.922 S191
S0
G1 X211.049 S194
S0
G1 X211.176 S197
S0
G1 X211.684 S189
S0
G1 X211.938 S190
S0
G1 X212.446 S189
S0
G1 X212.700 S190
S0
G1 X212.954 S191
S0
G1 X213.208 S189
S0
G1 X213.462 S192
S0
G1 X213.716 S191
S0
G1 X213.843 S189
S0
G1 X214.224 S188
S0
G1 X214.351 S186
S0
G1 X214.478 S191
S0
G1 X214.605 S195
S0
G1 X214.732 S197
S0
G1 X214.859 S189
S0
G1 X214.986 S181
S0
G1 X215.113 S189
S0
G1 X215.240 S200
S0
G1 X215.367 S216
S0
G1 X215.494 S277
S0
G1 X215.621 S359
S0
G1 X215.748 S417
S0
G1 X215.875 S441
S0
G1 X216.002 S435
S0
G1 X216.129 S399
S0
G1 X216.256 S368
S0
G1 X216.383 S354
S0
G1 X216.510 S349
S0
G1 X216.764 S341
S0
G1 X216.891 S349
S0
G1 X217.018 S361
S0
G1 X217.145 S377
S0
G1 X217.272 S384
S0
G1 X217.399 S415
S0
G1 X217.526 S420
S0
G1 X217.653 S431
S0
G1 X217.780 S448
S0
G1 X217.907 S455
S0
G1 X218.034 S451
S0
G1 X218.161 S443
S0
G1 X218.288 S435
S0
G1 X218.415 S405
S0
G1 X218.542 S393
S0
G1 X218.796 S379
S0
G1 X218.923 S372
S0
G1 X219.050 S358
S0
G1 X219.304 S350
S0
G1 X219.812 S358
S0
G1 X220.066 S354
S0
G1 X220.320 S350
S0
G1 X220.701 S361
S0
G1 X220.828 S360
S0
G1 X220.955 S366
S0
G1 X221.082 S371
S0
G1 X221.209 S379
S0
G1 X221.336 S383
S0
G1 X221.463 S427
S0
G1 X221.590 S447
S0
G1 X221.717 S444
S0
G1 X221.844 S399
S0
G1 X221.971 S365
S0
G1 X222.098 S356
S0
G1 X222.225 S357
S0
G1 X222.352 S352
S0
G1 X222.606 S349
S0
G1 X222.733 S350
S0
G1 X222.860 S354
S0
G1 X222.987 S356
S0
G1 X223.114 S365
S0
G1 X223.241 S369
S0
G1 X223.368 S372
S0
G1 X223.495 S396
S0
G1 X223.622 S415
S0
G1 X223.749 S447
S0
G1 X223.876 S509
S0
G1 X224.003 S612
S0
G1 X224.130 S694
S0
G1 X224.257 S695
S0
G1 X224.384 S652
S0
G1 X224.511 S560
S0
G1 X224.638 S501
S0
G1 X224.765 S439
S0
G1 X224.892 S408
S0
G1 X225.019 S379
S0
G1 X225.146 S356
S0
G1 X225.273 S349
S0
G1 X225.400 S361
S0
G1 X225.527 S338
S0
G1 X225.654 S345
S0
G1 X225.781 S353
S0
G1 X225.908 S356
S0
G1 X226.035 S360
S0
G1 X226.162 S376
S0
G1 X226.289 S399
S0
G1 X226.416 S423
S0
G1 X226.543 S439
S0
G1 X226.670 S450
S0
G1 X226.797 S485
S0
G1 X226.924 S470
S0
G1 X227.051 S335
S0
G1 X227.178 S176
S0
G1 X227.305 S69
S0
G1 X227.432 S19
S0
G1 X227.559 S2
S0
G1 X227.686 S8
S0
G1 X227.813 S12
S0
G1 X228.067 S2
S0
G1 X228.194 S8
S0
G1 X228.321 S9
S0
G1 X228.448 S2
S0
G1 X228.702 S5
S0
G1 X229.210 S2
S0
G1 X230.480 S5
S0
G1 X231.496 S2
S0
G1 X231.877 S5
S0
G1 X234.163 S2
S0
G1 X234.544 S5
S0
G1 X236.576 S2
S0
G1 X238.354 S5
S0
G0 Y43.561
G0 X238.354 S0
G1 X234.544 S2
S0
G1 X234.163 S5
S0
G1 X231.623 S2
S0
G1 X231.496 S5
S0
G1 X229.464 S2
S0
G1 X229.210 S5
S0
G1 X228.702 S2
S0
G1 X228.448 S5
S0
G1 X228.321 S11
S0
G1 X228.194 S5
S0
G1 X227.940 S2
S0
G1 X227.813 S8
S0
G1 X227.686 S17
S0
G1 X227.559 S12
S0
G1 X227.432 S6
S0
G1 X227.305 S58
S0
G1 X227.178 S205
S0
G1 X227.051 S360
S0
G1 X226.924 S456
S0
G1 X226.797 S483
S0
G1 X226.670 S446
S0
G1 X226.416 S408
S0
G1 X226.289 S353
S0
G1 X226.162 S349
S0
G1 X226.035 S346
S0
G1 X225.908 S342
S0
G1 X225.781 S344
S0
G1 X225.654 S354
S0
G1 X225.527 S357
S0
G1 X225.273 S360
S0
G1 X225.146 S396
S0
G1 X225.019 S464
S0
G1 X224.892 S537
S0
G1 X224.765 S590
S0
G1 X224.638 S634
S0
G1 X224.511 S681
S0
G1 X224.384 S722
S0
G1 X224.257 S718
S0
G1 X224.130 S726
S0
G1 X224.003 S685
S0
G1 X223.876 S600
S0
G1 X223.749 S525
S0
G1 X223.622 S490
S0
G1 X223.495 S467
S0
G1 X223.368 S442
S0
G1 X223.241 S425
S0
G1 X223.114 S416
S0
G1 X222.987 S409
S0
G1 X222.860 S397
S0
G1 X222.733 S388
S0
G1 X222.479 S385
S0
G1 X222.352 S389
S0
G1 X222.225 S374
S0
G1 X222.098 S381
S0
G1 X221.971 S387
S0
G1 X221.844 S396
S0
G1 X221.717 S427
S0
G1 X221.590 S458
S0
G1 X221.463 S462
S0
G1 X221.336 S447
S0
G1 X221.209 S439
S0
G1 X221.082 S430
S0
G1 X220.955 S419
S0
G1 X220.828 S411
S0
G1 X220.701 S400
S0
G1 X220.574 S397
S0
G1 X220.447 S396
S0
G1 X220.320 S395
S0
G1 X219.812 S375
S0
G1 X219.685 S379
S0
G1 X219.558 S383
S0
G1 X219.431 S387
S0
G1 X219.304 S391
S0
G1 X219.177 S383
S0
G1 X219.050 S391
S0
G1 X218.923 S408
S0
G1 X218.796 S421
S0
G1 X218.669 S423
S0
G1 X218.542 S431
S0
G1 X218.415 S447
S0
G1 X218.288 S464
S0
G1 X218.161 S439
S0
G1 X218.034 S435
S0
G1 X217.907 S431
S0
G1 X217.780 S417
S0
G1 X217.653 S397
S0
G1 X217.526 S377
S0
G1 X217.399 S362
S0
G1 X217.145 S353
S0
G1 X217.018 S350
S0
G1 X216.891 S352
S0
G1 X216.764 S356
S0
G1 X216.637 S364
S0
G1 X216.510 S366
S0
G1 X216.383 S360
S0
G1 X216.256 S354
S0
G1 X216.129 S337
S0
G1 X216.002 S349
S0
G1 X215.875 S373
S0
G1 X215.748 S409
S0
G1 X215.621 S435
S0
G1 X215.494 S431
S0
G1 X215.367 S395
S0
G1 X215.240 S359
S0
G1 X215.113 S276
S0
G1 X214.986 S225
S0
G1 X214.859 S184
S0
G1 X214.732 S185
S0
G1 X214.478 S192
S0
G1 X214.351 S187
S0
G1 X214.224 S185
S0
G1 X213.970 S186
S0
G1 X213.716 S188
S0
G1 X213.589 S189
S0
G1 X213.462 S191
S0
G1 X213.335 S190
S0
G1 X213.208 S191
S0
G1 X212.954 S190
S0
G1 X212.446 S189
S0
G1 X212.192 S190
S0
G1 X212.065 S189
S0
G1 X211.303 S190
S0
G1 X211.176 S189
S0
G1 X211.049 S199
S0
G1 X210.922 S190
S0
G1 X210.795 S185
S0
G1 X210.668 S183
S0
G1 X210.541 S185
S0
G1 X210.414 S212
S0
G1 X210.287 S275
S0
G1 X210.160 S335
S0
G1 X210.033 S423
S0
G1 X209.906 S405
S0
G1 X209.779 S355
S0
G1 X209.652 S248
S0
G1 X209.525 S117
S0
G1 X209.398 S31
S0
G1 X209.271 S7
S0
G1 X209.144 S13
S0
G1 X209.017 S3
S0
G1 X208.763 S5
S0
G1 X208.636 S6
S0
G1 X208.509 S5
S0
G1 X208.255 S1
S0
G1 X208.128 S11
S0
G1 X206.731 S5
S0
G1 X201.016 S2
S0
G1 X200.000 S5
S0
G0 Y43.434
G0 X200.000 S0
G1 X201.016 S5
S0
G1 X206.731 S2
S0
G1 X208.128 S5
S0
G1 X208.255 S10
S0
G1 X208.382 S2
S0
G1 X208.509 S4
S0
G1 X208.763 S17
S0
G1 X208.890 S7
S0
G1 X209.017 S8
S0
G1 X209.144 S20
S0
G1 X209.271 S13
S0
G1 X209.398 S57
S0
G1 X209.525 S160
S0
G1 X209.652 S296
S0
G1 X209.779 S403
S0
G1 X209.906 S426
S0
G1 X210.033 S362
S0
G1 X210.160 S292
S0
G1 X210.287 S222
S0
G1 X210.414 S195
S0
G1 X210.541 S182
S0
G1 X210.668 S188
S0
G1 X210.795 S191
S0
G1 X210.922 S179
S0
G1 X211.049 S180
S0
G1 X211.176 S190
S0
G1 X211.684 S189
S0
G1 X212.192 S188
S0
G1 X212.446 S190
S0
G1 X212.954 S189
S0
G1 X213.208 S190
S0
G1 X213.335 S189
S0
G1 X213.589 S190
S0
G1 X213.716 S189
S0
G1 X213.843 S190
S0
G1 X214.224 S189
S0
G1 X214.351 S205
S0
G1 X214.478 S182
S0
G1 X214.605 S167
S0
G1 X214.732 S178
S0
G1 X214.859 S205
S0
G1 X214.986 S251
S0
G1 X215.113 S327
S0
G1 X215.240 S396
S0
G1 X215.367 S443
S0
G1 X215.494 S404
S0
G1 X215.621 S354
S0
G1 X215.748 S307
S0
G1 X215.875 S286
S0
G1 X216.002 S298
S0
G1 X216.129 S326
S0
G1 X216.256 S353
S0
G1 X216.383 S360
S0
G1 X216.637 S366
S0
G1 X216.764 S357
S0
G1 X216.891 S348
S0
G1 X217.018 S344
S0
G1 X217.145 S348
S0
G1 X217.272 S353
S0
G1 X217.399 S346
S0
G1 X217.526 S353
S0
G1 X217.653 S360
S0
G1 X217.780 S369
S0
G1 X217.907 S377
S0
G1 X218.034 S384
S0
G1 X218.161 S391
S0
G1 X218.288 S397
S0
G1 X218.415 S420
S0
G1 X218.542 S424
S0
G1 X218.669 S434
S0
G1 X218.796 S450
S0
G1 X218.923 S464
S0
G1 X219.050 S466
S0
G1 X219.177 S459
S0
G1 X219.304 S447
S0
G1 X219.431 S436
S0
G1 X219.558 S432
S0
G1 X219.685 S428
S0
G1 X219.812 S424
S0
G1 X219.939 S420
S0
G1 X220.066 S424
S0
G1 X220.193 S428
S0
G1 X220.320 S432
S0
G1 X220.447 S438
S0
G1 X220.574 S439
S0
G1 X220.701 S443
S0
G1 X220.828 S450
S0
G1 X220.955 S457
S0
G1 X221.082 S468
S0
G1 X221.209 S478
S0
G1 X221.336 S483
S0
G1 X221.463 S471
S0
G1 X221.590 S482
S0
G1 X221.717 S478
S0
G1 X221.844 S457
S0
G1 X221.971 S439
S0
G1 X222.098 S432
S0
G1 X222.225 S423
S0
G1 X222.352 S420
S0
G1 X222.479 S430
S0
G1 X222.733 S428
S0
G1 X222.860 S431
S0
G1 X222.987 S440
S0
G1 X223.114 S450
S0
G1 X223.241 S463
S0
G1 X223.368 S471
S0
G1 X223.495 S490
S0
G1 X223.622 S498
S0
G1 X223.749 S510
S0
G1 X223.876 S522
S0
G1 X224.003 S541
S0
G1 X224.130 S571
S0
G1 X224.257 S602
S0
G1 X224.384 S620
S0
G1 X224.511 S658
S0
G1 X224.638 S685
S0
G1 X224.765 S709
S0
G1 X224.892 S714
S0
G1 X225.019 S693
S0
G1 X225.146 S647
S0
G1 X225.273 S569
S0
G1 X225.400 S504
S0
G1 X225.527 S439
S0
G1 X225.654 S407
S0
G1 X225.781 S370
S0
G1 X225.908 S345
S0
G1 X226.035 S341
S0
G1 X226.162 S349
S0
G1 X226.289 S352
S0
G1 X226.416 S350
S0
G1 X226.543 S374
S0
G1 X226.670 S384
S0
G1 X226.797 S404
S0
G1 X226.924 S426
S0
G1 X227.051 S458
S0
G1 X227.178 S466
S0
G1 X227.305 S346
S0
G1 X227.432 S177
S0
G1 X227.559 S55
S0
G1 X227.686 S13
S0
G1 X227.813 S4
S0
G1 X227.940 S5
S0
G1 X228.067 S17
S0
G1 X228.321 S5
S0
G1 X228.448 S15
S0
G1 X228.702 S5
S0
G1 X229.210 S2
S0
G1 X229.464 S5
S0
G1 X232.385 S2
S0
G1 X232.512 S5
S0
G1 X234.163 S2
S0
G1 X234.544 S5
S0
G1 X238.354 S2
S0
G0 Y43.307
G0 X238.354 S0
G1 X234.544 S2
S0
G1 X234.163 S5
S0
G1 X232.512 S2
S0
G1 X232.131 S5
S0
G1 X229.464 S2
S0
G1 X229.210 S5
S0
G1 X228.702 S2
S0
G1 X228.321 S5
S0
G1 X228.194 S7
S0
G1 X228.067 S19
S0
G1 X227.940 S27
S0
G1 X227.813 S2
S0
G1 X227.686 S6
S0
G1 X227.559 S64
S0
G1 X227.432 S172
S0
G1 X227.305 S352
S0
G1 X227.178 S443
S0
G1 X227.051 S462
S0
G1 X226.924 S403
S0
G1 X226.797 S380
S0
G1 X226.670 S385
S0
G1 X226.543 S360
S0
G1 X226.416 S330
S0
G1 X226.289 S338
S0
G1 X226.162 S350
S0
G1 X226.035 S364
S0
G1 X225.908 S385
S0
G1 X225.781 S422
S0
G1 X225.654 S489
S0
G1 X225.527 S570
S0
G1 X225.400 S627
S0
G1 X225.273 S690
S0
G1 X225.146 S713
S0
G1 X225.019 S718
S0
G1 X224.892 S685
S0
G1 X224.765 S651
S0
G1 X224.638 S619
S0
G1 X224.511 S572
S0
G1 X224.384 S528
S0
G1 X224.257 S540
S0
G1 X224.130 S528
S0
G1 X224.003 S532
S0
G1 X223.876 S541
S0
G1 X223.749 S533
S0
G1 X223.622 S513
S0
G1 X223.495 S506
S0
G1 X223.368 S513
S0
G1 X223.241 S497
S0
G1 X223.114 S495
S0
G1 X222.987 S481
S0
G1 X222.860 S473
S0
G1 X222.733 S466
S0
G1 X222.606 S463
S0
G1 X222.479 S460
S0
G1 X222.352 S462
S0
G1 X222.225 S465
S0
G1 X222.098 S470
S0
G1 X221.971 S472
S0
G1 X221.844 S483
S0
G1 X221.717 S489
S0
G1 X221.590 S498
S0
G1 X221.463 S501
S0
G1 X221.336 S497
S0
G1 X221.209 S501
S0
G1 X221.082 S502
S0
G1 X220.955 S499
S0
G1 X220.828 S493
S0
G1 X220.701 S486
S0
G1 X220.574 S478
S0
G1 X220.447 S475
S0
G1 X220.320 S471
S0
G1 X220.066 S477
S0
G1 X219.939 S473
S0
G1 X219.558 S469
S0
G1 X219.431 S473
S0
G1 X219.304 S477
S0
G1 X219.177 S493
S0
G1 X219.050 S534
S0
G1 X218.923 S571
S0
G1 X218.796 S581
S0
G1 X218.669 S554
S0
G1 X218.542 S492
S0
G1 X218.415 S419
S0
G1 X218.288 S368
S0
G1 X218.161 S350
S0
G1 X218.034 S344
S0
G1 X217.780 S341
S0
G1 X217.653 S346
S0
G1 X217.399 S350
S0
G1 X217.272 S346
S0
G1 X217.145 S364
S0
G1 X217.018 S360
S0
G1 X216.891 S361
S0
G1 X216.764 S362
S0
G1 X216.637 S358
S0
G1 X216.510 S349
S0
G1 X216.383 S330
S0
G1 X216.256 S315
S0
G1 X216.129 S275
S0
G1 X216.002 S259
S0
G1 X215.875 S231
S0
G1 X215.748 S201
S0
G1 X215.621 S181
S0
G1 X215.494 S207
S0
G1 X215.367 S285
S0
G1 X215.240 S355
S0
G1 X215.113 S438
S0
G1 X214.986 S420
S0
G1 X214.859 S380
S0
G1 X214.732 S312
S0
G1 X214.605 S234
S0
G1 X214.478 S178
S0
G1 X214.351 S172
S0
G1 X214.224 S188
S0
G1 X213.970 S189
S0
G1 X213.843 S188
S0
G1 X213.716 S189
S0
G1 X213.589 S190
S0
G1 X213.335 S189
S0
G1 X213.208 S190
S0
G1 X212.954 S189
S0
G1 X212.700 S188
S0
G1 X212.446 S190
S0
G1 X212.192 S189
S0
G1 X212.065 S187
S0
G1 X211.811 S188
S0
