; GCODE generated by Laserweb
; Laser Min: 0%
; Laser Max: 100%
; Black Speed: 200mm/min
; White Speed: 800mm/min
; Resolution (mm per pixel): 0.12699999999999187mm
; Laser Spot Size: NaNmm
; Laser Feedrate: 2000mm/min
; X Offset: 200mm
; Y Offset: 0mm 

G1 F1000
; Start GCode
G92
G90
G1Z0
M3S0

G0 Y38.862
G0 X215.367 S0
G1 X215.494 S1
S0
G1 X215.621 S2
S0
G0 X215.875 S0
G1 X216.002 S8
S0
G1 X216.129 S107
S0
G1 X216.256 S109
S0
G1 X216.383 S91
S0
G1 X216.510 S98
S0
G1 X216.637 S90
S0
G1 X216.764 S101
S0
G1 X216.891 S120
S0
G1 X217.018 S31
S0
G1 X217.145 S75
S0
G1 X217.272 S117
S0
G1 X217.399 S128
S0
G1 X217.526 S135
S0
G1 X217.653 S131
S0
G1 X217.780 S110
S0
G1 X217.907 S99
S0
G1 X218.034 S94
S0
G1 X218.161 S90
S0
G1 X218.288 S94
S0
G1 X218.415 S98
S0
G1 X218.542 S102
S0
G1 X218.796 S93
S0
G1 X218.923 S94
S0
G1 X219.050 S98
S0
G1 X219.304 S90
S0
G1 X219.431 S123
S0
G1 X219.558 S140
S0
G1 X219.685 S103
S0
G1 X219.812 S17
S0
G0 X219.939 S0
G1 X220.066 S9
S0
G1 X220.193 S1
S0
G0 X220.447 S0
G1 X220.574 S87
S0
G1 X220.701 S121
S0
G1 X220.828 S93
S0
G1 X220.955 S94
S0
G1 X221.082 S93
S0
G1 X221.209 S98
S0
G1 X221.336 S130
S0
G1 X221.463 S31
S0
G0 X222.098 S0
G1 X222.225 S4
S0
G0 X224.511 S0
G1 X224.638 S2
S0
G0 X224.765 S0
G1 X224.892 S5
S0
G1 X225.019 S4
S0
G1 X225.146 S2
S0
G1 X225.273 S9
S0
G1 X225.400 S7
S0
G1 X225.527 S5
S0
G1 X225.654 S2
S0
G1 X225.781 S1
S0
G0 X226.035 S0
G1 X226.162 S2
S0
G1 X226.289 S1
S0
G0 X226.416 S0
G1 X226.543 S1
S0
G0 X226.924 S0
G1 X227.051 S5
S0
G0 X227.305 S0
G1 X227.432 S19
S0
G1 X227.559 S76
S0
G1 X227.686 S91
S0
G1 X227.813 S90
S0
G1 X227.940 S87
S0
G1 X228.067 S8
S0
G0 X228.321 S0
G1 X228.448 S3
S0
G0 Y38.735
G0 X228.194 S0
G1 X228.067 S1
S0
G1 X227.940 S9
S0
G1 X227.813 S91
S0
G1 X227.686 S87
S0
G1 X227.559 S84
S0
G1 X227.432 S106
S0
G1 X227.305 S120
S0
G1 X227.178 S67
S0
G1 X227.051 S8
S0
G1 X226.797 S1
S0
G1 X226.670 S9
S0
G0 X226.289 S0
G1 X226.162 S4
S0
G1 X226.035 S1
S0
G0 X225.908 S0
G1 X225.781 S4
S0
G1 X225.654 S11
S0
G1 X225.527 S56
S0
G1 X225.400 S98
S0
G1 X225.273 S119
S0
G1 X225.146 S15
S0
G1 X225.019 S2
S0
G1 X224.892 S3
S0
G1 X224.765 S1
S0
G0 X224.638 S0
G1 X224.511 S1
S0
G0 X221.463 S0
G1 X221.336 S19
S0
G1 X221.209 S117
S0
G1 X221.082 S98
S0
G1 X220.955 S97
S0
G1 X220.828 S98
S0
G1 X220.701 S93
S0
G1 X220.574 S121
S0
G1 X220.447 S79
S0
G0 X220.193 S0
G1 X220.066 S4
S0
G1 X219.939 S2
S0
G1 X219.812 S4
S0
G1 X219.685 S2
S0
G1 X219.558 S1
S0
G1 X219.431 S28
S0
G1 X219.304 S106
S0
G1 X219.177 S142
S0
G1 X219.050 S114
S0
G1 X218.923 S91
S0
G1 X218.796 S93
S0
G1 X218.669 S99
S0
G1 X218.542 S98
S0
G1 X218.415 S93
S0
G1 X218.288 S90
S0
G1 X218.161 S105
S0
G1 X218.034 S122
S0
G1 X217.907 S130
S0
G1 X217.780 S125
S0
G1 X217.653 S111
S0
G1 X217.526 S85
S0
G1 X217.399 S57
S0
G1 X217.272 S8
S0
G0 X217.145 S0
G1 X217.018 S1
S0
G1 X216.891 S56
S0
G1 X216.764 S126
S0
G1 X216.637 S96
S0
G1 X216.510 S93
S0
G1 X216.383 S95
S0
G1 X216.256 S91
S0
G1 X216.129 S125
S0
G1 X216.002 S77
S0
G1 X215.875 S1
S0
G0 X215.494 S0
G1 X215.367 S1
S0
G0 Y38.608
G0 X215.494 S0
G1 X215.621 S4
S0
G0 X215.875 S0
G1 X216.002 S4
S0
G1 X216.129 S56
S0
G1 X216.256 S145
S0
G1 X216.383 S92
S0
G1 X216.510 S97
S0
G1 X216.637 S98
S0
G1 X216.764 S89
S0
G1 X216.891 S131
S0
G1 X217.018 S102
S0
G1 X217.272 S1
S0
G0 X217.526 S0
G1 X217.653 S1
S0
G1 X217.780 S8
S0
G1 X217.907 S39
S0
G1 X218.034 S79
S0
G1 X218.161 S106
S0
G1 X218.288 S126
S0
G1 X218.415 S140
S0
G1 X218.542 S122
S0
G1 X218.669 S99
S0
G1 X218.796 S94
S0
G1 X218.923 S101
S0
G1 X219.050 S143
S0
G1 X219.177 S116
S0
G1 X219.304 S55
S0
G1 X219.431 S2
S0
G1 X219.558 S1
S0
G1 X219.685 S8
S0
G1 X219.812 S4
S0
G1 X220.066 S1
S0
G1 X220.193 S3
S0
G1 X220.447 S1
S0
G1 X220.574 S79
S0
G1 X220.701 S117
S0
G1 X220.828 S93
S0
G1 X220.955 S98
S0
G1 X221.082 S93
S0
G1 X221.209 S101
S0
G1 X221.336 S117
S0
G1 X221.463 S15
S0
G0 X221.590 S0
G1 X221.717 S4
S0
G0 X224.511 S0
G1 X224.638 S2
S0
G0 X224.892 S0
G1 X225.019 S5
S0
G1 X225.146 S1
S0
G1 X225.273 S4
S0
G1 X225.400 S125
S0
G1 X225.527 S146
S0
G1 X225.654 S121
S0
G1 X225.781 S119
S0
G1 X225.908 S102
S0
G1 X226.035 S63
S0
G1 X226.162 S31
S0
G1 X226.289 S1
S0
G0 X226.416 S0
G1 X226.543 S2
S0
G0 X226.797 S0
G1 X226.924 S5
S0
G1 X227.051 S41
S0
G1 X227.178 S106
S0
G1 X227.305 S120
S0
G1 X227.432 S90
S0
G1 X227.559 S81
S0
G1 X227.686 S71
S0
G1 X227.813 S99
S0
G1 X227.940 S91
S0
G1 X228.067 S4
S0
G0 Y38.481
G0 X228.194 S0
G1 X227.940 S1
S0
G1 X227.813 S81
S0
G1 X227.686 S91
S0
G1 X227.559 S80
S0
G1 X227.432 S84
S0
G1 X227.305 S79
S0
G1 X227.178 S84
S0
G1 X227.051 S107
S0
G1 X226.924 S130
S0
G1 X226.797 S80
S0
G1 X226.670 S21
S0
G1 X226.543 S5
S0
G1 X226.416 S43
S0
G1 X226.289 S83
S0
G1 X226.162 S103
S0
G1 X226.035 S140
S0
G1 X225.908 S137
S0
G1 X225.781 S122
S0
G1 X225.654 S103
S0
G1 X225.527 S87
S0
G1 X225.400 S124
S0
G1 X225.273 S66
S0
G1 X225.146 S1
S0
G1 X225.019 S2
S0
G0 X224.892 S0
G1 X224.638 S5
S0
G0 X221.463 S0
G1 X221.336 S15
S0
G1 X221.209 S108
S0
G1 X221.082 S111
S0
G1 X220.955 S93
S0
G1 X220.828 S95
S0
G1 X220.701 S90
S0
G1 X220.574 S121
S0
G1 X220.447 S94
S0
G1 X220.320 S1
S0
G1 X220.193 S2
S0
G0 X219.939 S0
G1 X219.812 S8
S0
G1 X219.685 S3
S0
G1 X219.431 S4
S0
G1 X219.304 S2
S0
G1 X219.050 S1
S0
G1 X218.923 S75
S0
G1 X218.796 S136
S0
G1 X218.669 S142
S0
G1 X218.542 S136
S0
G1 X218.415 S89
S0
G1 X218.288 S61
S0
G1 X218.161 S25
S0
G1 X218.034 S3
S0
G1 X217.907 S4
S0
G0 X217.399 S0
G1 X217.272 S1
S0
G1 X217.145 S2
S0
G1 X217.018 S1
S0
G1 X216.891 S110
S0
G1 X216.764 S118
S0
G1 X216.510 S97
S0
G1 X216.383 S93
S0
G1 X216.256 S108
S0
G1 X216.129 S132
S0
G1 X216.002 S19
S0
G0 X215.875 S0
G1 X215.748 S1
S0
G0 X215.621 S0
G1 X215.494 S1
S0
G0 Y38.354
G0 X215.494 S0
G1 X215.621 S1
S0
G0 X215.748 S0
G1 X215.875 S1
S0
G1 X216.129 S2
S0
G1 X216.256 S94
S0
G1 X216.383 S119
S0
G1 X216.510 S90
S0
G1 X216.637 S94
S0
G1 X216.764 S98
S0
G1 X216.891 S96
S0
G1 X217.018 S121
S0
G1 X217.145 S36
S0
G1 X217.272 S2
S0
G0 X217.399 S0
G1 X217.526 S3
S0
G0 X217.653 S0
G1 X217.780 S4
S0
G1 X218.034 S1
S0
G1 X218.288 S2
S0
G0 X218.415 S0
G1 X218.542 S4
S0
G1 X218.669 S24
S0
G1 X218.796 S69
S0
G1 X218.923 S35
S0
G1 X219.050 S1
S0
G1 X219.177 S3
S0
G1 X219.431 S2
S0
G1 X219.558 S1
S0
G0 X219.685 S0
G1 X219.812 S4
S0
G1 X219.939 S2
S0
G0 X220.066 S0
G1 X220.193 S3
S0
G0 X220.320 S0
G1 X220.447 S1
S0
G1 X220.574 S92
S0
G1 X220.701 S117
S0
G1 X220.828 S93
S0
G1 X220.955 S98
S0
G1 X221.082 S93
S0
G1 X221.209 S105
S0
G1 X221.336 S117
S0
G1 X221.463 S16
S0
G0 X224.638 S0
G1 X225.146 S1
S0
G1 X225.273 S3
S0
G1 X225.400 S31
S0
G1 X225.527 S125
S0
G1 X225.654 S102
S0
G1 X225.781 S94
S0
G1 X225.908 S90
S0
G1 X226.035 S91
S0
G1 X226.162 S99
S0
G1 X226.289 S117
S0
G1 X226.416 S131
S0
G1 X226.543 S130
S0
G1 X226.670 S109
S0
G1 X226.797 S112
S0
G1 X226.924 S120
S0
G1 X227.051 S90
S0
G1 X227.305 S79
S0
G1 X227.432 S83
S0
G1 X227.559 S84
S0
G1 X227.686 S77
S0
G1 X227.813 S90
S0
G1 X227.940 S91
S0
G1 X228.067 S4
S0
G0 Y38.227
G0 X228.321 S0
G1 X228.194 S4
S0
G1 X228.067 S3
S0
G0 X227.940 S0
G1 X227.813 S91
S0
G1 X227.686 S87
S0
G1 X227.559 S79
S0
G1 X227.432 S81
S0
G1 X227.305 S79
S0
G1 X227.051 S87
S0
G1 X226.924 S85
S0
G1 X226.797 S87
S0
G1 X226.543 S108
S0
G1 X226.416 S94
S0
G1 X226.289 S90
S0
G1 X226.162 S93
S0
G1 X225.908 S98
S0
G1 X225.654 S99
S0
G1 X225.400 S110
S0
G1 X225.273 S9
S0
G1 X225.146 S1
S0
G1 X225.019 S2
S0
G1 X224.892 S5
S0
G0 X224.765 S0
G1 X224.638 S1
S0
G0 X221.844 S0
G1 X221.717 S4
S0
G0 X221.590 S0
G1 X221.463 S4
S0
G1 X221.336 S20
S0
G1 X221.209 S117
S0
G1 X221.082 S105
S0
G1 X220.955 S97
S0
G1 X220.828 S94
S0
G1 X220.701 S91
S0
G1 X220.574 S125
S0
G1 X220.447 S98
S0
G1 X220.066 S1
S0
G0 X219.939 S0
G1 X219.685 S2
S0
G0 X219.431 S0
G1 X219.304 S1
S0
G1 X219.177 S5
S0
G0 X219.050 S0
G1 X218.923 S1
S0
G0 X218.415 S0
G1 X218.288 S1
S0
G0 X218.034 S0
G1 X217.907 S3
S0
G0 X217.526 S0
G1 X217.272 S2
S0
G1 X217.145 S1
S0
G1 X217.018 S70
S0
G1 X216.891 S138
S0
G1 X216.764 S98
S0
G1 X216.637 S101
S0
G1 X216.510 S98
S0
G1 X216.383 S93
S0
G1 X216.256 S125
S0
G1 X216.129 S69
S0
G1 X216.002 S4
S0
G1 X215.875 S2
S0
G1 X215.748 S1
S0
G0 Y38.100
G0 X215.240 S0
G1 X215.367 S4
S0
G0 X215.621 S0
G1 X215.875 S1
S0
G1 X216.002 S2
S0
G1 X216.129 S1
S0
G1 X216.256 S35
S0
G1 X216.383 S118
S0
G1 X216.510 S98
S0
G1 X216.637 S95
S0
G1 X216.764 S98
S0
G1 X216.891 S99
S0
G1 X217.018 S120
S0
G1 X217.145 S82
S0
G1 X217.272 S2
S0
G1 X217.399 S1
S0
G0 X218.161 S0
G1 X218.288 S5
S0
G1 X218.415 S2
S0
G1 X218.542 S3
S0
G0 X218.669 S0
G1 X218.923 S1
S0
G1 X219.050 S4
S0
G0 X219.177 S0
G1 X219.304 S1
S0
G1 X219.431 S2
S0
G0 X219.685 S0
G1 X219.812 S3
S0
G0 X220.193 S0
G1 X220.447 S1
S0
G1 X220.574 S94
S0
G1 X220.701 S113
S0
G1 X220.828 S91
S0
G1 X220.955 S98
S0
G1 X221.082 S93
S0
G1 X221.209 S101
S0
G1 X221.336 S116
S0
G1 X221.463 S16
S0
G1 X221.590 S4
S0
G0 X221.717 S0
G1 X222.098 S4
S0
G0 X224.511 S0
G1 X224.638 S1
S0
G0 X224.765 S0
G1 X224.892 S2
S0
G0 X225.019 S0
G1 X225.146 S1
S0
G0 X225.400 S0
G1 X225.527 S103
S0
G1 X225.654 S121
S0
G1 X225.781 S99
S0
G1 X225.908 S94
S0
G1 X226.035 S98
S0
G1 X226.162 S94
S0
G1 X226.289 S92
S0
G1 X226.416 S98
S0
G1 X226.543 S99
S0
G1 X226.670 S94
S0
G1 X226.797 S87
S0
G1 X226.924 S91
S0
G1 X227.051 S86
S0
G1 X227.178 S88
S0
G1 X227.305 S84
S0
G1 X227.432 S79
S0
G1 X227.559 S81
S0
G1 X227.686 S80
S0
G1 X227.813 S90
S0
G1 X227.940 S91
S0
G1 X228.067 S5
S0
G0 X228.194 S0
G1 X228.321 S1
S0
G0 Y37.973
G0 X228.067 S0
G1 X227.940 S3
S0
G1 X227.813 S84
S0
G1 X227.686 S94
S0
G1 X227.559 S75
S0
G1 X227.432 S80
S0
G1 X227.305 S79
S0
G1 X227.178 S83
S0
G1 X227.051 S84
S0
G1 X226.924 S88
S0
G1 X226.797 S90
S0
G1 X226.670 S93
S0
G1 X226.543 S98
S0
G1 X226.416 S97
S0
G1 X226.162 S93
S0
G1 X226.035 S96
S0
G1 X225.908 S98
S0
G1 X225.781 S102
S0
G1 X225.654 S93
S0
G1 X225.527 S124
S0
G1 X225.400 S60
S0
G1 X225.273 S5
S0
G1 X225.019 S2
S0
G0 X224.892 S0
G1 X224.765 S2
S0
G0 X224.638 S0
G1 X224.511 S1
S0
G1 X224.384 S2
S0
G0 X221.844 S0
G1 X221.717 S4
S0
G0 X221.336 S0
G1 X221.209 S106
S0
G1 X221.082 S105
S0
G1 X220.955 S93
S0
G1 X220.828 S99
S0
G1 X220.701 S94
S0
G1 X220.574 S114
S0
G1 X220.447 S110
S0
G0 X220.320 S0
G1 X220.066 S2
S0
G0 X219.812 S0
G1 X219.685 S2
S0
G1 X219.558 S5
S0
G0 X218.923 S0
G1 X218.669 S1
S0
G0 X218.542 S0
G1 X218.288 S2
S0
G0 X218.161 S0
G1 X218.034 S4
S0
G0 X217.272 S0
G1 X217.145 S1
S0
G1 X217.018 S108
S0
G1 X216.891 S114
S0
G1 X216.764 S93
S0
G1 X216.637 S100
S0
G1 X216.510 S99
S0
G1 X216.383 S105
S0
G1 X216.256 S117
S0
G1 X216.129 S8
S0
G1 X216.002 S1
S0
G1 X215.875 S5
S0
G0 X215.748 S0
G1 X215.621 S2
S0
G1 X215.494 S5
S0
G0 Y37.846
G0 X208.128 S0
G1 X208.255 S2
S0
G1 X208.382 S1
S0
G1 X208.509 S2
S0
G1 X208.636 S1
S0
G1 X208.763 S4
S0
G1 X209.017 S1
S0
G0 X209.525 S0
G1 X209.652 S1
S0
G1 X209.779 S2
S0
G1 X209.906 S5
S0
G0 X215.494 S0
G1 X215.621 S4
S0
G0 X215.748 S0
G1 X215.875 S2
S0
G0 X216.002 S0
G1 X216.129 S4
S0
G0 X216.256 S0
G1 X216.383 S85
S0
G1 X216.510 S117
S0
G1 X217.018 S94
S0
G1 X217.145 S124
S0
G1 X217.272 S31
S0
G0 X217.399 S0
G1 X217.653 S2
S0
G0 X217.780 S0
G1 X217.907 S1
S0
G0 X220.320 S0
G1 X220.447 S5
S0
G1 X220.574 S106
S0
G1 X220.701 S120
S0
G1 X220.828 S94
S0
G1 X220.955 S102
S0
G1 X221.082 S97
S0
G1 X221.209 S96
S0
G1 X221.336 S124
S0
G1 X221.463 S55
S0
G0 X221.590 S0
G1 X221.717 S1
S0
G0 X221.971 S0
G1 X222.098 S4
S0
G1 X222.225 S1
S0
G0 X222.606 S0
G1 X222.733 S1
S0
G0 X223.241 S0
G1 X223.368 S1
S0
G0 X224.384 S0
G1 X224.511 S2
S0
G1 X224.638 S5
S0
G1 X224.765 S2
S0
G1 X224.892 S4
S0
G0 X225.273 S0
G1 X225.400 S5
S0
G1 X225.527 S37
S0
G1 X225.654 S132
S0
G1 X225.781 S96
S0
G1 X225.908 S99
S0
G1 X226.035 S93
S0
G1 X226.416 S94
S0
G1 X226.543 S93
S0
G1 X226.797 S94
S0
G1 X227.051 S90
S0
G1 X227.178 S88
S0
G1 X227.305 S79
S0
G1 X227.432 S80
S0
G1 X227.559 S76
S0
G1 X227.686 S77
S0
G1 X227.813 S95
S0
G1 X227.940 S86
S0
G1 X228.067 S2
S0
G1 X228.194 S3
S0
G1 X228.321 S1
S0
G0 X229.083 S0
G1 X229.210 S1
S0
G1 X229.337 S2
S0
G0 Y37.719
G0 X228.702 S0
G1 X228.575 S4
S0
G1 X228.448 S5
S0
G0 X228.321 S0
G1 X228.194 S4
S0
G0 X228.067 S0
G1 X227.940 S31
S0
G1 X227.813 S103
S0
G1 X227.559 S83
S0
G1 X227.432 S79
S0
G1 X227.305 S76
S0
G1 X227.178 S79
S0
G1 X227.051 S88
S0
G1 X226.797 S87
S0
G1 X226.670 S91
S0
G1 X226.543 S94
S0
G1 X226.416 S93
S0
G1 X226.289 S97
S0
G1 X226.162 S93
S0
G1 X226.035 S96
S0
G1 X225.781 S98
S0
G1 X225.654 S106
S0
G1 X225.527 S121
S0
G1 X225.400 S16
S0
G1 X225.273 S1
S0
G0 X224.511 S0
G1 X224.384 S4
S0
G0 X223.241 S0
G1 X223.114 S1
S0
G0 X222.860 S0
G1 X222.733 S4
S0
G0 X222.479 S0
G1 X222.352 S1
S0
G0 X222.225 S0
G1 X222.098 S4
S0
G1 X221.971 S2
S0
G1 X221.844 S1
S0
G1 X221.590 S2
S0
G1 X221.463 S73
S0
G1 X221.336 S144
S0
G1 X221.209 S108
S0
G1 X221.082 S94
S0
G1 X220.955 S97
S0
G1 X220.701 S94
S0
G1 X220.574 S114
S0
G1 X220.447 S82
S0
G1 X220.320 S2
S0
G0 X218.288 S0
G1 X218.161 S1
S0
G0 X217.907 S0
G1 X217.780 S1
S0
G0 X217.272 S0
G1 X217.145 S67
S0
G1 X217.018 S133
S0
G1 X216.891 S87
S0
G1 X216.637 S94
S0
G1 X216.510 S89
S0
G1 X216.383 S137
S0
G1 X216.256 S63
S0
G0 X216.002 S0
G1 X215.748 S4
S0
G0 X210.160 S0
G1 X209.906 S5
S0
G0 X209.779 S0
G1 X209.652 S5
S0
G0 X209.525 S0
G1 X209.398 S1
S0
G1 X209.271 S2
S0
G1 X209.144 S1
S0
G0 X208.890 S0
G1 X208.763 S4
S0
G0 X208.509 S0
G1 X208.382 S1
S0
G0 X208.255 S0
G1 X208.128 S2
S0
G0 Y37.592
G0 X208.255 S0
G1 X208.382 S1
S0
G1 X208.509 S4
S0
G1 X208.636 S2
S0
G1 X208.763 S4
S0
G0 X209.144 S0
G1 X209.271 S3
S0
G1 X209.398 S2
S0
G1 X209.525 S5
S0
G0 X209.906 S0
G1 X210.033 S5
S0
G0 X215.240 S0
G1 X215.367 S4
S0
G0 X216.129 S0
G1 X216.256 S4
S0
G1 X216.383 S45
S0
G1 X216.510 S135
S0
G1 X216.637 S94
S0
G1 X216.764 S99
S0
G1 X216.891 S92
S0
G1 X217.018 S91
S0
G1 X217.145 S118
S0
G1 X217.272 S85
S0
G1 X217.399 S2
S0
G0 X217.653 S0
G1 X217.780 S1
S0
G0 X217.907 S0
G1 X218.034 S4
S0
G0 X218.161 S0
G1 X218.288 S1
S0
G0 X220.320 S0
G1 X220.447 S5
S0
G1 X220.574 S113
S0
G1 X220.701 S122
S0
G1 X220.828 S87
S0
G1 X220.955 S97
S0
G1 X221.082 S95
S0
G1 X221.209 S105
S0
G1 X221.336 S94
S0
G1 X221.463 S98
S0
G1 X221.590 S140
S0
G1 X221.717 S106
S0
G1 X221.844 S20
S0
G1 X221.971 S2
S0
G1 X222.098 S5
S0
G0 X222.352 S0
G1 X222.479 S5
S0
G0 X222.733 S0
G1 X222.860 S1
S0
G0 X223.114 S0
G1 X223.241 S1
S0
G0 X224.384 S0
G1 X224.511 S1
S0
G1 X224.638 S4
S0
G1 X224.765 S3
S0
G1 X224.892 S2
S0
G1 X225.019 S8
S0
G0 X225.146 S0
G1 X225.273 S4
S0
G0 X225.400 S0
G1 X225.527 S1
S0
G1 X225.654 S88
S0
G1 X225.781 S121
S0
G1 X225.908 S86
S0
G1 X226.035 S97
S0
G1 X226.162 S95
S0
G1 X226.289 S93
S0
G1 X226.416 S94
S0
G1 X226.543 S101
S0
G1 X226.670 S102
S0
G1 X226.797 S94
S0
G1 X227.051 S87
S0
G1 X227.178 S88
S0
G1 X227.305 S83
S0
G1 X227.432 S76
S0
G1 X227.686 S80
S0
G1 X227.813 S75
S0
G1 X227.940 S93
S0
G1 X228.067 S111
S0
G1 X228.194 S43
S0
G1 X228.321 S2
S0
G1 X228.448 S4
S0
G1 X228.575 S3
S0
G0 X228.829 S0
G1 X229.083 S1
S0
G0 X229.337 S0
G1 X229.464 S1
S0
G0 Y37.465
G0 X229.464 S0
G1 X229.337 S1
S0
G1 X229.210 S3
S0
G1 X229.083 S2
S0
G0 X228.829 S0
G1 X228.702 S5
S0
G0 X228.448 S0
G1 X228.321 S2
S0
G1 X228.194 S70
S0
G1 X228.067 S116
S0
G1 X227.940 S90
S0
G1 X227.813 S77
S0
G1 X227.686 S84
S0
G1 X227.559 S79
S0
G1 X227.432 S80
S0
G1 X227.305 S79
S0
G1 X227.178 S83
S0
G1 X227.051 S84
S0
G1 X226.797 S87
S0
G1 X226.670 S91
S0
G1 X226.543 S94
S0
G1 X226.416 S93
S0
G1 X226.035 S94
S0
G1 X225.908 S99
S0
G1 X225.781 S96
S0
G1 X225.654 S124
S0
G1 X225.527 S60
S0
G1 X225.400 S2
S0
G0 X225.146 S0
G1 X225.019 S4
S0
G0 X224.892 S0
G1 X224.765 S1
S0
G1 X224.638 S2
S0
G0 X224.511 S0
G1 X224.384 S1
S0
G0 X223.241 S0
G1 X223.114 S1
S0
G0 X222.860 S0
G1 X222.606 S1
S0
G1 X222.479 S4
S0
G0 X222.352 S0
G1 X222.225 S5
S0
G1 X222.098 S1
S0
G1 X221.971 S2
S0
G1 X221.844 S39
S0
G1 X221.717 S132
S0
G1 X221.590 S134
S0
G1 X221.463 S89
S0
G1 X221.082 S98
S0
G1 X220.955 S91
S0
G1 X220.828 S87
S0
G1 X220.701 S115
S0
G1 X220.574 S142
S0
G1 X220.447 S77
S0
G1 X220.320 S6
S0
G1 X220.193 S1
S0
G0 X217.399 S0
G1 X217.272 S9
S0
G1 X217.145 S120
S0
G1 X217.018 S114
S0
G1 X216.764 S93
S0
G1 X216.637 S94
S0
G1 X216.510 S108
S0
G1 X216.383 S113
S0
G1 X216.256 S3
S0
G0 X216.129 S0
G1 X215.875 S4
S0
G0 X210.160 S0
G1 X210.033 S5
S0
G1 X209.906 S2
S0
G1 X209.779 S87
S0
G1 X209.652 S80
S0
G1 X209.525 S4
S0
G0 X209.398 S0
G1 X209.271 S4
S0
G1 X209.017 S2
S0
G1 X208.890 S1
S0
G1 X208.763 S2
S0
G0 X208.509 S0
G1 X208.382 S2
S0
G1 X208.128 S1
S0
G0 Y37.338
G0 X208.128 S0
G1 X208.255 S2
S0
G1 X208.382 S5
S0
G1 X208.509 S1
S0
G1 X208.636 S7
S0
G1 X208.763 S75
S0
G1 X208.890 S67
S0
G1 X209.017 S19
S0
G1 X209.144 S1
S0
G0 X209.271 S0
G1 X209.398 S1
S0
G1 X209.525 S35
S0
G1 X209.652 S106
S0
G1 X209.779 S163
S0
G1 X209.906 S85
S0
G1 X210.033 S3
S0
G1 X210.160 S2
S0
G0 X215.367 S0
G1 X215.494 S4
S0
G0 X215.748 S0
G1 X215.875 S4
S0
G1 X216.002 S1
S0
G0 X216.129 S0
G1 X216.256 S4
S0
G1 X216.383 S1
S0
G1 X216.510 S90
S0
G1 X216.637 S121
S0
G1 X216.764 S90
S0
G1 X217.018 S94
S0
G1 X217.145 S96
S0
G1 X217.272 S134
S0
G1 X217.399 S47
S0
G1 X217.526 S1
S0
G0 X217.907 S0
G1 X218.034 S1
S0
G0 X220.193 S0
G1 X220.320 S1
S0
G1 X220.447 S5
S0
G0 X220.574 S0
G1 X220.701 S43
S0
G1 X220.828 S137
S0
G1 X220.955 S123
S0
G1 X221.209 S91
S0
G1 X221.336 S101
S0
G1 X221.590 S94
S0
G1 X221.717 S90
S0
G1 X221.844 S114
S0
G1 X221.971 S146
S0
G1 X222.098 S71
S0
G1 X222.225 S2
S0
G0 X222.352 S0
G1 X222.479 S2
S0
G1 X222.606 S5
S0
G1 X222.733 S2
S0
G1 X222.860 S1
S0
G0 X222.987 S0
G1 X223.241 S1
S0
G0 X224.765 S0
G1 X224.892 S4
S0
G1 X225.019 S7
S0
G0 X225.146 S0
G1 X225.273 S1
S0
G1 X225.400 S2
S0
G1 X225.527 S33
S0
G1 X225.654 S129
S0
G1 X225.781 S106
S0
G1 X225.908 S95
S0
G1 X226.035 S97
S0
G1 X226.162 S92
S0
G1 X226.289 S98
S0
G1 X226.416 S97
S0
G1 X226.543 S93
S0
G1 X226.670 S94
S0
G1 X226.797 S91
S0
G1 X227.051 S87
S0
G1 X227.178 S84
S0
G1 X227.305 S83
S0
G1 X227.432 S79
S0
G1 X227.559 S76
S0
G1 X227.686 S79
S0
G1 X227.813 S80
S0
G1 X227.940 S84
S0
G1 X228.067 S79
S0
G1 X228.194 S70
S0
G1 X228.321 S90
S0
G1 X228.448 S87
S0
G1 X228.575 S24
S0
G0 X228.702 S0
G1 X228.829 S4
S0
G1 X229.083 S1
S0
G1 X229.337 S8
S0
G0 Y37.211
G0 X229.210 S0
G1 X229.083 S1
S0
G1 X228.956 S4
S0
G0 X228.829 S0
G1 X228.702 S1
S0
G1 X228.575 S36
S0
G1 X228.448 S106
S0
G1 X228.321 S67
S0
G1 X228.194 S368
S0
G1 X228.067 S285
S0
G1 X227.940 S44
S0
G1 X227.813 S76
S0
G1 X227.686 S80
S0
G1 X227.559 S79
S0
G1 X227.432 S81
S0
G1 X227.305 S79
S0
G1 X227.178 S83
S0
G1 X227.051 S84
S0
G1 X226.797 S87
S0
G1 X226.670 S86
S0
G1 X226.543 S94
S0
G1 X226.289 S97
S0
G1 X226.162 S94
S0
G1 X226.035 S98
S0
G1 X225.908 S94
S0
G1 X225.781 S99
S0
G1 X225.654 S90
S0
G1 X225.527 S123
S0
G1 X225.400 S130
S0
G1 X225.273 S1
S0
G1 X225.146 S4
S0
G1 X224.765 S1
S0
G1 X224.638 S4
S0
G1 X224.511 S2
S0
G1 X224.384 S4
S0
G0 X222.987 S0
G1 X222.860 S1
S0
G1 X222.606 S2
S0
G0 X222.479 S0
G1 X222.352 S2
S0
G1 X222.225 S4
S0
G1 X222.098 S90
S0
G1 X221.971 S145
S0
G1 X221.844 S103
S0
G1 X221.717 S94
S0
G1 X221.590 S105
S0
G1 X221.463 S93
S0
G1 X221.336 S99
S0
G1 X221.209 S96
S0
G1 X221.082 S94
S0
G1 X220.955 S141
S0
G1 X220.828 S118
S0
G1 X220.701 S20
S0
G1 X220.574 S1
S0
G1 X220.447 S3
S0
G1 X220.320 S4
S0
G0 X217.653 S0
G1 X217.399 S1
S0
G1 X217.272 S83
S0
G1 X217.145 S137
S0
G1 X217.018 S91
S0
G1 X216.891 S99
S0
G1 X216.764 S96
S0
G1 X216.637 S99
S0
G1 X216.510 S107
S0
G1 X216.383 S112
S0
G1 X216.256 S11
S0
G1 X216.129 S1
S0
G0 X216.002 S0
G1 X215.748 S1
S0
G0 X210.160 S0
G1 X210.033 S5
S0
G1 X209.906 S1
S0
G1 X209.779 S64
S0
G1 X209.652 S111
S0
G1 X209.525 S112
S0
G1 X209.398 S155
S0
G1 X209.271 S75
S0
G1 X209.144 S63
S0
G1 X209.017 S111
S0
G1 X208.890 S120
S0
G1 X208.763 S135
S0
G1 X208.636 S104
S0
G0 X208.509 S0
G1 X208.382 S4
S0
G1 X208.255 S2
S0
G1 X208.128 S1
S0
G0 Y37.084
G0 X208.128 S0
G1 X208.255 S6
S0
G1 X208.382 S1
S0
G0 X208.509 S0
G1 X208.636 S5
S0
G1 X208.763 S46
S0
G1 X208.890 S108
S0
G1 X209.017 S71
S0
G1 X209.144 S103
S0
G1 X209.271 S134
S0
G1 X209.398 S133
S0
G1 X209.525 S64
S0
G1 X209.652 S12
S0
G1 X209.779 S124
S0
G1 X209.906 S66
S0
G0 X210.033 S0
G1 X210.160 S1
S0
G0 X215.494 S0
G1 X215.621 S4
S0
G0 X215.875 S0
G1 X216.002 S4
S0
G1 X216.256 S1
S0
G1 X216.383 S102
S0
G1 X216.510 S129
S0
G1 X216.637 S90
S0
G1 X216.764 S92
S0
G1 X216.891 S102
S0
G1 X217.018 S103
S0
G1 X217.145 S96
S0
G1 X217.272 S144
S0
G1 X217.399 S67
S0
G1 X217.653 S1
S0
G0 X217.907 S0
G1 X218.034 S4
S0
G0 X220.320 S0
G1 X220.574 S7
S0
G0 X220.828 S0
G1 X220.955 S4
S0
G1 X221.082 S98
S0
G1 X221.209 S150
S0
G1 X221.336 S103
S0
G1 X221.463 S87
S0
G1 X221.590 S98
S0
G1 X221.717 S93
S0
G1 X221.844 S97
S0
G1 X221.971 S90
S0
G1 X222.098 S98
S0
G1 X222.225 S136
S0
G1 X222.352 S124
S0
G1 X222.479 S32
S0
G1 X222.733 S1
S0
G1 X222.860 S2
S0
G0 X223.241 S0
G1 X223.368 S4
S0
G0 X224.511 S0
G1 X224.638 S2
S0
G0 X224.765 S0
G1 X225.019 S3
S0
G1 X225.146 S1
S0
G1 X225.273 S5
S0
G1 X225.400 S103
S0
G1 X225.527 S132
S0
G1 X225.654 S95
S0
G1 X225.908 S93
S0
G1 X226.035 S91
S0
G1 X226.162 S94
S0
G1 X226.289 S93
S0
G1 X226.416 S98
S0
G1 X226.543 S97
S0
G1 X226.670 S94
S0
G1 X226.797 S86
S0
G1 X227.051 S87
S0
G1 X227.178 S84
S0
G1 X227.305 S83
S0
G1 X227.432 S79
S0
G1 X227.559 S84
S0
G1 X227.686 S79
S0
G1 X227.813 S81
S0
G1 X227.940 S84
S0
G1 X228.067 S30
S0
G1 X228.194 S330
S0
G1 X228.321 S650
S0
G1 X228.448 S129
S0
G1 X228.575 S57
S0
G1 X228.702 S120
S0
G1 X228.829 S59
S0
G1 X228.956 S2
S0
G0 X229.083 S0
G1 X229.337 S4
S0
G1 X229.464 S1
S0
G0 Y36.957
G0 X229.337 S0
G1 X229.210 S1
S0
G0 X229.083 S0
G1 X228.956 S20
S0
G1 X228.829 S94
S0
G1 X228.702 S120
S0
G1 X228.575 S82
S0
G1 X228.448 S20
S0
G1 X228.321 S354
S0
G1 X228.194 S604
S0
G1 X228.067 S323
S0
G1 X227.940 S63
S0
G1 X227.813 S76
S0
G1 X227.686 S79
S0
G1 X227.559 S83
S0
G1 X227.432 S80
S0
G1 X227.305 S79
S0
G1 X227.178 S83
S0
G1 X227.051 S84
S0
G1 X226.797 S87
S0
G1 X226.670 S90
S0
G1 X226.543 S94
S0
G1 X226.416 S93
S0
G1 X226.162 S94
S0
G1 X226.035 S97
S0
G1 X225.908 S95
S0
G1 X225.781 S96
S0
G1 X225.654 S93
S0
G1 X225.527 S91
S0
G1 X225.400 S90
S0
G1 X225.273 S144
S0
G1 X225.146 S75
S0
G0 X224.638 S0
G1 X224.511 S2
S0
G0 X223.368 S0
G1 X222.987 S1
S0
G0 X222.860 S0
G1 X222.606 S2
S0
G1 X222.479 S45
S0
G1 X222.352 S131
S0
G1 X222.225 S125
S0
G1 X222.098 S90
S0
G1 X221.971 S94
S0
G1 X221.717 S99
S0
G1 X221.590 S97
S0
G1 X221.463 S89
S0
G1 X221.336 S118
S0
G1 X221.209 S140
S0
G1 X221.082 S70
S0
G1 X220.955 S2
S0
G1 X220.828 S4
S0
G1 X220.701 S3
S0
G1 X220.574 S8
S0
G1 X220.447 S2
S0
G1 X220.320 S4
S0
G0 X218.288 S0
G1 X218.161 S4
S0
G1 X217.907 S1
S0
G0 X217.780 S0
G1 X217.526 S2
S0
G0 X217.399 S0
G1 X217.272 S3
S0
G1 X217.145 S87
S0
G1 X217.018 S131
S0
G1 X216.891 S90
S0
G1 X216.637 S93
S0
G1 X216.510 S98
S0
G1 X216.383 S87
S0
G1 X216.256 S144
S0
G1 X216.129 S76
S0
G1 X216.002 S5
S0
G0 X215.875 S0
G1 X215.748 S4
S0
G0 X209.906 S0
G1 X209.779 S52
S0
G1 X209.652 S132
S0
G1 X209.525 S27
S0
G1 X209.398 S2
S0
G1 X209.271 S27
S0
G1 X209.144 S25
S0
G0 X209.017 S0
G1 X208.890 S43
S0
G1 X208.763 S128
S0
G1 X208.636 S13
S0
G1 X208.509 S4
S0
G1 X208.382 S1
S0
G1 X208.128 S2
S0
G0 Y36.830
G0 X208.128 S0
G1 X208.255 S5
S0
G0 X208.382 S0
G1 X208.509 S4
S0
G1 X208.636 S2
S0
G0 X208.763 S0
G1 X208.890 S95
S0
G1 X209.017 S103
S0
G1 X209.144 S3
S0
G1 X209.398 S1
S0
G0 X209.525 S0
G1 X209.652 S27
S0
G1 X209.779 S119
S0
G1 X209.906 S131
S0
G1 X210.033 S59
S0
G1 X210.160 S2
S0
G1 X210.287 S1
S0
G1 X210.414 S9
S0
G0 X210.541 S0
G1 X210.668 S2
S0
G0 X210.795 S0
G1 X210.922 S2
S0
G1 X211.049 S1
S0
G0 X215.240 S0
G1 X215.367 S1
S0
G0 X215.494 S0
G1 X215.621 S2
S0
G1 X215.875 S5
S0
G1 X216.002 S2
S0
G1 X216.129 S48
S0
G1 X216.256 S137
S0
G1 X216.383 S102
S0
G1 X216.510 S94
S0
G1 X216.637 S96
S0
G1 X216.764 S98
S0
G1 X216.891 S93
S0
G1 X217.018 S125
S0
G1 X217.145 S124
S0
G1 X217.272 S4
S0
G0 X220.828 S0
G1 X221.082 S1
S0
G1 X221.209 S3
S0
G1 X221.336 S35
S0
G1 X221.463 S126
S0
G1 X221.590 S129
S0
G1 X221.717 S96
S0
G1 X221.844 S92
S0
G1 X222.098 S98
S0
G1 X222.225 S93
S0
G1 X222.352 S91
S0
G1 X222.479 S109
S0
G1 X222.606 S140
S0
G1 X222.733 S72
S0
G1 X222.987 S2
S0
G1 X223.114 S1
S0
G1 X223.241 S4
S0
G1 X223.368 S5
S0
G1 X223.495 S2
S0
G1 X223.749 S1
S0
G0 X223.876 S0
G1 X224.003 S3
S0
G1 X224.130 S1
S0
G0 X224.384 S0
G1 X224.638 S1
S0
G1 X224.765 S4
S0
G1 X225.019 S1
S0
G1 X225.146 S40
S0
G1 X225.273 S144
S0
G1 X225.400 S105
S0
G1 X225.527 S91
S0
G1 X225.654 S98
S0
G1 X225.781 S90
S0
G1 X225.908 S98
S0
G1 X226.035 S97
S0
G1 X226.162 S93
S0
G1 X226.289 S94
S0
G1 X226.416 S93
S0
G1 X226.543 S98
S0
G1 X226.797 S90
S0
G1 X226.924 S87
S0
G1 X227.178 S84
S0
G1 X227.305 S83
S0
G1 X227.813 S80
S0
G1 X227.940 S65
S0
G1 X228.067 S85
S0
G1 X228.194 S414
S0
G1 X228.321 S501
S0
G1 X228.448 S550
S0
G1 X228.575 S139
S0
G1 X228.702 S75
S0
G1 X228.829 S116
S0
G1 X228.956 S112
S0
G1 X229.083 S31
S0
G1 X229.337 S2
S0
G0 Y36.703
G0 X229.464 S0
G1 X229.337 S2
S0
G1 X229.210 S5
S0
G1 X229.083 S2
S0
G1 X228.829 S1
S0
G1 X228.702 S28
S0
G1 X228.575 S13
S0
G1 X228.448 S358
S0
G1 X228.321 S625
S0
G1 X228.194 S408
S0
G1 X228.067 S481
S0
G1 X227.940 S138
S0
G1 X227.813 S41
S0
G1 X227.305 S79
S0
G1 X227.178 S80
S0
G1 X226.797 S87
S0
G1 X226.543 S90
S0
G1 X226.416 S101
S0
G1 X226.289 S93
S0
G1 X226.162 S94
S0
G1 X226.035 S98
S0
G1 X225.908 S97
S0
G1 X225.781 S94
S0
G1 X225.654 S98
S0
G1 X225.400 S94
S0
G1 X225.273 S89
S0
G1 X225.146 S122
S0
G1 X225.019 S125
S0
G1 X224.892 S24
S0
G1 X224.638 S2
S0
G1 X224.511 S1
S0
G0 X224.257 S0
G1 X224.130 S1
S0
G1 X224.003 S4
S0
G1 X223.876 S1
S0
G1 X223.749 S2
S0
G1 X223.368 S1
S0
G1 X223.241 S4
S0
G0 X223.114 S0
G1 X222.987 S2
S0
G1 X222.860 S8
S0
G1 X222.733 S98
S0
G1 X222.606 S147
S0
G1 X222.479 S103
S0
G1 X222.352 S95
S0
G1 X222.225 S101
S0
G1 X222.098 S97
S0
G1 X221.971 S93
S0
G1 X221.844 S90
S0
G1 X221.717 S98
S0
G1 X221.590 S142
S0
G1 X221.463 S107
S0
G1 X221.336 S8
S0
G1 X221.209 S4
S0
G1 X221.082 S1
S0
G1 X220.955 S5
S0
G0 X220.701 S0
G1 X220.447 S1
S0
G0 X217.272 S0
G1 X217.145 S1
S0
G1 X217.018 S31
S0
G1 X216.891 S136
S0
G1 X216.764 S110
S0
G1 X216.637 S91
S0
G1 X216.510 S101
S0
G1 X216.383 S99
S0
G1 X216.256 S91
S0
G1 X216.129 S108
S0
G1 X216.002 S136
S0
G1 X215.875 S32
S0
G0 X215.748 S0
G1 X215.494 S4
S0
G1 X215.367 S5
S0
G0 X211.049 S0
G1 X210.922 S2
S0
G1 X210.795 S4
S0
G0 X210.668 S0
G1 X210.414 S4
S0
G1 X210.287 S1
S0
G1 X210.160 S13
S0
G1 X210.033 S80
S0
G1 X209.906 S134
S0
G1 X209.779 S85
S0
G1 X209.652 S9
S0
G1 X209.525 S2
S0
G1 X209.398 S4
S0
G1 X209.271 S5
S0
G1 X209.017 S2
S0
G1 X208.890 S80
S0
G1 X208.763 S134
S0
G1 X208.636 S40
S0
G1 X208.509 S2
S0
G0 X208.382 S0
G1 X208.255 S7
S0
G1 X208.128 S3
S0
G0 Y36.576
G0 X208.128 S0
G1 X208.255 S4
S0
G1 X208.382 S1
S0
G1 X208.509 S2
S0
G1 X208.636 S20
S0
G1 X208.763 S141
S0
G1 X208.890 S87
S0
G1 X209.017 S5
S0
G1 X209.144 S1
S0
G0 X209.271 S0
G1 X209.398 S4
S0
G1 X209.525 S1
S0
G1 X209.652 S2
S0
G1 X209.779 S20
S0
G1 X209.906 S63
S0
G1 X210.033 S108
S0
G1 X210.160 S148
S0
G1 X210.287 S124
S0
G1 X210.414 S27
S0
G1 X210.668 S2
S0
G0 X210.795 S0
G1 X211.049 S2
S0
G1 X211.176 S1
S0
G0 X215.240 S0
G1 X215.367 S1
S0
G1 X215.494 S9
S0
G1 X215.621 S1
S0
G0 X215.748 S0
G1 X215.875 S8
S0
G1 X216.002 S116
S0
G1 X216.129 S126
S0
G1 X216.256 S86
S0
G1 X216.510 S98
S0
G1 X216.637 S99
S0
G1 X216.764 S96
S0
G1 X216.891 S153
S0
G1 X217.018 S59
S0
G1 X217.145 S1
S0
G1 X217.272 S2
S0
G0 X220.574 S0
G1 X220.701 S1
S0
G0 X220.955 S0
G1 X221.082 S8
S0
G1 X221.209 S5
S0
G1 X221.336 S2
S0
G0 X221.463 S0
G1 X221.590 S4
S0
G1 X221.717 S79
S0
G1 X221.844 S141
S0
G1 X221.971 S113
S0
G1 X222.098 S86
S0
G1 X222.225 S93
S0
G1 X222.352 S102
S0
G1 X222.479 S93
S0
G1 X222.606 S94
S0
G1 X222.733 S96
S0
G1 X222.860 S133
S0
G1 X222.987 S134
S0
G1 X223.114 S39
S0
G1 X223.241 S1
S0
G1 X223.368 S4
S0
G0 X223.622 S0
G1 X223.876 S1
S0
G1 X224.003 S5
S0
G0 X224.130 S0
G1 X224.257 S4
S0
G0 X224.638 S0
G1 X224.892 S1
S0
G1 X225.019 S112
S0
G1 X225.146 S131
S0
G1 X225.273 S84
S0
G1 X225.400 S98
S0
G1 X225.527 S94
S0
G1 X225.781 S90
S0
G1 X225.908 S97
S0
G1 X226.035 S96
S0
G1 X226.162 S94
S0
G1 X226.289 S90
S0
G1 X226.416 S98
S0
G1 X226.670 S90
S0
G1 X226.797 S91
S0
G1 X227.051 S87
S0
G1 X227.178 S84
S0
G1 X227.305 S87
S0
G1 X227.432 S84
S0
G1 X227.559 S71
S0
G1 X227.686 S90
S0
G1 X227.813 S98
S0
G1 X227.940 S65
S0
G1 X228.067 S239
S0
G1 X228.194 S497
S0
G1 X228.321 S403
S0
G1 X228.448 S536
S0
G1 X228.575 S539
S0
G1 X228.702 S4
S0
G1 X228.829 S2
S0
G0 X229.083 S0
G1 X229.210 S8
S0
G1 X229.337 S2
S0
G1 X229.464 S1
S0
G0 Y36.449
G0 X229.337 S0
G1 X229.210 S3
S0
G0 X228.956 S0
G1 X228.702 S2
S0
G1 X228.575 S161
S0
G1 X228.448 S655
S0
G1 X228.321 S414
S0
G1 X228.194 S392
S0
G1 X228.067 S511
S0
G1 X227.940 S407
S0
G1 X227.813 S18
S0
G1 X227.686 S71
S0
G1 X227.559 S107
S0
G1 X227.432 S90
S0
G1 X227.305 S80
S0
G1 X227.178 S84
S0
G1 X227.051 S83
S0
G1 X226.797 S87
S0
G1 X226.670 S88
S0
G1 X226.543 S93
S0
G1 X226.289 S97
S0
G1 X226.162 S93
S0
G1 X226.035 S98
S0
G1 X225.908 S96
S0
G1 X225.781 S107
S0
G1 X225.527 S104
S0
G1 X225.400 S109
S0
G1 X225.273 S112
S0
G1 X225.146 S117
S0
G1 X225.019 S112
S0
G1 X224.892 S158
S0
G1 X224.765 S106
S0
G1 X224.638 S12
S0
G1 X224.511 S1
S0
G1 X224.384 S2
S0
G0 X224.257 S0
G1 X224.130 S3
S0
G0 X223.622 S0
G1 X223.368 S1
S0
G0 X223.241 S0
G1 X223.114 S70
S0
G1 X222.987 S137
S0
G1 X222.860 S114
S0
G1 X222.733 S90
S0
G1 X222.479 S98
S0
G1 X222.352 S99
S0
G1 X222.225 S98
S0
G1 X222.098 S102
S0
G1 X221.971 S112
S0
G1 X221.844 S120
S0
G1 X221.717 S56
S0
G1 X221.590 S5
S0
G0 X221.463 S0
G1 X221.336 S5
S0
G0 X220.828 S0
G1 X220.701 S4
S0
G0 X220.574 S0
G1 X220.447 S1
S0
G0 X217.272 S0
G1 X217.145 S5
S0
G1 X217.018 S1
S0
G1 X216.891 S3
S0
G1 X216.764 S90
S0
G1 X216.637 S147
S0
G1 X216.510 S86
S0
G1 X216.383 S94
S0
G1 X216.256 S102
S0
G1 X216.129 S99
S0
G1 X216.002 S89
S0
G1 X215.875 S132
S0
G1 X215.748 S91
S0
G1 X215.621 S1
S0
G1 X215.494 S5
S0
G1 X215.240 S1
S0
G0 X211.176 S0
G1 X211.049 S1
S0
G1 X210.922 S2
S0
G1 X210.795 S1
S0
G1 X210.668 S3
S0
G1 X210.541 S6
S0
G1 X210.414 S2
S0
G1 X210.287 S9
S0
G1 X210.160 S46
S0
G1 X210.033 S71
S0
G1 X209.906 S83
S0
G1 X209.779 S137
S0
G1 X209.652 S128
S0
G1 X209.525 S89
S0
G1 X209.398 S4
S0
G0 X209.271 S0
G1 X209.144 S20
S0
G1 X209.017 S55
S0
G1 X208.890 S62
S0
G1 X208.763 S74
S0
G1 X208.636 S116
S0
G1 X208.509 S124
S0
G1 X208.382 S35
S0
G0 X208.255 S0
G1 X208.128 S5
S0
G0 Y36.322
G0 X208.255 S0
G1 X208.382 S5
S0
G1 X208.509 S81
S0
G1 X208.636 S113
S0
G1 X208.763 S88
S0
G1 X208.890 S112
S0
G1 X209.017 S120
S0
G1 X209.144 S144
S0
G1 X209.271 S113
S0
G1 X209.398 S5
S0
G1 X209.525 S43
S0
G1 X209.652 S145
S0
G1 X209.779 S55
S0
G1 X209.906 S24
S0
G1 X210.033 S1
S0
G1 X210.287 S2
S0
G0 X210.414 S0
G1 X210.541 S1
S0
G0 X210.795 S0
G1 X211.049 S1
S0
G1 X211.176 S2
S0
G0 X215.367 S0
G1 X215.494 S3
S0
G1 X215.621 S2
S0
G1 X215.748 S83
S0
G1 X215.875 S150
S0
G1 X216.002 S96
S0
G1 X216.129 S94
S0
G1 X216.256 S97
S0
G1 X216.383 S98
S0
G1 X216.510 S90
S0
G1 X216.637 S130
S0
G1 X216.764 S107
S0
G1 X216.891 S4
S0
G1 X217.018 S1
S0
G1 X217.145 S5
S0
G1 X217.272 S2
S0
G0 X220.701 S0
G1 X220.828 S3
S0
G1 X220.955 S1
S0
G1 X221.082 S2
S0
G1 X221.209 S5
S0
G0 X221.336 S0
G1 X221.463 S1
S0
G1 X221.590 S2
S0
G1 X221.717 S1
S0
G1 X221.844 S5
S0
G1 X221.971 S50
S0
G1 X222.098 S116
S0
G1 X222.225 S106
S0
G1 X222.606 S98
S0
G1 X222.733 S99
S0
G1 X222.860 S101
S0
G1 X222.987 S91
S0
G1 X223.114 S108
S0
G1 X223.241 S149
S0
G1 X223.368 S94
S0
G1 X223.495 S5
S0
G1 X223.622 S4
S0
G1 X223.749 S1
S0
G0 X223.876 S0
G1 X224.003 S2
S0
G1 X224.130 S4
S0
G0 X224.257 S0
G1 X224.384 S2
S0
G0 X224.638 S0
G1 X224.765 S24
S0
G1 X224.892 S99
S0
G1 X225.019 S94
S0
G1 X225.146 S107
S0
G1 X225.273 S105
S0
G1 X225.400 S121
S0
G1 X225.527 S106
S0
G1 X225.654 S113
S0
G1 X225.781 S114
S0
G1 X225.908 S105
S0
G1 X226.035 S126
S0
G1 X226.162 S117
S0
G1 X226.289 S122
S0
G1 X226.416 S96
S0
G1 X226.543 S91
S0
G1 X226.670 S94
S0
G1 X227.051 S87
S0
G1 X227.178 S84
S0
G1 X227.305 S88
S0
G1 X227.432 S84
S0
G1 X227.559 S112
S0
G1 X227.686 S44
S0
G1 X227.813 S1
S0
G1 X227.940 S17
S0
G1 X228.067 S487
S0
G1 X228.194 S466
S0
G1 X228.321 S408
S0
G1 X228.448 S370
S0
G1 X228.575 S604
S0
G1 X228.702 S458
S0
G1 X228.829 S8
S0
G0 X228.956 S0
G1 X229.083 S4
S0
G1 X229.210 S2
S0
G1 X229.337 S1
S0
G1 X229.464 S2
S0
G0 Y36.195
G0 X229.210 S0
G1 X229.083 S1
S0
G0 X228.829 S0
G1 X228.702 S57
S0
G1 X228.575 S631
S0
G1 X228.448 S466
S0
G1 X228.321 S410
S0
G1 X228.194 S420
S0
G1 X228.067 S427
S0
G1 X227.940 S521
S0
G1 X227.813 S107
S0
G1 X227.559 S2
S0
G1 X227.432 S95
S0
G1 X227.305 S102
S0
G1 X227.178 S83
S0
G1 X227.051 S87
S0
G1 X226.924 S84
S0
G1 X226.797 S88
S0
G1 X226.670 S93
S0
G1 X226.416 S91
S0
G1 X226.289 S134
S0
G1 X226.162 S74
S0
G1 X226.035 S32
S0
G1 X225.908 S39
S0
G1 X225.781 S12
S0
G1 X225.654 S14
S0
G1 X225.527 S20
S0
G0 X225.400 S0
G1 X225.273 S8
S0
G1 X225.146 S5
S0
G1 X225.019 S3
S0
G1 X224.892 S5
S0
G1 X224.765 S1
S0
G0 X224.638 S0
G1 X224.511 S5
S0
G1 X224.384 S1
S0
G1 X224.257 S4
S0
G1 X224.130 S1
S0
G0 X224.003 S0
G1 X223.749 S2
S0
G0 X223.622 S0
G1 X223.495 S22
S0
G1 X223.368 S120
S0
G1 X223.241 S138
S0
G1 X223.114 S92
S0
G1 X222.987 S97
S0
G1 X222.860 S93
S0
G1 X222.733 S98
S0
G1 X222.606 S97
S0
G1 X222.479 S91
S0
G1 X222.225 S94
S0
G1 X222.098 S98
S0
G1 X221.971 S107
S0
G1 X221.844 S117
S0
G1 X221.717 S99
S0
G1 X221.590 S71
S0
G1 X221.463 S40
S0
G1 X221.336 S5
S0
G1 X221.082 S1
S0
G0 X220.955 S0
G1 X220.701 S3
S0
G1 X220.574 S4
S0
G1 X220.447 S1
S0
G0 X217.272 S0
G1 X217.145 S1
S0
G0 X217.018 S0
G1 X216.764 S1
S0
G1 X216.637 S8
S0
G1 X216.510 S130
S0
G1 X216.383 S118
S0
G1 X216.256 S95
S0
G1 X216.129 S99
S0
G1 X216.002 S98
S0
G1 X215.875 S94
S0
G1 X215.748 S102
S0
G1 X215.621 S145
S0
G1 X215.494 S52
S0
G1 X215.367 S2
S0
G1 X215.113 S4
S0
G0 X212.319 S0
G1 X212.192 S4
S0
G0 X211.176 S0
G1 X210.414 S1
S0
G0 X210.287 S0
G1 X210.160 S4
S0
G0 X210.033 S0
G1 X209.779 S1
S0
G1 X209.652 S5
S0
G1 X209.525 S98
S0
G1 X209.398 S80
S0
G1 X209.271 S56
S0
G1 X209.144 S147
S0
G1 X209.017 S43
S0
G1 X208.763 S5
S0
G1 X208.636 S12
S0
G1 X208.509 S2
S0
G1 X208.382 S9
S0
G1 X208.255 S1
S0
G1 X208.128 S2
S0
G0 Y36.068
G0 X208.382 S0
G1 X208.509 S2
S0
G1 X208.636 S1
S0
G0 X208.890 S0
G1 X209.017 S2
S0
G1 X209.144 S3
S0
G1 X209.271 S69
S0
G1 X209.398 S131
S0
G1 X209.525 S108
S0
G1 X209.652 S56
S0
G1 X209.779 S6
S0
G1 X209.906 S8
S0
G1 X210.033 S2
S0
G1 X210.287 S1
S0
G0 X210.541 S0
G1 X210.668 S2
S0
G0 X210.795 S0
G1 X210.922 S4
S0
G0 X211.049 S0
G1 X211.176 S1
S0
G0 X212.192 S0
G1 X212.573 S4
S0
G0 X214.859 S0
G1 X215.240 S4
S0
G0 X215.367 S0
G1 X215.494 S23
S0
G1 X215.621 S138
S0
G1 X215.748 S114
S0
G1 X215.875 S88
S0
G1 X216.002 S99
S0
G1 X216.256 S94
S0
G1 X216.383 S101
S0
G1 X216.510 S146
S0
G1 X216.637 S24
S0
G1 X216.764 S5
S0
G1 X216.891 S1
S0
G0 X217.145 S0
G1 X217.272 S1
S0
G0 X220.320 S0
G1 X220.447 S1
S0
G0 X220.701 S0
G1 X220.828 S1
S0
G1 X220.955 S5
S0
G1 X221.082 S14
S0
G1 X221.209 S39
S0
G1 X221.336 S89
S0
G1 X221.463 S103
S0
G1 X221.590 S130
S0
G1 X221.717 S126
S0
G1 X221.844 S112
S0
G1 X221.971 S95
S0
G1 X222.098 S94
S0
G1 X222.225 S97
S0
G1 X222.479 S98
S0
G1 X222.606 S94
S0
G1 X222.733 S93
S0
G1 X222.860 S98
S0
G1 X222.987 S101
S0
G1 X223.114 S96
S0
G1 X223.241 S87
S0
G1 X223.368 S90
S0
G1 X223.495 S154
S0
G1 X223.622 S171
S0
G1 X223.749 S67
S0
G1 X223.876 S1
S0
G1 X224.003 S5
S0
G0 X224.257 S0
G1 X224.384 S2
S0
G0 X224.511 S0
G1 X224.638 S5
S0
G0 X224.765 S0
G1 X225.273 S1
S0
G0 X225.400 S0
G1 X225.527 S5
S0
G0 X225.781 S0
G1 X225.908 S1
S0
G1 X226.035 S2
S0
G1 X226.162 S1
S0
G1 X226.289 S6
S0
G1 X226.416 S98
S0
G1 X226.543 S125
S0
G1 X226.670 S86
S0
G1 X226.797 S93
S0
G1 X226.924 S88
S0
G1 X227.051 S87
S0
G1 X227.178 S90
S0
G1 X227.305 S73
S0
G1 X227.432 S111
S0
G1 X227.559 S54
S0
G1 X227.813 S2
S0
G1 X227.940 S226
S0
G1 X228.067 S540
S0
G1 X228.194 S406
S0
G1 X228.321 S427
S0
G1 X228.448 S429
S0
G1 X228.575 S390
S0
G1 X228.702 S667
S0
G1 X228.829 S321
S0
G1 X228.956 S1
S0
G1 X229.083 S5
S0
G1 X229.210 S1
S0
G1 X229.337 S2
S0
G1 X229.464 S1
S0
G0 Y35.941
G0 X229.464 S0
G1 X229.337 S1
S0
G1 X229.083 S6
S0
G1 X228.956 S1
S0
G1 X228.829 S2
S0
G1 X228.702 S561
S0
G1 X228.575 S573
S0
G1 X228.448 S398
S0
G1 X228.321 S429
S0
G1 X228.194 S428
S0
G1 X228.067 S406
S0
G1 X227.940 S541
S0
G1 X227.813 S317
S0
G0 X227.686 S0
G1 X227.559 S3
S0
G1 X227.432 S16
S0
G1 X227.305 S105
S0
G1 X227.178 S90
S0
G1 X227.051 S84
S0
G1 X226.924 S91
S0
G1 X226.797 S87
S0
G1 X226.670 S84
S0
G1 X226.543 S107
S0
G1 X226.416 S126
S0
G1 X226.289 S9
S0
G0 X226.162 S0
G1 X226.035 S4
S0
G1 X225.908 S2
S0
G0 X225.527 S0
G1 X225.400 S1
S0
G1 X225.273 S2
S0
G0 X225.146 S0
G1 X225.019 S1
S0
G1 X224.892 S2
S0
G1 X224.384 S1
S0
G0 X224.257 S0
G1 X224.130 S1
S0
G0 X224.003 S0
G1 X223.876 S4
S0
G1 X223.749 S2
S0
G1 X223.622 S39
S0
G1 X223.495 S87
S0
G1 X223.368 S94
S0
G1 X223.241 S134
S0
G1 X223.114 S138
S0
G1 X222.987 S121
S0
G1 X222.860 S105
S0
G1 X222.733 S98
S0
G1 X222.606 S90
S0
G1 X222.479 S97
S0
G1 X222.352 S94
S0
G1 X222.098 S98
S0
G1 X221.971 S93
S0
G1 X221.844 S94
S0
G1 X221.590 S87
S0
G1 X221.463 S91
S0
G1 X221.336 S101
S0
G1 X221.209 S117
S0
G1 X221.082 S112
S0
G1 X220.955 S107
S0
G1 X220.828 S74
S0
G1 X220.701 S36
S0
G1 X220.574 S15
S0
G0 X217.272 S0
G1 X217.145 S2
S0
G1 X217.018 S1
S0
G0 X216.637 S0
G1 X216.510 S5
S0
G1 X216.383 S66
S0
G1 X216.256 S154
S0
G1 X216.129 S93
S0
G1 X216.002 S97
S0
G1 X215.748 S98
S0
G1 X215.621 S88
S0
G1 X215.494 S122
S0
G1 X215.367 S114
S0
G1 X214.859 S4
S0
G0 X212.573 S0
G1 X212.192 S4
S0
G0 X211.049 S0
G1 X210.922 S29
S0
G1 X210.795 S59
S0
G1 X210.668 S102
S0
G1 X210.541 S179
S0
G1 X210.414 S207
S0
G1 X210.287 S262
S0
G1 X210.160 S353
S0
G1 X210.033 S371
S0
G1 X209.906 S391
S0
G1 X209.779 S417
S0
G1 X209.652 S409
S0
G1 X209.525 S380
S0
G1 X209.398 S433
S0
G1 X209.271 S323
S0
G1 X209.144 S11
S0
G1 X208.890 S1
S0
G1 X208.763 S3
S0
G1 X208.509 S2
S0
G0 X208.382 S0
G1 X208.255 S4
S0
G0 Y35.814
G0 X208.636 S0
G1 X209.144 S4
S0
G1 X209.271 S1
S0
G1 X209.398 S184
S0
G1 X209.525 S613
S0
G1 X209.652 S516
S0
G1 X209.779 S522
S0
G1 X209.906 S533
S0
G1 X210.033 S552
S0
G1 X210.160 S559
S0
G1 X210.287 S578
S0
G1 X210.414 S603
S0
G1 X210.541 S591
S0
G1 X210.668 S608
S0
G1 X210.795 S587
S0
G1 X210.922 S537
S0
G1 X211.049 S527
S0
G1 X211.176 S444
S0
G1 X211.303 S389
S0
G1 X211.430 S322
S0
G1 X211.557 S246
S0
G1 X211.684 S167
S0
G1 X211.811 S68
S0
G1 X211.938 S20
S0
G0 X212.065 S0
G1 X212.192 S1
S0
G1 X212.319 S2
S0
G0 X212.573 S0
G1 X212.700 S1
S0
G0 X212.954 S0
G1 X213.081 S1
S0
G0 X213.208 S0
G1 X213.335 S2
S0
G0 X213.462 S0
G1 X213.589 S4
S0
G1 X213.716 S1
S0
G1 X214.097 S2
S0
G0 X214.605 S0
G1 X214.732 S2
S0
G1 X214.859 S1
S0
G1 X215.113 S4
S0
G1 X215.240 S2
S0
G1 X215.367 S91
S0
G1 X215.494 S141
S0
G1 X215.621 S83
S0
G1 X215.748 S98
S0
G1 X215.875 S92
S0
G1 X216.002 S98
S0
G1 X216.129 S96
S0
G1 X216.256 S140
S0
G1 X216.383 S79
S0
G1 X216.510 S5
S0
G1 X216.764 S2
S0
G0 X217.399 S0
G1 X217.526 S1
S0
G0 X217.653 S0
G1 X218.034 S2
S0
G1 X218.161 S1
S0
G0 X218.288 S0
G1 X218.415 S4
S0
G0 X218.542 S0
G1 X218.669 S4
S0
G0 X218.796 S0
G1 X218.923 S2
S0
G1 X219.431 S1
S0
G1 X219.558 S5
S0
G1 X219.685 S1
S0
G1 X219.812 S3
S0
G0 X219.939 S0
G1 X220.193 S2
S0
G1 X220.320 S28
S0
G1 X220.447 S66
S0
G1 X220.574 S83
S0
G1 X220.701 S102
S0
G1 X220.828 S107
S0
G1 X220.955 S101
S0
G1 X221.082 S87
S0
G1 X221.209 S88
S0
G1 X221.336 S91
S0
G1 X221.463 S87
S0
G1 X221.590 S90
S0
G1 X221.844 S93
S0
G1 X221.971 S99
S0
G1 X222.098 S98
S0
G1 X222.225 S93
S0
G1 X222.352 S87
S0
G1 X222.479 S94
S0
G1 X222.606 S108
S0
G1 X222.733 S122
S0
G1 X222.987 S125
S0
G1 X223.114 S98
S0
G1 X223.241 S67
S0
G1 X223.368 S27
S0
G0 X226.416 S0
G1 X226.543 S40
S0
G1 X226.670 S140
S0
G1 X226.797 S96
S0
G1 X226.924 S87
S0
G1 X227.051 S90
S0
G1 X227.178 S80
S0
G1 X227.305 S111
S0
G1 X227.432 S80
S0
G1 X227.559 S2
S0
G0 X227.813 S0
G1 X227.940 S405
S0
G1 X228.067 S522
S0
G1 X228.194 S418
S0
G1 X228.321 S425
S0
G1 X228.448 S430
S0
G1 X228.702 S418
S0
G1 X228.829 S691
S0
G1 X228.956 S151
S0
G0 X229.083 S0
G1 X229.210 S5
S0
G1 X229.337 S1
S0
G0 Y35.687
G0 X229.464 S0
G1 X229.337 S2
S0
G1 X229.210 S3
S0
G0 X228.956 S0
G1 X228.829 S446
S0
G1 X228.702 S633
S0
G1 X228.575 S381
S0
G1 X228.321 S431
S0
G1 X228.194 S427
S0
G1 X228.067 S419
S0
G1 X227.940 S485
S0
G1 X227.813 S492
S0
G1 X227.686 S23
S0
G0 X227.559 S0
G1 X227.432 S1
S0
G1 X227.305 S28
S0
G1 X227.178 S124
S0
G1 X227.051 S87
S0
G1 X226.924 S88
S0
G1 X226.797 S87
S0
G1 X226.670 S141
S0
G1 X226.543 S63
S0
G0 X223.368 S0
G1 X223.241 S1
S0
G1 X223.114 S5
S0
G1 X222.987 S1
S0
G1 X222.860 S20
S0
G1 X222.733 S53
S0
G1 X222.606 S87
S0
G1 X222.479 S121
S0
G1 X222.352 S140
S0
G1 X222.225 S131
S0
G1 X222.098 S113
S0
G1 X221.971 S96
S0
G1 X221.844 S93
S0
G1 X221.717 S94
S0
G1 X221.463 S91
S0
G1 X221.336 S93
S0
G1 X221.209 S91
S0
G1 X221.082 S90
S0
G1 X220.955 S87
S0
G1 X220.828 S79
S0
G1 X220.701 S84
S0
G1 X220.574 S91
S0
G1 X220.447 S102
S0
G1 X220.320 S108
S0
G1 X220.193 S111
S0
G1 X220.066 S90
S0
G1 X219.939 S8
S0
G0 X219.812 S0
G1 X219.558 S1
S0
G1 X219.431 S2
S0
G1 X219.304 S5
S0
G0 X218.923 S0
G1 X218.796 S1
S0
G1 X218.669 S5
S0
G0 X218.542 S0
G1 X218.415 S3
S0
G1 X218.034 S1
S0
G1 X217.907 S5
S0
G1 X217.526 S1
S0
G0 X217.399 S0
G1 X217.272 S1
S0
G1 X217.145 S5
S0
G0 X216.637 S0
G1 X216.510 S4
S0
G1 X216.383 S1
S0
G1 X216.256 S3
S0
G1 X216.129 S94
S0
G1 X216.002 S116
S0
G1 X215.875 S91
S0
G1 X215.621 S94
S0
G1 X215.494 S98
S0
G1 X215.367 S96
S0
G1 X215.240 S147
S0
G1 X215.113 S56
S0
G1 X214.986 S2
S0
G0 X214.859 S0
G1 X214.732 S1
S0
G1 X214.605 S2
S0
G1 X214.478 S1
S0
G1 X214.351 S3
S0
G1 X214.097 S1
S0
G0 X213.970 S0
G1 X213.843 S1
S0
G1 X213.589 S5
S0
G1 X213.462 S2
S0
G1 X213.335 S4
S0
G1 X213.208 S2
S0
G0 X212.954 S0
G1 X212.827 S1
S0
G0 X212.700 S0
G1 X212.573 S2
S0
G1 X212.446 S14
S0
G1 X212.319 S117
S0
G1 X212.192 S187
S0
G1 X212.065 S309
S0
G1 X211.938 S421
S0
G1 X211.811 S498
S0
G1 X211.684 S536
S0
G1 X211.557 S578
S0
G1 X211.430 S574
S0
G1 X211.303 S591
S0
G1 X211.176 S572
S0
G1 X211.049 S559
S0
G1 X210.922 S528
S0
G1 X210.795 S511
S0
G1 X210.668 S493
S0
G1 X210.541 S465
S0
G1 X210.414 S448
S0
G1 X210.287 S441
S0
G1 X210.160 S436
S0
G1 X210.033 S440
S0
G1 X209.906 S444
S0
G1 X209.779 S446
S0
G1 X209.652 S428
S0
G1 X209.525 S548
S0
G1 X209.398 S463
S0
G1 X209.271 S2
S0
G1 X209.144 S5
S0
G1 X208.763 S4
S0
G0 Y35.560
G0 X209.144 S0
G1 X209.271 S2
S0
G1 X209.398 S3
S0
G1 X209.525 S177
S0
G1 X209.652 S621
S0
G1 X209.779 S442
S0
G1 X209.906 S454
S0
G1 X210.033 S461
S0
G1 X210.160 S466
S0
G1 X210.287 S465
S0
G1 X210.541 S458
S0
G1 X210.795 S457
S0
G1 X210.922 S454
S0
G1 X211.049 S451
S0
G1 X211.176 S452
S0
G1 X211.303 S453
S0
G1 X211.430 S446
S0
G1 X211.557 S448
S0
G1 X211.684 S464
S0
G1 X211.811 S486
S0
G1 X211.938 S526
S0
G1 X212.065 S563
S0
G1 X212.192 S590
S0
G1 X212.319 S592
S0
G1 X212.446 S576
S0
G1 X212.573 S508
S0
G1 X212.700 S391
S0
G1 X212.827 S300
S0
G1 X212.954 S142
S0
G1 X213.081 S30
S0
G1 X213.208 S2
S0
G0 X213.335 S0
G1 X213.716 S2
S0
G0 X213.843 S0
G1 X213.970 S1
S0
G0 X214.097 S0
G1 X214.224 S1
S0
G0 X214.351 S0
G1 X214.478 S4
S0
G1 X214.732 S1
S0
G1 X214.859 S5
S0
G1 X214.986 S1
S0
G1 X215.113 S29
S0
G1 X215.240 S143
S0
G1 X215.367 S106
S0
G1 X215.494 S91
S0
G1 X215.621 S93
S0
G1 X215.748 S97
S0
G1 X215.875 S99
S0
G1 X216.002 S90
S0
G1 X216.129 S114
S0
G1 X216.256 S94
S0
G1 X216.383 S83
S0
G1 X216.510 S80
S0
G1 X216.637 S71
S0
G1 X216.764 S76
S0
G1 X216.891 S88
S0
G1 X217.018 S75
S0
G1 X217.145 S66
S0
G1 X217.272 S48
S0
G1 X217.399 S32
S0
G1 X217.526 S36
S0
G1 X217.653 S27
S0
G1 X217.780 S20
S0
G1 X217.907 S21
S0
G1 X218.034 S16
S0
G1 X218.288 S5
S0
G1 X218.415 S4
S0
G1 X218.542 S1
S0
G1 X218.669 S5
S0
G1 X218.923 S2
S0
G1 X219.050 S1
S0
G1 X219.177 S4
S0
G1 X219.304 S1
S0
G1 X219.431 S6
S0
G1 X219.558 S5
S0
G1 X219.685 S4
S0
G1 X219.812 S2
S0
G1 X219.939 S1
S0
G1 X220.066 S56
S0
G1 X220.193 S124
S0
G1 X220.320 S80
S0
G1 X220.447 S71
S0
G1 X220.574 S84
S0
G1 X220.701 S79
S0
G1 X221.082 S84
S0
G1 X221.336 S87
S0
G1 X221.463 S88
S0
G1 X221.590 S87
S0
G1 X221.717 S94
S0
G1 X221.844 S114
S0
G1 X221.971 S128
S0
G1 X222.098 S130
S0
G1 X222.225 S113
S0
G1 X222.352 S91
S0
G1 X222.479 S43
S0
G1 X222.606 S15
S0
G0 X222.733 S0
G1 X223.368 S1
S0
G0 X226.416 S0
G1 X226.670 S1
S0
G1 X226.797 S99
S0
G1 X226.924 S130
S0
G1 X227.051 S75
S0
G1 X227.178 S112
S0
G1 X227.305 S87
S0
G1 X227.432 S2
S0
G0 X227.559 S0
G1 X227.686 S2
S0
G1 X227.813 S103
S0
G1 X227.940 S536
S0
G1 X228.067 S451
S0
G1 X228.194 S428
S0
G1 X228.321 S437
S0
G1 X228.448 S435
S0
G1 X228.575 S438
S0
G1 X228.702 S423
S0
G1 X228.829 S509
S0
G1 X228.956 S647
S0
G1 X229.083 S37
S0
G0 X229.210 S0
G1 X229.337 S1
S0
G0 Y35.433
G0 X229.464 S0
G1 X229.337 S1
S0
G1 X229.210 S4
S0
G1 X229.083 S2
S0
G1 X228.956 S268
S0
G1 X228.829 S702
S0
G1 X228.702 S426
S0
G1 X228.575 S450
S0
G1 X228.448 S443
S0
G1 X228.321 S444
S0
G1 X228.194 S447
S0
G1 X228.067 S440
S0
G1 X227.940 S433
S0
G1 X227.813 S572
S0
G1 X227.686 S183
S0
G1 X227.432 S1
S0
G1 X227.305 S2
S0
G1 X227.178 S48
S0
G1 X227.051 S112
S0
G1 X226.924 S99
S0
G1 X226.797 S123
S0
G1 X226.670 S9
S0
G0 X223.368 S0
G1 X223.114 S2
S0
G0 X222.733 S0
G1 X222.606 S4
S0
G0 X222.352 S0
G1 X222.098 S4
S0
G1 X221.971 S47
S0
G1 X221.844 S83
S0
G1 X221.717 S99
S0
G1 X221.590 S117
S0
G1 X221.463 S121
S0
G1 X221.336 S112
S0
G1 X221.209 S94
S0
G1 X220.574 S83
S0
G1 X220.447 S79
S0
G1 X220.320 S80
S0
G1 X220.193 S76
S0
G1 X220.066 S94
S0
G1 X219.939 S95
S0
G1 X219.812 S2
S0
G1 X219.685 S1
S0
G0 X219.558 S0
G1 X219.431 S3
S0
G1 X219.177 S1
S0
G0 X218.923 S0
G1 X218.796 S1
S0
G0 X218.669 S0
G1 X218.542 S5
S0
G1 X218.415 S8
S0
G1 X218.288 S1
S0
G1 X218.161 S44
S0
G1 X218.034 S127
S0
G1 X217.907 S114
S0
G1 X217.780 S127
S0
G1 X217.653 S116
S0
G1 X217.526 S121
S0
G1 X217.399 S120
S0
G1 X217.272 S121
S0
G1 X217.145 S126
S0
G1 X216.891 S132
S0
G1 X216.764 S133
S0
G1 X216.637 S125
S0
G1 X216.383 S120
S0
G1 X216.256 S125
S0
G1 X216.129 S112
S0
G1 X215.875 S94
S0
G1 X215.748 S90
S0
G1 X215.621 S94
S0
G1 X215.494 S93
S0
G1 X215.367 S101
S0
G1 X215.240 S86
S0
G1 X215.113 S122
S0
G1 X214.986 S121
S0
G1 X214.859 S9
S0
G1 X214.732 S1
S0
G1 X214.605 S2
S0
G1 X214.478 S4
S0
G1 X214.351 S1
S0
G1 X214.224 S4
S0
G1 X214.097 S1
S0
G0 X213.970 S0
G1 X213.843 S5
S0
G1 X213.716 S1
S0
G1 X213.589 S2
S0
G1 X213.462 S5
S0
G1 X213.335 S82
S0
G1 X213.208 S225
S0
G1 X213.081 S388
S0
G1 X212.954 S504
S0
G1 X212.827 S574
S0
G1 X212.700 S594
S0
G1 X212.573 S572
S0
G1 X212.446 S538
S0
G1 X212.319 S501
S0
G1 X212.192 S464
S0
G1 X212.065 S444
S0
G1 X211.938 S446
S0
G1 X211.811 S455
S0
G1 X211.684 S462
S0
G1 X211.430 S465
S0
G1 X211.303 S461
S0
G1 X211.176 S460
S0
G1 X211.049 S455
S0
G1 X210.922 S465
S0
G1 X210.795 S463
S0
G1 X210.668 S460
S0
G1 X210.414 S461
S0
G1 X210.287 S460
S0
G1 X210.160 S463
S0
G1 X210.033 S462
S0
G1 X209.906 S461
S0
G1 X209.779 S438
S0
G1 X209.652 S572
S0
G1 X209.525 S527
S0
G1 X209.398 S6
S0
G1 X209.271 S2
S0
G0 Y35.306
G0 X209.144 S0
G1 X209.271 S1
S0
G1 X209.398 S5
S0
G0 X209.525 S0
G1 X209.652 S209
S0
G1 X209.779 S669
S0
G1 X209.906 S451
S0
G1 X210.033 S467
S0
G1 X210.160 S461
S0
G1 X210.287 S457
S0
G1 X210.541 S462
S0
G1 X210.668 S463
S0
G1 X210.922 S460
S0
G1 X211.049 S463
S0
G1 X211.176 S467
S0
G1 X211.430 S469
S0
G1 X211.684 S462
S0
G1 X211.811 S471
S0
G1 X211.938 S469
S0
G1 X212.065 S470
S0
G1 X212.192 S464
S0
G1 X212.319 S476
S0
G1 X212.446 S475
S0
G1 X212.573 S465
S0
G1 X212.700 S474
S0
G1 X212.827 S478
S0
G1 X212.954 S495
S0
G1 X213.081 S537
S0
G1 X213.208 S619
S0
G1 X213.335 S634
S0
G1 X213.462 S585
S0
G1 X213.589 S487
S0
G1 X213.716 S330
S0
G1 X213.843 S105
S0
G1 X213.970 S1
S0
G1 X214.097 S2
S0
G0 X214.224 S0
G1 X214.351 S2
S0
G1 X214.478 S6
S0
G0 X214.605 S0
G1 X214.732 S2
S0
G1 X214.859 S9
S0
G1 X214.986 S112
S0
G1 X215.113 S127
S0
G1 X215.240 S90
S0
G1 X215.367 S99
S0
G1 X215.494 S98
S0
G1 X215.621 S99
S0
G1 X215.748 S98
S0
G1 X215.875 S93
S0
G1 X216.002 S94
S0
G1 X216.129 S90
S0
G1 X216.256 S94
S0
G1 X216.383 S97
S0
G1 X216.510 S93
S0
G1 X216.637 S94
S0
G1 X216.764 S91
S0
G1 X217.272 S94
S0
G1 X217.399 S96
S0
G1 X217.526 S101
S0
G1 X217.653 S97
S0
G1 X217.780 S102
S0
G1 X217.907 S107
S0
G1 X218.034 S99
S0
G1 X218.161 S122
S0
G1 X218.288 S136
S0
G1 X218.415 S25
S0
G0 X218.542 S0
G1 X218.669 S3
S0
G1 X218.796 S1
S0
G0 X219.177 S0
G1 X219.304 S4
S0
G1 X219.558 S1
S0
G1 X219.685 S5
S0
G0 X219.812 S0
G1 X219.939 S50
S0
G1 X220.066 S80
S0
G1 X220.193 S48
S0
G1 X220.320 S83
S0
G1 X220.447 S79
S0
G1 X220.574 S83
S0
G1 X220.701 S80
S0
G1 X220.828 S87
S0
G1 X220.955 S98
S0
G1 X221.082 S108
S0
G1 X221.209 S124
S0
G1 X221.336 S106
S0
G1 X221.463 S99
S0
G1 X221.590 S54
S0
G1 X221.717 S23
S0
G1 X221.844 S4
S0
G1 X221.971 S1
S0
G1 X222.098 S2
S0
G1 X222.352 S1
S0
G1 X222.479 S5
S0
G0 X222.606 S0
G1 X222.733 S4
S0
G0 X223.114 S0
G1 X223.241 S4
S0
G1 X223.368 S1
S0
G0 X226.670 S0
G1 X226.797 S1
S0
G1 X226.924 S19
S0
G1 X227.051 S145
S0
G1 X227.178 S115
S0
G1 X227.432 S2
S0
G1 X227.559 S3
S0
G1 X227.686 S2
S0
G1 X227.813 S308
S0
G1 X227.940 S564
S0
G1 X228.067 S430
S0
G1 X228.194 S449
S0
G1 X228.321 S450
S0
G1 X228.448 S451
S0
G1 X228.575 S450
S0
G1 X228.702 S451
S0
G1 X228.829 S412
S0
G1 X228.956 S613
S0
G1 X229.083 S581
S0
G0 X229.337 S0
G1 X229.464 S5
S0
G0 Y35.179
G0 X229.210 S0
G1 X229.083 S112
S0
G1 X228.956 S704
S0
G1 X228.829 S471
S0
G1 X228.702 S438
S0
G1 X228.575 S458
S0
G1 X228.321 S459
S0
G1 X228.194 S454
S0
G1 X228.067 S457
S0
G1 X227.940 S430
S0
G1 X227.813 S545
S0
G1 X227.686 S415
S0
G1 X227.559 S4
S0
G1 X227.432 S2
S0
G1 X227.178 S1
S0
G1 X226.924 S79
S0
G1 X226.543 S1
S0
G0 X223.368 S0
G1 X223.241 S2
S0
G0 X222.860 S0
G1 X222.733 S1
S0
G0 X222.479 S0
G1 X222.352 S8
S0
G1 X222.225 S1
S0
G1 X222.098 S4
S0
G1 X221.971 S2
S0
G1 X221.844 S5
S0
G1 X221.717 S1
S0
G1 X221.590 S2
S0
G0 X221.336 S0
G1 X221.209 S19
S0
G1 X221.082 S63
S0
G1 X220.955 S76
S0
G1 X220.828 S110
S0
G1 X220.701 S108
S0
G1 X220.574 S91
S0
G1 X220.447 S79
S0
G1 X220.320 S80
S0
G1 X220.193 S71
S0
G1 X220.066 S183
S0
G1 X219.939 S172
S0
G1 X219.812 S49
S0
G1 X219.685 S5
S0
G0 X219.558 S0
G1 X219.431 S5
S0
G0 X219.304 S0
G1 X219.177 S2
S0
G1 X219.050 S1
S0
G0 X218.923 S0
G1 X218.796 S2
S0
G1 X218.542 S1
S0
G1 X218.415 S2
S0
G1 X218.288 S107
S0
G1 X218.161 S120
S0
G1 X218.034 S87
S0
G1 X217.907 S103
S0
G1 X217.780 S91
S0
G1 X217.653 S98
S0
G1 X217.526 S94
S0
G1 X217.272 S98
S0
G1 X217.145 S97
S0
G1 X217.018 S93
S0
G1 X216.891 S99
S0
G1 X216.764 S102
S0
G1 X216.637 S93
S0
G1 X216.510 S91
S0
G1 X216.383 S94
S0
G1 X216.256 S99
S0
G1 X216.129 S95
S0
G1 X216.002 S99
S0
G1 X215.875 S94
S0
G1 X215.748 S90
S0
G1 X215.494 S94
S0
G1 X215.240 S98
S0
G1 X215.113 S96
S0
G1 X214.986 S95
S0
G1 X214.859 S145
S0
G1 X214.732 S83
S0
G0 X214.605 S0
G1 X214.478 S4
S0
G1 X214.351 S2
S0
G1 X214.224 S5
S0
G1 X214.097 S63
S0
G1 X213.970 S272
S0
G1 X213.843 S507
S0
G1 X213.716 S618
S0
G1 X213.589 S655
S0
G1 X213.462 S631
S0
G1 X213.335 S569
S0
G1 X213.208 S511
S0
G1 X213.081 S488
S0
G1 X212.954 S490
S0
G1 X212.827 S497
S0
G1 X212.700 S498
S0
G1 X212.573 S486
S0
G1 X212.319 S480
S0
G1 X212.192 S479
S0
G1 X211.938 S480
S0
G1 X211.811 S475
S0
G1 X211.684 S468
S0
G1 X211.557 S471
S0
G1 X211.430 S475
S0
G1 X211.303 S466
S0
G1 X211.176 S469
S0
G1 X210.795 S466
S0
G1 X210.668 S467
S0
G1 X210.541 S461
S0
G1 X210.414 S458
S0
G1 X210.287 S467
S0
G1 X210.160 S461
S0
G1 X210.033 S462
S0
G1 X209.906 S437
S0
G1 X209.779 S565
S0
G1 X209.652 S567
S0
G1 X209.525 S6
S0
G0 X209.398 S0
G1 X209.271 S1
S0
G0 Y35.052
G0 X209.271 S0
G1 X209.398 S1
S0
G1 X209.525 S7
S0
G1 X209.652 S2
S0
G1 X209.779 S256
S0
G1 X209.906 S677
S0
G1 X210.033 S429
S0
G1 X210.160 S458
S0
G1 X210.287 S463
S0
G1 X210.414 S460
S0
G1 X210.668 S462
S0
G1 X210.795 S466
S0
G1 X210.922 S465
S0
G1 X211.049 S452
S0
G1 X211.303 S460
S0
G1 X211.430 S457
S0
G1 X211.557 S460
S0
G1 X211.684 S476
S0
G1 X211.811 S479
S0
G1 X211.938 S481
S0
G1 X212.065 S488
S0
G1 X212.192 S490
S0
G1 X212.319 S482
S0
G1 X212.446 S494
S0
G1 X212.573 S486
S0
G1 X212.700 S492
S0
G1 X212.827 S497
S0
G1 X212.954 S501
S0
G1 X213.081 S510
S0
G1 X213.208 S516
S0
G1 X213.335 S523
S0
G1 X213.716 S527
S0
G1 X213.843 S563
S0
G1 X213.970 S652
S0
G1 X214.097 S701
S0
G1 X214.224 S621
S0
G1 X214.351 S434
S0
G1 X214.478 S180
S0
G1 X214.605 S9
S0
G1 X214.732 S7
S0
G1 X214.859 S127
S0
G1 X214.986 S112
S0
G1 X215.113 S105
S0
G1 X215.240 S101
S0
G1 X215.367 S100
S0
G1 X215.494 S87
S0
G1 X215.621 S93
S0
G1 X215.748 S90
S0
G1 X215.875 S91
S0
G1 X216.002 S90
S0
G1 X216.129 S92
S0
G1 X216.256 S94
S0
G1 X216.383 S93
S0
G1 X216.637 S94
S0
G1 X216.764 S97
S0
G1 X216.891 S94
S0
G1 X217.018 S95
S0
G1 X217.145 S97
S0
G1 X217.272 S90
S0
G1 X217.399 S94
S0
G1 X217.526 S93
S0
G1 X217.780 S95
S0
G1 X217.907 S101
S0
G1 X218.034 S94
S0
G1 X218.161 S95
S0
G1 X218.288 S87
S0
G1 X218.415 S128
S0
G1 X218.542 S76
S0
G1 X218.669 S1
S0
G0 X218.796 S0
G1 X218.923 S5
S0
G0 X219.558 S0
G1 X219.685 S2
S0
G1 X219.812 S1
S0
G1 X219.939 S90
S0
G1 X220.066 S526
S0
G1 X220.193 S431
S0
G1 X220.320 S47
S0
G1 X220.447 S79
S0
G1 X220.574 S94
S0
G1 X220.701 S103
S0
G1 X220.828 S41
S0
G1 X220.955 S13
S0
G1 X221.082 S5
S0
G0 X221.209 S0
G1 X221.336 S1
S0
G0 X221.463 S0
G1 X221.717 S2
S0
G1 X221.844 S5
S0
G0 X221.971 S0
G1 X222.098 S1
S0
G1 X222.225 S7
S0
G1 X222.352 S4
S0
G0 X222.606 S0
G1 X222.733 S5
S0
G1 X222.860 S2
S0
G0 X223.241 S0
G1 X223.368 S2
S0
G0 X226.670 S0
G1 X226.797 S1
S0
G1 X226.924 S7
S0
G1 X227.051 S5
S0
G1 X227.178 S1
S0
G0 X227.305 S0
G1 X227.432 S1
S0
G1 X227.559 S4
S0
G1 X227.686 S12
S0
G1 X227.813 S505
S0
G1 X227.940 S510
S0
G1 X228.067 S455
S0
G1 X228.194 S469
S0
G1 X228.321 S462
S0
G1 X228.448 S465
S0
G1 X228.575 S467
S0
G1 X228.702 S465
S0
G1 X228.829 S462
S0
G1 X228.956 S403
S0
G1 X229.083 S693
S0
G1 X229.210 S425
S0
G1 X229.464 S1
S0
G0 Y34.925
G0 X229.337 S0
G1 X229.210 S13
S0
G1 X229.083 S648
S0
G1 X228.956 S566
S0
G1 X228.829 S447
S0
G1 X228.575 S472
S0
G1 X228.448 S473
S0
G1 X228.321 S463
S0
G1 X228.194 S472
S0
G1 X228.067 S477
S0
G1 X227.940 S473
S0
G1 X227.813 S483
S0
G1 X227.686 S568
S0
G1 X227.559 S101
S0
G0 X227.432 S0
G1 X227.305 S1
S0
G1 X227.178 S8
S0
G0 X227.051 S0
G1 X226.924 S5
S0
G1 X226.797 S3
S0
G1 X226.670 S5
S0
G1 X226.543 S1
S0
G0 X222.860 S0
G1 X222.606 S1
S0
G0 X222.352 S0
G1 X222.098 S5
S0
G1 X221.971 S3
S0
G1 X221.844 S4
S0
G1 X221.590 S1
S0
G0 X221.209 S0
G1 X221.082 S4
S0
G1 X220.955 S2
S0
G0 X220.828 S0
G1 X220.701 S7
S0
G1 X220.574 S94
S0
G1 X220.447 S107
S0
G1 X220.320 S68
S0
G1 X220.193 S91
S0
G1 X220.066 S406
S0
G1 X219.939 S611
S0
G1 X219.812 S426
S0
G1 X219.685 S26
S0
G0 X219.431 S0
G1 X219.304 S6
S0
G0 X219.177 S0
G1 X218.923 S1
S0
G0 X218.796 S0
G1 X218.669 S2
S0
G1 X218.542 S49
S0
G1 X218.415 S128
S0
G1 X218.288 S86
S0
G1 X218.161 S91
S0
G1 X218.034 S95
S0
G1 X217.907 S97
S0
G1 X217.780 S94
S0
G1 X217.653 S98
S0
G1 X217.399 S99
S0
G1 X217.272 S101
S0
G1 X217.145 S99
S0
G1 X217.018 S105
S0
G1 X216.891 S108
S0
G1 X216.764 S112
S0
G1 X216.637 S114
S0
G1 X216.510 S117
S0
G1 X216.383 S122
S0
G1 X216.256 S119
S0
G1 X216.129 S117
S0
G1 X216.002 S126
S0
G1 X215.875 S122
S0
G1 X215.748 S128
S0
G1 X215.621 S134
S0
G1 X215.494 S130
S0
G1 X215.367 S141
S0
G1 X215.240 S124
S0
G1 X215.113 S116
S0
G1 X214.986 S79
S0
G1 X214.859 S40
S0
G1 X214.732 S142
S0
G1 X214.605 S354
S0
G1 X214.478 S516
S0
G1 X214.351 S682
S0
G1 X214.224 S710
S0
G1 X214.097 S625
S0
G1 X213.970 S555
S0
G1 X213.843 S540
S0
G1 X213.716 S546
S0
G1 X213.589 S549
S0
G1 X213.462 S547
S0
G1 X213.335 S533
S0
G1 X213.208 S525
S0
G1 X213.081 S523
S0
G1 X212.954 S520
S0
G1 X212.827 S514
S0
G1 X212.700 S506
S0
G1 X212.573 S503
S0
G1 X212.446 S499
S0
G1 X212.319 S493
S0
G1 X212.192 S489
S0
G1 X212.065 S476
S0
G1 X211.938 S463
S0
G1 X211.811 S466
S0
G1 X211.684 S474
S0
G1 X211.557 S488
S0
G1 X211.430 S505
S0
G1 X211.303 S504
S0
G1 X211.176 S498
S0
G1 X211.049 S489
S0
G1 X210.922 S495
S0
G1 X210.795 S479
S0
G1 X210.414 S464
S0
G1 X210.287 S460
S0
G1 X210.160 S461
S0
G1 X210.033 S438
S0
G1 X209.906 S552
S0
G1 X209.779 S603
S0
G1 X209.652 S14
S0
G1 X209.525 S1
S0
G0 X209.398 S0
G1 X209.271 S5
S0
G0 Y34.798
G0 X209.144 S0
G1 X209.398 S2
S0
G0 X209.525 S0
G1 X209.779 S1
S0
G1 X209.906 S320
S0
G1 X210.033 S683
S0
G1 X210.160 S438
S0
G1 X210.287 S461
S0
G1 X210.414 S469
S0
G1 X210.668 S472
S0
G1 X210.795 S460
S0
G1 X210.922 S523
S0
G1 X211.049 S696
S0
G1 X211.176 S665
S0
G1 X211.303 S644
S0
G1 X211.430 S663
S0
G1 X211.557 S685
S0
G1 X211.684 S687
S0
G1 X211.811 S686
S0
G1 X211.938 S639
S0
G1 X212.065 S600
S0
G1 X212.192 S543
S0
G1 X212.319 S500
S0
G1 X212.446 S479
S0
G1 X212.573 S483
S0
G1 X212.700 S500
S0
G1 X212.827 S518
S0
G1 X212.954 S521
S0
G1 X213.081 S524
S0
G1 X213.208 S527
S0
G1 X213.335 S535
S0
G1 X213.462 S537
S0
G1 X213.589 S547
S0
G1 X213.716 S551
S0
G1 X213.843 S556
S0
G1 X213.970 S563
S0
G1 X214.097 S567
S0
G1 X214.224 S566
S0
G1 X214.351 S572
S0
G1 X214.478 S584
S0
G1 X214.605 S702
S0
G1 X214.732 S764
S0
G1 X214.859 S603
S0
G1 X214.986 S324
S0
G1 X215.113 S51
S0
G1 X215.240 S1
S0
G1 X215.367 S18
S0
G1 X215.494 S57
S0
G1 X215.621 S47
S0
G1 X215.875 S63
S0
G1 X216.002 S70
S0
G1 X216.129 S80
S0
G1 X216.256 S71
S0
G1 X216.383 S87
S0
G1 X216.510 S91
S0
G1 X216.637 S98
S0
G1 X216.764 S95
S0
G1 X216.891 S120
S0
G1 X217.018 S126
S0
G1 X217.145 S129
S0
G1 X217.272 S113
S0
G1 X217.526 S120
S0
G1 X217.653 S124
S0
G1 X217.780 S117
S0
G1 X217.907 S94
S0
G1 X218.034 S90
S0
G1 X218.161 S96
S0
G1 X218.288 S90
S0
G1 X218.415 S83
S0
G1 X218.542 S94
S0
G1 X218.669 S121
S0
G1 X218.796 S23
S0
G1 X218.923 S1
S0
G1 X219.177 S5
S0
G0 X219.685 S0
G1 X219.812 S411
S0
G1 X219.939 S580
S0
G1 X220.066 S517
S0
G1 X220.193 S427
S0
G1 X220.320 S85
S0
G1 X220.447 S68
S0
G1 X220.574 S120
S0
G1 X220.701 S43
S0
G1 X220.828 S1
S0
G0 X227.432 S0
G1 X227.559 S1
S0
G1 X227.686 S235
S0
G1 X227.813 S609
S0
G1 X227.940 S483
S0
G1 X228.067 S487
S0
G1 X228.194 S481
S0
G1 X228.321 S499
S0
G1 X228.448 S545
S0
G1 X228.575 S484
S0
G1 X228.702 S483
S0
G1 X228.829 S480
S0
G1 X228.956 S485
S0
G1 X229.083 S470
S0
G1 X229.210 S741
S0
G1 X229.337 S259
S0
G1 X229.464 S1
S0
G1 X229.591 S2
S0
G1 X229.718 S8
S0
G1 X229.845 S1
S0
G0 X229.972 S0
G1 X230.099 S1
S0
G1 X230.226 S2
S0
G1 X230.353 S1
S0
G0 Y34.671
G0 X230.226 S0
G1 X230.099 S1
S0
G0 X229.972 S0
G1 X229.845 S5
S0
G1 X229.591 S1
S0
G0 X229.464 S0
G1 X229.337 S1
S0
G1 X229.210 S558
S0
G1 X229.083 S684
S0
G1 X228.956 S449
S0
G1 X228.702 S494
S0
G1 X228.575 S488
S0
G1 X228.448 S526
S0
G1 X228.321 S726
S0
G1 X228.194 S535
S0
G1 X228.067 S483
S0
G1 X227.940 S505
S0
G1 X227.813 S478
S0
G1 X227.686 S624
S0
G1 X227.559 S344
S0
G1 X227.432 S1
S0
G0 X220.828 S0
G1 X220.574 S1
S0
G1 X220.447 S107
S0
G1 X220.320 S98
S0
G1 X220.193 S60
S0
G1 X220.066 S430
S0
G1 X219.939 S531
S0
G1 X219.812 S450
S0
G1 X219.685 S645
S0
G1 X219.558 S320
S0
G1 X219.304 S1
S0
G1 X219.050 S5
S0
G1 X218.923 S2
S0
G1 X218.796 S5
S0
G1 X218.669 S94
S0
G1 X218.542 S110
S0
G1 X218.415 S76
S0
G1 X218.288 S88
S0
G1 X218.034 S91
S0
G1 X217.907 S87
S0
G1 X217.780 S134
S0
G1 X217.653 S74
S0
G1 X217.526 S39
S0
G1 X217.399 S31
S0
G1 X217.272 S20
S0
G1 X217.145 S19
S0
G1 X217.018 S20
S0
G1 X216.764 S12
S0
G1 X216.637 S3
S0
G1 X216.510 S2
S0
G1 X216.383 S4
S0
G1 X216.256 S1
S0
G1 X216.002 S2
S0
G1 X215.748 S1
S0
G1 X215.621 S4
S0
G1 X215.494 S2
S0
G1 X215.367 S1
S0
G1 X215.240 S8
S0
G1 X215.113 S280
S0
G1 X214.986 S584
S0
G1 X214.859 S758
S0
G1 X214.732 S665
S0
G1 X214.605 S594
S0
G1 X214.478 S573
S0
G1 X214.351 S596
S0
G1 X214.224 S590
S0
G1 X214.097 S577
S0
G1 X213.970 S578
S0
G1 X213.843 S571
S0
G1 X213.716 S566
S0
G1 X213.589 S554
S0
G1 X213.462 S550
S0
G1 X213.335 S545
S0
G1 X213.208 S546
S0
G1 X213.081 S537
S0
G1 X212.954 S518
S0
G1 X212.827 S499
S0
G1 X212.700 S498
S0
G1 X212.573 S526
S0
G1 X212.446 S581
S0
G1 X212.319 S653
S0
G1 X212.192 S725
S0
G1 X212.065 S764
S0
G1 X211.938 S793
S0
G1 X211.811 S784
S0
G1 X211.684 S770
S0
G1 X211.557 S743
S0
G1 X211.430 S700
S0
G1 X211.303 S703
S0
G1 X211.176 S744
S0
G1 X211.049 S802
S0
G1 X210.922 S699
S0
G1 X210.795 S485
S0
G1 X210.668 S468
S0
G1 X210.541 S481
S0
G1 X210.414 S472
S0
G1 X210.287 S470
S0
G1 X210.160 S451
S0
G1 X210.033 S526
S0
G1 X209.906 S633
S0
G1 X209.779 S43
S0
G0 X209.652 S0
G1 X209.525 S4
S0
G1 X209.398 S5
S0
G1 X209.271 S1
S0
G0 Y34.544
G0 X209.144 S0
G1 X209.271 S2
S0
G1 X209.398 S3
S0
G0 X209.525 S0
G1 X209.652 S5
S0
G0 X209.779 S0
G1 X209.906 S5
S0
G1 X210.033 S384
S0
G1 X210.160 S655
S0
G1 X210.287 S419
S0
G1 X210.414 S469
S0
G1 X210.541 S475
S0
G1 X210.668 S478
S0
G1 X210.795 S482
S0
G1 X210.922 S461
S0
G1 X211.049 S629
S0
G1 X211.176 S830
S0
G1 X211.303 S819
S0
G1 X211.430 S813
S0
G1 X211.557 S778
S0
G1 X211.684 S744
S0
G1 X211.811 S736
S0
G1 X211.938 S740
S0
G1 X212.065 S757
S0
G1 X212.192 S768
S0
G1 X212.319 S791
S0
G1 X212.446 S804
S0
G1 X212.573 S806
S0
G1 X212.700 S789
S0
G1 X212.827 S715
S0
G1 X212.954 S603
S0
G1 X213.081 S536
S0
G1 X213.208 S510
S0
G1 X213.335 S523
S0
G1 X213.462 S551
S0
G1 X213.589 S559
S0
G1 X213.716 S558
S0
G1 X213.843 S577
S0
G1 X213.970 S581
S0
G1 X214.097 S584
S0
G1 X214.224 S594
S0
G1 X214.351 S601
S0
G1 X214.478 S598
S0
G1 X214.605 S604
S0
G1 X214.732 S613
S0
G1 X214.859 S604
S0
G1 X214.986 S601
S0
G1 X215.113 S704
S0
G1 X215.240 S780
S0
G1 X215.367 S597
S0
G1 X215.494 S300
S0
G1 X215.621 S13
S0
G0 X215.748 S0
G1 X215.875 S2
S0
G1 X216.002 S5
S0
G1 X216.129 S1
S0
G1 X216.256 S4
S0
G1 X216.383 S2
S0
G0 X216.764 S0
G1 X216.891 S1
S0
G1 X217.018 S4
S0
G0 X217.145 S0
G1 X217.272 S1
S0
G1 X217.399 S5
S0
G1 X217.526 S1
S0
G0 X217.653 S0
G1 X217.780 S1
S0
G1 X217.907 S96
S0
G1 X218.034 S121
S0
G1 X218.161 S83
S0
G1 X218.288 S87
S0
G1 X218.415 S83
S0
G1 X218.542 S87
S0
G1 X218.669 S75
S0
G1 X218.796 S108
S0
G1 X218.923 S75
S0
G1 X219.050 S5
S0
G1 X219.177 S2
S0
G1 X219.304 S1
S0
G1 X219.431 S2
S0
G1 X219.558 S238
S0
G1 X219.685 S641
S0
G1 X219.812 S480
S0
G1 X219.939 S452
S0
G1 X220.066 S546
S0
G1 X220.193 S299
S0
G1 X220.320 S41
S0
G1 X220.447 S116
S0
G1 X220.574 S59
S0
G0 X220.701 S0
G1 X220.828 S4
S0
G0 X227.432 S0
G1 X227.559 S1
S0
G1 X227.686 S427
S0
G1 X227.813 S619
S0
G1 X227.940 S502
S0
G1 X228.067 S508
S0
G1 X228.194 S496
S0
G1 X228.321 S562
S0
G1 X228.448 S749
S0
G1 X228.575 S561
S0
G1 X228.702 S487
S0
G1 X228.956 S508
S0
G1 X229.083 S482
S0
G1 X229.210 S521
S0
G1 X229.337 S744
S0
G1 X229.464 S103
S0
G1 X229.591 S1
S0
G1 X229.718 S2
S0
G1 X229.845 S5
S0
G0 X229.972 S0
G1 X230.099 S4
S0
G0 Y34.417
G0 X230.226 S0
G1 X230.099 S5
S0
G1 X229.972 S1
S0
G0 X229.845 S0
G1 X229.718 S8
S0
G1 X229.591 S2
S0
G0 X229.464 S0
G1 X229.337 S435
S0
G1 X229.210 S740
S0
G1 X229.083 S455
S0
G1 X228.956 S517
S0
G1 X228.829 S512
S0
G1 X228.702 S521
S0
G1 X228.575 S499
S0
G1 X228.448 S589
S0
G1 X228.321 S760
S0
G1 X228.194 S602
S0
G1 X228.067 S499
S0
G1 X227.940 S517
S0
G1 X227.813 S505
S0
G1 X227.686 S594
S0
G1 X227.559 S545
S0
G1 X227.432 S9
S0
G0 X221.336 S0
G1 X221.209 S4
S0
G1 X221.082 S2
S0
G1 X220.955 S1
S0
G0 X220.701 S0
G1 X220.447 S4
S0
G1 X220.320 S116
S0
G1 X220.193 S45
S0
G1 X220.066 S269
S0
G1 X219.939 S582
S0
G1 X219.812 S466
S0
G1 X219.685 S459
S0
G1 X219.558 S505
S0
G1 X219.431 S630
S0
G1 X219.304 S195
S0
G1 X219.177 S1
S0
G1 X219.050 S5
S0
G1 X218.923 S52
S0
G1 X218.796 S120
S0
G1 X218.669 S79
S0
G1 X218.542 S80
S0
G1 X218.415 S90
S0
G1 X218.288 S87
S0
G1 X218.161 S80
S0
G1 X218.034 S106
S0
G1 X217.907 S117
S0
G1 X217.780 S8
S0
G0 X217.653 S0
G1 X217.526 S4
S0
G1 X217.399 S1
S0
G1 X217.272 S4
S0
G1 X217.145 S1
S0
G1 X217.018 S7
S0
G0 X216.891 S0
G1 X216.764 S4
S0
G1 X216.637 S1
S0
G1 X216.510 S2
S0
G1 X216.383 S1
S0
G0 X216.256 S0
G1 X216.002 S4
S0
G1 X215.875 S1
S0
G1 X215.748 S2
S0
G1 X215.621 S182
S0
G1 X215.494 S582
S0
G1 X215.367 S786
S0
G1 X215.240 S751
S0
G1 X215.113 S629
S0
G1 X214.986 S615
S0
G1 X214.859 S626
S0
G1 X214.732 S622
S0
G1 X214.605 S619
S0
G1 X214.478 S615
S0
G1 X214.351 S603
S0
G1 X214.224 S599
S0
G1 X214.097 S597
S0
G1 X213.970 S596
S0
G1 X213.843 S591
S0
G1 X213.716 S586
S0
G1 X213.589 S557
S0
G1 X213.462 S530
S0
G1 X213.335 S544
S0
G1 X213.208 S596
S0
G1 X213.081 S694
S0
G1 X212.954 S779
S0
G1 X212.827 S851
S0
G1 X212.700 S859
S0
G1 X212.573 S820
S0
G1 X212.446 S776
S0
G1 X212.319 S767
S0
G1 X212.192 S763
S0
G1 X211.938 S756
S0
G1 X211.811 S768
S0
G1 X211.684 S804
S0
G1 X211.557 S836
S0
G1 X211.430 S844
S0
G1 X211.303 S834
S0
G1 X211.176 S826
S0
G1 X211.049 S830
S0
G1 X210.922 S585
S0
G1 X210.795 S466
S0
G1 X210.668 S493
S0
G1 X210.541 S478
S0
G1 X210.414 S472
S0
G1 X210.287 S449
S0
G1 X210.160 S495
S0
G1 X210.033 S669
S0
G1 X209.906 S89
S0
G0 X209.779 S0
G1 X209.652 S3
S0
G0 X209.525 S0
G1 X209.398 S3
S0
G1 X209.271 S1
S0
G0 Y34.290
G0 X209.271 S0
G1 X209.398 S1
S0
G0 X209.525 S0
G1 X209.652 S5
S0
G1 X209.779 S1
S0
G0 X209.906 S0
G1 X210.033 S1
S0
G1 X210.160 S478
S0
G1 X210.287 S636
S0
G1 X210.414 S437
S0
G1 X210.541 S475
S0
G1 X210.668 S481
S0
G1 X210.795 S494
S0
G1 X210.922 S477
S0
G1 X211.049 S543
S0
G1 X211.176 S808
S0
G1 X211.303 S844
S0
G1 X211.430 S833
S0
G1 X211.557 S840
S0
G1 X211.684 S844
S0
G1 X211.811 S853
S0
G1 X211.938 S845
S0
G1 X212.065 S814
S0
G1 X212.192 S777
S0
G1 X212.319 S768
S0
G1 X212.446 S776
S0
G1 X212.573 S780
S0
G1 X212.700 S774
S0
G1 X212.827 S792
S0
G1 X212.954 S840
S0
G1 X213.081 S863
S0
G1 X213.208 S864
S0
G1 X213.335 S847
S0
G1 X213.462 S779
S0
G1 X213.589 S686
S0
G1 X213.716 S596
S0
G1 X213.843 S555
S0
G1 X213.970 S569
S0
G1 X214.097 S597
S0
G1 X214.224 S611
S0
G1 X214.351 S614
S0
G1 X214.478 S622
S0
G1 X214.605 S623
S0
G1 X214.732 S625
S0
G1 X214.859 S633
S0
G1 X214.986 S640
S0
G1 X215.113 S635
S0
G1 X215.240 S647
S0
G1 X215.367 S630
S0
G1 X215.494 S637
S0
G1 X215.621 S761
S0
G1 X215.748 S779
S0
G1 X215.875 S474
S0
G1 X216.002 S48
S0
G0 X216.129 S0
G1 X216.256 S4
S0
G0 X216.383 S0
G1 X216.510 S1
S0
G0 X216.764 S0
G1 X216.891 S3
S0
G1 X217.018 S2
S0
G1 X217.145 S1
S0
G1 X217.272 S4
S0
G1 X217.399 S3
S0
G1 X217.526 S4
S0
G1 X217.653 S1
S0
G1 X217.780 S9
S0
G1 X217.907 S2
S0
G1 X218.034 S32
S0
G1 X218.161 S124
S0
G1 X218.288 S86
S0
G1 X218.415 S82
S0
G1 X218.542 S79
S0
G1 X218.669 S83
S0
G1 X218.796 S86
S0
G1 X218.923 S83
S0
G1 X219.050 S120
S0
G1 X219.177 S2
S0
G1 X219.304 S128
S0
G1 X219.431 S631
S0
G1 X219.558 S538
S0
G1 X219.685 S461
S0
G1 X219.812 S493
S0
G1 X219.939 S477
S0
G1 X220.066 S623
S0
G1 X220.193 S290
S0
G1 X220.320 S70
S0
G1 X220.447 S80
S0
G1 X220.574 S4
S0
G1 X220.701 S1
S0
G0 X220.955 S0
G1 X221.082 S1
S0
G1 X221.209 S2
S0
G0 X227.432 S0
G1 X227.559 S79
S0
G1 X227.686 S621
S0
G1 X227.813 S561
S0
G1 X227.940 S517
S0
G1 X228.067 S525
S0
G1 X228.194 S516
S0
G1 X228.321 S657
S0
G1 X228.448 S776
S0
G1 X228.575 S624
S0
G1 X228.702 S507
S0
G1 X228.829 S534
S0
G1 X228.956 S525
S0
G1 X229.083 S528
S0
G1 X229.210 S501
S0
G1 X229.337 S635
S0
G1 X229.464 S684
S0
G1 X229.591 S6
S0
G1 X229.718 S1
S0
G0 X229.845 S0
G1 X230.099 S5
S0
G0 X230.353 S0
G1 X230.480 S2
S0
G0 Y34.163
G0 X230.353 S0
G1 X230.226 S2
S0
G0 X230.099 S0
G1 X229.972 S3
S0
G0 X229.845 S0
G1 X229.718 S1
S0
G1 X229.591 S4
S0
G1 X229.464 S237
S0
G1 X229.337 S790
S0
G1 X229.210 S531
S0
G1 X229.083 S536
S0
G1 X228.829 S538
S0
G1 X228.702 S530
S0
G1 X228.575 S531
S0
G1 X228.448 S681
S0
G1 X228.321 S771
S0
G1 X228.194 S707
S0
G1 X228.067 S547
S0
G1 X227.940 S536
S0
G1 X227.813 S532
S0
G1 X227.686 S545
S0
G1 X227.559 S673
S0
G1 X227.432 S167
S0
G0 X221.209 S0
G1 X221.082 S4
S0
G0 X220.701 S0
G1 X220.447 S1
S0
G1 X220.320 S17
S0
G1 X220.193 S64
S0
G1 X220.066 S285
S0
G1 X219.939 S628
S0
G1 X219.812 S499
S0
G1 X219.685 S500
S0
G1 X219.558 S497
S0
G1 X219.431 S459
S0
G1 X219.304 S560
S0
G1 X219.177 S544
S0
G1 X219.050 S114
S0
G1 X218.923 S63
S0
G1 X218.796 S86
S0
G1 X218.669 S90
S0
G1 X218.542 S59
S0
G1 X218.415 S42
S0
G1 X218.288 S83
S0
G1 X218.161 S128
S0
G1 X218.034 S51
S0
G0 X217.526 S0
G1 X217.399 S1
S0
G0 X217.272 S0
G1 X217.145 S2
S0
G1 X217.018 S5
S0
G1 X216.891 S4
S0
G1 X216.637 S5
S0
G1 X216.510 S6
S0
G1 X216.383 S1
S0
G1 X216.129 S2
S0
G1 X216.002 S244
S0
G1 X215.875 S646
S0
G1 X215.748 S788
S0
G1 X215.621 S724
S0
G1 X215.494 S640
S0
G1 X215.367 S654
S0
G1 X215.240 S646
S0
G1 X215.113 S652
S0
G1 X214.986 S656
S0
G1 X214.859 S638
S0
G1 X214.732 S643
S0
G1 X214.605 S639
S0
G1 X214.478 S635
S0
G1 X214.351 S633
S0
G1 X214.224 S619
S0
G1 X214.097 S589
S0
G1 X213.970 S586
S0
G1 X213.843 S642
S0
G1 X213.716 S739
S0
G1 X213.589 S818
S0
G1 X213.462 S864
S0
G1 X213.335 S868
S0
G1 X213.208 S853
S0
G1 X213.081 S841
S0
G1 X212.954 S836
S0
G1 X212.827 S795
S0
G1 X212.700 S775
S0
G1 X212.573 S780
S0
G1 X212.446 S769
S0
G1 X212.319 S773
S0
G1 X212.192 S810
S0
G1 X212.065 S849
S0
G1 X211.938 S862
S0
G1 X211.811 S855
S0
G1 X211.684 S854
S0
G1 X211.557 S847
S0
G1 X211.303 S840
S0
G1 X211.176 S864
S0
G1 X211.049 S765
S0
G1 X210.922 S496
S0
G1 X210.795 S493
S0
G1 X210.668 S496
S0
G1 X210.541 S491
S0
G1 X210.414 S480
S0
G1 X210.287 S473
S0
G1 X210.160 S674
S0
G1 X210.033 S193
S0
G0 X209.906 S0
G1 X209.779 S4
S0
G1 X209.652 S5
S0
G1 X209.525 S1
S0
G1 X209.398 S3
S0
G0 X209.271 S0
G1 X209.144 S1
S0
G0 Y34.036
G0 X209.144 S0
G1 X209.271 S1
S0
G1 X209.398 S4
S0
G1 X209.525 S2
S0
G0 X209.652 S0
G1 X209.779 S4
S0
G1 X210.033 S1
S0
G1 X210.160 S3
S0
G1 X210.287 S575
S0
G1 X210.414 S569
S0
G1 X210.541 S449
S0
G1 X210.668 S489
S0
G1 X210.795 S501
S0
G1 X210.922 S508
S0
G1 X211.049 S480
S0
G1 X211.176 S703
S0
G1 X211.303 S868
S0
G1 X211.430 S845
S0
G1 X211.557 S844
S0
G1 X211.938 S851
S0
G1 X212.065 S855
S0
G1 X212.192 S858
S0
G1 X212.319 S861
S0
G1 X212.446 S840
S0
G1 X212.573 S797
S0
G1 X212.827 S773
S0
G1 X212.954 S780
S0
G1 X213.081 S812
S0
G1 X213.208 S846
S0
G1 X213.462 S836
S0
G1 X213.589 S842
S0
G1 X213.716 S857
S0
G1 X213.843 S871
S0
G1 X213.970 S862
S0
G1 X214.097 S776
S0
G1 X214.224 S676
S0
G1 X214.478 S611
S0
G1 X214.605 S638
S0
G1 X214.732 S649
S0
G1 X214.859 S654
S0
G1 X214.986 S655
S0
G1 X215.113 S658
S0
G1 X215.240 S666
S0
G1 X215.367 S662
S0
G1 X215.494 S658
S0
G1 X215.621 S662
S0
G1 X215.748 S658
S0
G1 X215.875 S642
S0
G1 X216.002 S761
S0
G1 X216.129 S805
S0
G1 X216.256 S452
S0
G1 X216.383 S25
S0
G1 X216.510 S1
S0
G1 X216.637 S3
S0
G1 X216.764 S2
S0
G1 X216.891 S4
S0
G1 X217.018 S1
S0
G0 X217.145 S0
G1 X217.272 S6
S0
G1 X217.399 S2
S0
G1 X217.526 S1
S0
G1 X217.653 S2
S0
G1 X217.780 S1
S0
G0 X217.907 S0
G1 X218.161 S1
S0
G1 X218.288 S66
S0
G1 X218.415 S60
S0
G1 X218.542 S221
S0
G1 X218.669 S234
S0
G1 X218.796 S63
S0
G1 X218.923 S57
S0
G1 X219.050 S40
S0
G1 X219.177 S407
S0
G1 X219.304 S558
S0
G1 X219.431 S478
S0
G1 X219.558 S512
S0
G1 X219.685 S510
S0
G1 X219.812 S508
S0
G1 X219.939 S547
S0
G1 X220.066 S643
S0
G1 X220.193 S214
S0
G1 X220.320 S37
S0
G0 X220.447 S0
G1 X220.574 S1
S0
G1 X220.701 S5
S0
G0 X220.828 S0
G1 X220.955 S3
S0
G0 X227.432 S0
G1 X227.559 S274
S0
G1 X227.686 S692
S0
G1 X227.813 S529
S0
G1 X227.940 S549
S0
G1 X228.067 S539
S0
G1 X228.194 S580
S0
G1 X228.321 S744
S0
G1 X228.448 S759
S0
G1 X228.575 S733
S0
G1 X228.702 S575
S0
G1 X228.829 S531
S0
G1 X228.956 S550
S0
G1 X229.210 S549
S0
G1 X229.337 S506
S0
G1 X229.464 S768
S0
G1 X229.591 S571
S0
G1 X229.718 S1
S0
G1 X229.845 S4
S0
G1 X229.972 S5
S0
G1 X230.226 S2
S0
G0 Y33.909
G0 X230.099 S0
G1 X229.972 S2
S0
G0 X229.718 S0
G1 X229.591 S83
S0
G1 X229.464 S766
S0
G1 X229.337 S609
S0
G1 X229.210 S538
S0
G1 X229.083 S558
S0
G1 X228.956 S564
S0
G1 X228.829 S563
S0
G1 X228.702 S555
S0
G1 X228.575 S648
S0
G1 X228.448 S772
S0
G1 X228.321 S739
S0
G1 X228.194 S763
S0
G1 X228.067 S627
S0
G1 X227.940 S540
S0
G1 X227.813 S567
S0
G1 X227.686 S530
S0
G1 X227.559 S682
S0
G1 X227.432 S415
S0
G0 X221.209 S0
G1 X221.082 S1
S0
G0 X220.955 S0
G1 X220.828 S2
S0
G0 X220.701 S0
G1 X220.574 S1
S0
G1 X220.447 S3
S0
G1 X220.320 S2
S0
G1 X220.193 S1
S0
G1 X220.066 S192
S0
G1 X219.939 S672
S0
G1 X219.812 S580
S0
G1 X219.685 S522
S0
G1 X219.558 S529
S0
G1 X219.431 S521
S0
G1 X219.304 S513
S0
G1 X219.177 S504
S0
G1 X219.050 S570
S0
G1 X218.923 S373
S0
G1 X218.796 S56
S0
G1 X218.669 S16
S0
G1 X218.542 S367
S0
G1 X218.415 S719
S0
G1 X218.288 S208
S0
G0 X218.161 S0
G1 X218.034 S3
S0
G1 X217.653 S1
S0
G0 X217.526 S0
G1 X217.399 S2
S0
G1 X217.272 S3
S0
G1 X217.018 S1
S0
G0 X216.891 S0
G1 X216.764 S3
S0
G1 X216.637 S2
S0
G1 X216.510 S6
S0
G1 X216.383 S151
S0
G1 X216.256 S634
S0
G1 X216.129 S798
S0
G1 X216.002 S724
S0
G1 X215.875 S656
S0
G1 X215.748 S669
S0
G1 X215.621 S672
S0
G1 X215.494 S666
S0
G1 X215.367 S669
S0
G1 X215.113 S666
S0
G1 X214.986 S665
S0
G1 X214.859 S669
S0
G1 X214.732 S655
S0
G1 X214.605 S632
S0
G1 X214.478 S633
S0
G1 X214.351 S704
S0
G1 X214.224 S796
S0
G1 X214.097 S860
S0
G1 X213.970 S870
S0
G1 X213.843 S855
S0
G1 X213.716 S845
S0
G1 X213.589 S842
S0
G1 X213.462 S838
S0
G1 X213.335 S840
S0
G1 X213.208 S847
S0
G1 X213.081 S818
S0
G1 X212.954 S778
S0
G1 X212.827 S770
S0
G1 X212.700 S786
S0
G1 X212.573 S827
S0
G1 X212.446 S859
S0
G1 X212.319 S861
S0
G1 X212.192 S854
S0
G1 X212.065 S851
S0
G1 X211.938 S849
S0
G1 X211.811 S854
S0
G1 X211.557 S851
S0
G1 X211.430 S849
S0
G1 X211.303 S853
S0
G1 X211.176 S857
S0
G1 X211.049 S619
S0
G1 X210.922 S484
S0
G1 X210.795 S512
S0
G1 X210.668 S504
S0
G1 X210.541 S490
S0
G1 X210.414 S431
S0
G1 X210.287 S684
S0
G1 X210.160 S324
S0
G0 X209.906 S0
G1 X209.779 S8
S0
G0 X209.652 S0
G1 X209.398 S3
S0
G1 X209.271 S2
S0
G1 X209.144 S1
S0
G0 Y33.782
G0 X200.000 S0
G1 X200.127 S1
S0
G0 X200.508 S0
G1 X200.635 S2
S0
G1 X200.762 S1
S0
G0 X202.286 S0
G1 X202.794 S1
S0
G0 X203.048 S0
G1 X203.429 S2
S0
G0 X203.556 S0
G1 X203.683 S1
S0
G1 X203.810 S2
S0
G0 X204.953 S0
G1 X205.080 S4
S0
G0 X209.144 S0
G1 X209.271 S1
S0
G1 X209.398 S2
S0
G0 X209.525 S0
G1 X209.652 S2
S0
G1 X209.779 S4
S0
G0 X210.033 S0
G1 X210.160 S1
S0
G1 X210.287 S71
S0
G1 X210.414 S654
S0
G1 X210.541 S524
S0
G1 X210.668 S475
S0
G1 X210.795 S501
S0
G1 X210.922 S513
S0
G1 X211.049 S499
S0
G1 X211.176 S558
S0
G1 X211.303 S825
S0
G1 X211.430 S862
S0
G1 X211.557 S848
S0
G1 X211.684 S854
S0
G1 X211.811 S850
S0
G1 X211.938 S851
S0
G1 X212.065 S850
S0
G1 X212.192 S853
S0
G1 X212.446 S851
S0
G1 X212.573 S859
S0
G1 X212.700 S864
S0
G1 X212.827 S849
S0
G1 X212.954 S805
S0
G1 X213.208 S769
S0
G1 X213.335 S822
S0
G1 X213.462 S847
S0
G1 X213.589 S842
S0
G1 X213.716 S840
S0
G1 X213.843 S841
S0
G1 X213.970 S844
S0
G1 X214.097 S842
S0
G1 X214.224 S849
S0
G1 X214.351 S870
S0
G1 X214.478 S873
S0
G1 X214.605 S814
S0
G1 X214.732 S726
S0
G1 X214.859 S641
S0
G1 X214.986 S653
S0
G1 X215.113 S674
S0
G1 X215.240 S691
S0
G1 X215.367 S693
S0
G1 X215.494 S682
S0
G1 X215.621 S690
S0
G1 X215.748 S682
S0
G1 X215.875 S683
S0
G1 X216.002 S702
S0
G1 X216.129 S683
S0
G1 X216.256 S654
S0
G1 X216.383 S778
S0
G1 X216.510 S788
S0
G1 X216.637 S359
S0
G0 X216.764 S0
G1 X217.145 S2
S0
G1 X217.272 S4
S0
G1 X217.399 S6
S0
G1 X217.526 S5
S0
G1 X217.653 S2
S0
G1 X217.780 S1
S0
G0 X218.161 S0
G1 X218.288 S137
S0
G1 X218.415 S646
S0
G1 X218.542 S667
S0
G1 X218.669 S101
S0
G1 X218.796 S29
S0
G1 X218.923 S393
S0
G1 X219.050 S599
S0
G1 X219.177 S518
S0
G1 X219.304 S524
S0
G1 X219.431 S534
S0
G1 X219.558 S537
S0
G1 X219.685 S541
S0
G1 X219.812 S535
S0
G1 X219.939 S658
S0
G1 X220.066 S667
S0
G1 X220.193 S87
S0
G1 X220.320 S2
S0
G0 X226.416 S0
G1 X226.543 S2
S0
G1 X226.670 S1
S0
G1 X226.797 S4
S0
G1 X226.924 S1
S0
G0 X227.051 S0
G1 X227.178 S1
S0
G1 X227.305 S2
S0
G1 X227.432 S1
S0
G1 X227.559 S522
S0
G1 X227.686 S664
S0
G1 X227.813 S547
S0
G1 X227.940 S576
S0
G1 X228.067 S549
S0
G1 X228.194 S678
S0
G1 X228.321 S783
S0
G1 X228.448 S725
S0
G1 X228.575 S767
S0
G1 X228.702 S717
S0
G1 X228.829 S571
S0
G1 X228.956 S576
S0
G1 X229.083 S575
S0
G1 X229.210 S578
S0
G1 X229.337 S575
S0
G1 X229.464 S527
S0
G1 X229.591 S820
S0
G1 X229.718 S411
S0
G0 X229.845 S0
G1 X230.099 S1
S0
G1 X230.226 S4
S0
G1 X230.353 S1
S0
G1 X230.480 S2
S0
G0 Y33.655
G0 X230.480 S0
G1 X230.353 S1
S0
G1 X230.226 S2
S0
G1 X230.099 S1
S0
G1 X229.845 S2
S0
G1 X229.718 S4
S0
G1 X229.591 S677
S0
G1 X229.464 S750
S0
G1 X229.337 S566
S0
G1 X229.210 S601
S0
G1 X229.083 S595
S0
G1 X228.956 S599
S0
G1 X228.829 S586
S0
G1 X228.702 S620
S0
G1 X228.575 S769
S0
G1 X228.448 S757
S0
G1 X228.321 S740
S0
G1 X228.194 S776
S0
G1 X228.067 S721
S0
G1 X227.940 S567
S0
G1 X227.686 S584
S0
G1 X227.559 S636
S0
G1 X227.432 S588
S0
G1 X227.305 S13
S0
G1 X227.178 S1
S0
G0 X226.924 S0
G1 X226.797 S4
S0
G1 X226.670 S1
S0
G1 X226.543 S4
S0
G0 X220.193 S0
G1 X220.066 S6
S0
G1 X219.939 S624
S0
G1 X219.812 S737
S0
G1 X219.685 S548
S0
G1 X219.558 S559
S0
G1 X219.431 S555
S0
G1 X219.304 S549
S0
G1 X219.177 S543
S0
G1 X219.050 S534
S0
G1 X218.923 S538
S0
G1 X218.796 S602
S0
G1 X218.669 S413
S0
G1 X218.542 S168
S0
G1 X218.415 S404
S0
G1 X218.288 S689
S0
G1 X218.161 S642
S0
G1 X218.034 S116
S0
G1 X217.907 S3
S0
G0 X217.780 S0
G1 X217.653 S1
S0
G1 X217.526 S5
S0
G1 X217.399 S3
S0
G0 X217.145 S0
G1 X216.891 S4
S0
G1 X216.764 S1
S0
G1 X216.637 S480
S0
G1 X216.510 S860
S0
G1 X216.383 S764
S0
G1 X216.256 S650
S0
G1 X216.129 S674
S0
G1 X216.002 S685
S0
G1 X215.748 S699
S0
G1 X215.621 S717
S0
G1 X215.494 S690
S0
G1 X215.367 S694
S0
G1 X215.240 S690
S0
G1 X215.113 S678
S0
G1 X214.986 S687
S0
G1 X214.859 S740
S0
G1 X214.732 S821
S0
G1 X214.605 S892
S0
G1 X214.478 S873
S0
G1 X214.351 S852
S0
G1 X214.224 S844
S0
G1 X214.097 S845
S0
G1 X213.970 S847
S0
G1 X213.716 S840
S0
G1 X213.589 S846
S0
G1 X213.462 S849
S0
G1 X213.335 S825
S0
G1 X213.208 S767
S0
G1 X213.081 S785
S0
G1 X212.954 S832
S0
G1 X212.827 S858
S0
G1 X212.700 S864
S0
G1 X212.573 S859
S0
G1 X212.446 S851
S0
G1 X212.192 S855
S0
G1 X211.938 S853
S0
G1 X211.684 S854
S0
G1 X211.557 S853
S0
G1 X211.430 S851
S0
G1 X211.303 S877
S0
G1 X211.176 S771
S0
G1 X211.049 S518
S0
G1 X210.922 S510
S0
G1 X210.795 S519
S0
G1 X210.668 S508
S0
G1 X210.541 S466
S0
G1 X210.414 S651
S0
G1 X210.287 S474
S0
G1 X210.160 S1
S0
G1 X210.033 S2
S0
G1 X209.906 S3
S0
G1 X209.779 S215
S0
G1 X209.652 S55
S0
G1 X209.525 S2
S0
G1 X209.398 S5
S0
G1 X209.271 S1
S0
G1 X209.144 S5
S0
G0 X203.683 S0
G1 X203.556 S2
S0
G0 X203.429 S0
G1 X203.175 S1
S0
G1 X203.048 S6
S0
G1 X202.921 S5
S0
G0 X202.794 S0
G1 X202.667 S2
S0
G0 X202.413 S0
G1 X202.286 S2
S0
G0 X200.889 S0
G1 X200.762 S4
S0
G0 X200.254 S0
G1 X200.127 S4
S0
G0 Y33.528
G0 X200.127 S0
G1 X200.254 S1
S0
G0 X200.381 S0
G1 X200.508 S4
S0
G0 X201.905 S0
G1 X202.032 S28
S0
G1 X202.159 S102
S0
G1 X202.286 S33
S0
G1 X202.540 S1
S0
G1 X202.794 S2
S0
G1 X202.921 S4
S0
G1 X203.048 S2
S0
G1 X203.302 S4
S0
G0 X203.429 S0
G1 X203.683 S1
S0
G0 X203.937 S0
G1 X204.064 S4
S0
G0 X209.144 S0
G1 X209.271 S1
S0
G1 X209.525 S4
S0
G0 X209.652 S0
G1 X209.779 S32
S0
G1 X209.906 S473
S0
G1 X210.033 S326
S0
G1 X210.160 S2
S0
G0 X210.287 S0
G1 X210.414 S242
S0
G1 X210.541 S692
S0
G1 X210.668 S485
S0
G1 X210.795 S517
S0
G1 X210.922 S512
S0
G1 X211.049 S523
S0
G1 X211.176 S500
S0
G1 X211.303 S703
S0
G1 X211.430 S881
S0
G1 X211.684 S851
S0
G1 X211.811 S854
S0
G1 X211.938 S850
S0
G1 X212.065 S853
S0
G1 X212.192 S855
S0
G1 X212.319 S851
S0
G1 X212.446 S855
S0
G1 X212.573 S851
S0
G1 X212.700 S854
S0
G1 X212.827 S851
S0
G1 X212.954 S859
S0
G1 X213.081 S860
S0
G1 X213.208 S849
S0
G1 X213.335 S795
S0
G1 X213.462 S774
S0
G1 X213.589 S829
S0
G1 X213.716 S845
S0
G1 X213.843 S846
S0
G1 X213.970 S847
S0
G1 X214.224 S845
S0
G1 X214.351 S847
S0
G1 X214.478 S845
S0
G1 X214.605 S841
S0
G1 X214.732 S856
S0
G1 X214.859 S877
S0
G1 X214.986 S865
S0
G1 X215.113 S800
S0
G1 X215.240 S721
S0
G1 X215.367 S657
S0
G1 X215.494 S694
S0
G1 X215.621 S685
S0
G1 X215.748 S703
S0
G1 X215.875 S731
S0
G1 X216.002 S616
S0
G1 X216.129 S679
S0
G1 X216.256 S729
S0
G1 X216.383 S699
S0
G1 X216.510 S658
S0
G1 X216.637 S720
S0
G1 X216.764 S880
S0
G1 X216.891 S578
S0
G1 X217.018 S1
S0
G0 X217.145 S0
G1 X217.272 S8
S0
G1 X217.399 S2
S0
G1 X217.526 S5
S0
G1 X217.653 S1
S0
G1 X217.780 S4
S0
G0 X217.907 S0
G1 X218.034 S85
S0
G1 X218.161 S648
S0
G1 X218.288 S616
S0
G1 X218.415 S567
S0
G1 X218.542 S532
S0
G1 X218.669 S590
S0
G1 X218.796 S619
S0
G1 X218.923 S539
S0
G1 X219.050 S549
S0
G1 X219.177 S559
S0
G1 X219.304 S560
S0
G1 X219.431 S563
S0
G1 X219.558 S571
S0
G1 X219.685 S592
S0
G1 X219.812 S560
S0
G1 X219.939 S805
S0
G1 X220.066 S507
S0
G1 X220.320 S1
S0
G0 X226.416 S0
G1 X226.543 S1
S0
G1 X226.670 S2
S0
G0 X226.797 S0
G1 X226.924 S2
S0
G0 X227.051 S0
G1 X227.305 S1
S0
G1 X227.432 S105
S0
G1 X227.559 S666
S0
G1 X227.686 S619
S0
G1 X227.813 S599
S0
G1 X227.940 S602
S0
G1 X228.067 S601
S0
G1 X228.194 S748
S0
G1 X228.321 S779
S0
G1 X228.448 S747
S0
G1 X228.575 S748
S0
G1 X228.702 S796
S0
G1 X228.829 S675
S0
G1 X228.956 S587
S0
G1 X229.083 S616
S0
G1 X229.210 S612
S0
G1 X229.337 S610
S0
G1 X229.464 S608
S0
G1 X229.591 S622
S0
G1 X229.718 S815
S0
G1 X229.845 S181
S0
G0 X229.972 S0
G1 X230.099 S5
S0
G1 X230.226 S2
S0
G1 X230.353 S4
S0
G1 X230.480 S1
S0
G0 Y33.401
G0 X230.353 S0
G1 X230.226 S2
S0
G1 X230.099 S1
S0
G0 X229.972 S0
G1 X229.845 S3
S0
G1 X229.718 S526
S0
G1 X229.591 S825
S0
G1 X229.464 S584
S0
G1 X229.210 S627
S0
G1 X229.083 S635
S0
G1 X228.956 S627
S0
G1 X228.829 S606
S0
G1 X228.702 S741
S0
G1 X228.575 S800
S0
G1 X228.448 S744
S0
G1 X228.321 S757
S0
G1 X228.194 S767
S0
G1 X228.067 S765
S0
G1 X227.940 S631
S0
G1 X227.813 S614
S0
G1 X227.686 S620
S0
G1 X227.559 S617
S0
G1 X227.432 S708
S0
G1 X227.305 S219
S0
G1 X227.178 S3
S0
G1 X227.051 S5
S0
G1 X226.924 S1
S0
G1 X226.797 S7
S0
G0 X226.670 S0
G1 X226.543 S2
S0
G0 X220.066 S0
G1 X219.939 S339
S0
G1 X219.812 S833
S0
G1 X219.685 S597
S0
G1 X219.558 S603
S0
G1 X219.431 S624
S0
G1 X219.304 S654
S0
G1 X219.177 S567
S0
G1 X219.050 S566
S0
G1 X218.923 S581
S0
G1 X218.796 S565
S0
G1 X218.669 S553
S0
G1 X218.542 S583
S0
G1 X218.415 S685
S0
G1 X218.288 S670
S0
G1 X218.161 S512
S0
G1 X218.034 S684
S0
G1 X217.907 S652
S0
G1 X217.780 S66
S0
G0 X217.653 S0
G1 X217.399 S5
S0
G1 X217.272 S3
S0
G0 X217.145 S0
G1 X217.018 S3
S0
G1 X216.891 S564
S0
G1 X216.764 S871
S0
G1 X216.637 S712
S0
G1 X216.510 S661
S0
G1 X216.383 S693
S0
G1 X216.256 S716
S0
G1 X216.129 S740
S0
G1 X216.002 S677
S0
G1 X215.875 S572
S0
G1 X215.748 S742
S0
G1 X215.621 S711
S0
G1 X215.494 S675
S0
G1 X215.367 S668
S0
G1 X215.240 S760
S0
G1 X215.113 S912
S0
G1 X214.986 S874
S0
G1 X214.859 S845
S0
G1 X214.732 S840
S0
G1 X214.605 S844
S0
G1 X214.478 S849
S0
G1 X214.351 S851
S0
G1 X214.224 S844
S0
G1 X214.097 S846
S0
G1 X213.970 S845
S0
G1 X213.716 S847
S0
G1 X213.589 S832
S0
G1 X213.462 S784
S0
G1 X213.335 S818
S0
G1 X213.208 S853
S0
G1 X213.081 S864
S0
G1 X212.954 S855
S0
G1 X212.700 S854
S0
G1 X212.446 S855
S0
G1 X212.319 S851
S0
G1 X212.192 S855
S0
G1 X212.065 S849
S0
G1 X211.938 S855
S0
G1 X211.811 S854
S0
G1 X211.684 S851
S0
G1 X211.557 S849
S0
G1 X211.430 S860
S0
G1 X211.303 S870
S0
G1 X211.176 S626
S0
G1 X211.049 S498
S0
G1 X210.922 S527
S0
G1 X210.795 S523
S0
G1 X210.668 S493
S0
G1 X210.541 S541
S0
G1 X210.414 S643
S0
G1 X210.287 S113
S0
G1 X210.160 S2
S0
G1 X210.033 S396
S0
G1 X209.906 S665
S0
G1 X209.779 S63
S0
G1 X209.525 S1
S0
G0 X209.271 S0
G1 X209.144 S1
S0
G0 X204.572 S0
G1 X204.445 S4
S0
G0 X204.064 S0
G1 X203.810 S5
S0
G0 X203.683 S0
G1 X203.556 S2
S0
G1 X203.302 S5
S0
G0 X203.048 S0
G1 X202.921 S3
S0
G1 X202.794 S2
S0
G1 X202.667 S4
S0
G1 X202.540 S45
S0
G1 X202.413 S80
S0
G1 X202.286 S102
S0
G1 X202.159 S133
S0
G1 X202.032 S170
S0
G1 X201.905 S28
S0
G0 X200.381 S0
G1 X200.000 S1
S0
G0 Y33.274
G0 X200.000 S0
G1 X200.127 S40
S0
G1 X200.254 S1
S0
G1 X200.381 S4
S0
G0 X200.508 S0
G1 X200.635 S2
S0
G0 X200.762 S0
G1 X200.889 S1
S0
G1 X201.016 S4
S0
G0 X201.397 S0
G1 X201.524 S4
S0
G0 X202.032 S0
G1 X202.159 S90
S0
G1 X202.286 S117
S0
G1 X202.413 S110
S0
G1 X202.540 S130
S0
G1 X202.667 S139
S0
G1 X202.794 S120
S0
G1 X202.921 S82
S0
G1 X203.048 S43
S0
G1 X203.175 S5
S0
G1 X203.429 S1
S0
G0 X203.810 S0
G1 X204.064 S4
S0
G0 X204.953 S0
G1 X205.080 S4
S0
G0 X209.144 S0
G1 X209.271 S1
S0
G1 X209.398 S4
S0
G1 X209.525 S5
S0
G1 X209.652 S4
S0
G1 X209.779 S2
S0
G1 X209.906 S4
S0
G1 X210.033 S256
S0
G1 X210.160 S843
S0
G1 X210.287 S398
S0
G1 X210.414 S16
S0
G1 X210.541 S490
S0
G1 X210.668 S659
S0
G1 X210.795 S465
S0
G1 X210.922 S520
S0
G1 X211.049 S518
S0
G1 X211.176 S511
S0
G1 X211.303 S566
S0
G1 X211.430 S849
S0
G1 X211.557 S867
S0
G1 X211.684 S849
S0
G1 X211.811 S851
S0
G1 X212.065 S855
S0
G1 X212.192 S853
S0
G1 X212.319 S855
S0
G1 X212.446 S851
S0
G1 X212.573 S859
S0
G1 X213.208 S855
S0
G1 X213.335 S859
S0
G1 X213.462 S860
S0
G1 X213.589 S827
S0
G1 X213.716 S797
S0
G1 X213.843 S840
S0
G1 X213.970 S849
S0
G1 X214.097 S845
S0
G1 X214.224 S851
S0
G1 X214.351 S848
S0
G1 X214.478 S849
S0
G1 X214.605 S847
S0
G1 X214.859 S844
S0
G1 X214.986 S829
S0
G1 X215.113 S847
S0
G1 X215.240 S850
S0
G1 X215.367 S867
S0
G1 X215.494 S811
S0
G1 X215.621 S732
S0
G1 X215.748 S714
S0
G1 X215.875 S745
S0
G1 X216.002 S490
S0
G1 X216.129 S585
S0
G1 X216.256 S750
S0
G1 X216.383 S699
S0
G1 X216.510 S693
S0
G1 X216.637 S703
S0
G1 X216.764 S665
S0
G1 X216.891 S675
S0
G1 X217.018 S872
S0
G1 X217.145 S527
S0
G1 X217.272 S1
S0
G0 X217.399 S0
G1 X217.526 S2
S0
G0 X217.653 S0
G1 X217.780 S6
S0
G1 X217.907 S584
S0
G1 X218.034 S805
S0
G1 X218.161 S537
S0
G1 X218.288 S572
S0
G1 X218.415 S608
S0
G1 X218.542 S567
S0
G1 X218.669 S569
S0
G1 X218.796 S581
S0
G1 X218.923 S599
S0
G1 X219.050 S589
S0
G1 X219.177 S570
S0
G1 X219.304 S748
S0
G1 X219.431 S746
S0
G1 X219.558 S600
S0
G1 X219.685 S612
S0
G1 X219.812 S648
S0
G1 X219.939 S776
S0
G1 X220.066 S187
S0
G1 X220.193 S2
S0
G1 X220.320 S1
S0
G0 X226.416 S0
G1 X226.543 S1
S0
G0 X226.797 S0
G1 X226.924 S3
S0
G1 X227.051 S4
S0
G0 X227.305 S0
G1 X227.432 S321
S0
G1 X227.559 S774
S0
G1 X227.686 S618
S0
G1 X227.813 S635
S0
G1 X227.940 S617
S0
G1 X228.067 S655
S0
G1 X228.194 S791
S0
G1 X228.321 S767
S0
G1 X228.448 S750
S0
G1 X228.575 S748
S0
G1 X228.702 S786
S0
G1 X228.829 S792
S0
G1 X228.956 S641
S0
G1 X229.083 S640
S0
G1 X229.210 S644
S0
G1 X229.337 S642
S0
G1 X229.464 S635
S0
G1 X229.591 S619
S0
G1 X229.718 S731
S0
G1 X229.845 S749
S0
G1 X229.972 S57
S0
G1 X230.226 S1
S0
G1 X230.353 S5
S0
G0 Y33.147
G0 X230.480 S0
G1 X230.353 S1
S0
G1 X230.226 S3
S0
G0 X229.972 S0
G1 X229.845 S350
S0
G1 X229.718 S855
S0
G1 X229.591 S620
S0
G1 X229.464 S649
S0
G1 X229.337 S653
S0
G1 X229.083 S655
S0
G1 X228.956 S658
S0
G1 X228.829 S719
S0
G1 X228.702 S817
S0
G1 X228.575 S757
S0
G1 X228.321 S760
S0
G1 X228.194 S769
S0
G1 X228.067 S792
S0
G1 X227.940 S686
S0
G1 X227.813 S641
S0
G1 X227.686 S648
S0
G1 X227.559 S629
S0
G1 X227.432 S777
S0
G1 X227.305 S413
S0
G1 X227.178 S2
S0
G1 X227.051 S1
S0
G1 X226.797 S2
S0
G1 X226.670 S8
S0
G1 X226.543 S2
S0
G1 X226.416 S1
S0
G0 X220.320 S0
G1 X220.193 S3
S0
G0 X220.066 S0
G1 X219.939 S42
S0
G1 X219.812 S733
S0
G1 X219.685 S747
S0
G1 X219.558 S634
S0
G1 X219.431 S614
S0
G1 X219.304 S675
S0
G1 X219.177 S957
S0
G1 X219.050 S755
S0
G1 X218.923 S600
S0
G1 X218.796 S605
S0
G1 X218.669 S619
S0
G1 X218.542 S602
S0
G1 X218.415 S617
S0
G1 X218.288 S573
S0
G1 X218.161 S595
S0
G1 X218.034 S576
S0
G1 X217.907 S558
S0
G1 X217.780 S834
S0
G1 X217.653 S535
S0
G1 X217.526 S1
S0
G0 X217.399 S0
G1 X217.272 S3
S0
G1 X217.145 S425
S0
G1 X217.018 S872
S0
G1 X216.891 S696
S0
G1 X216.764 S662
S0
G1 X216.637 S691
S0
G1 X216.510 S726
S0
G1 X216.383 S708
S0
G1 X216.256 S691
S0
G1 X216.129 S754
S0
G1 X216.002 S503
S0
G1 X215.875 S406
S0
G1 X215.748 S734
S0
G1 X215.621 S758
S0
G1 X215.494 S848
S0
G1 X215.367 S872
S0
G1 X215.240 S841
S0
G1 X215.113 S631
S0
G1 X214.986 S799
S0
G1 X214.859 S851
S0
G1 X214.732 S835
S0
G1 X214.605 S840
S0
G1 X214.478 S844
S0
G1 X214.224 S849
S0
G1 X214.097 S841
S0
G1 X213.970 S851
S0
G1 X213.843 S836
S0
G1 X213.716 S809
S0
G1 X213.589 S844
S0
G1 X213.462 S864
S0
G1 X213.081 S859
S0
G1 X212.954 S860
S0
G1 X212.573 S859
S0
G1 X212.192 S855
S0
G1 X212.065 S853
S0
G1 X211.938 S854
S0
G1 X211.811 S851
S0
G1 X211.684 S855
S0
G1 X211.557 S850
S0
G1 X211.430 S876
S0
G1 X211.303 S809
S0
G1 X211.176 S528
S0
G1 X211.049 S514
S0
G1 X210.922 S528
S0
G1 X210.795 S507
S0
G1 X210.668 S503
S0
G1 X210.541 S683
S0
G1 X210.414 S204
S0
G1 X210.287 S319
S0
G1 X210.160 S764
S0
G1 X210.033 S421
S0
G1 X209.906 S32
S0
G1 X209.779 S58
S0
G1 X209.652 S4
S0
G1 X209.525 S2
S0
G1 X209.398 S3
S0
G1 X209.271 S1
S0
G0 X204.064 S0
G1 X203.937 S2
S0
G0 X203.683 S0
G1 X203.429 S5
S0
G1 X203.302 S35
S0
G1 X203.175 S88
S0
G1 X203.048 S120
S0
G1 X202.921 S134
S0
G1 X202.794 S133
S0
G1 X202.667 S109
S0
G1 X202.540 S96
S0
G1 X202.413 S93
S0
G1 X202.286 S94
S0
G1 X202.159 S120
S0
G1 X202.032 S71
S0
G0 X201.905 S0
G1 X201.778 S4
S0
G0 X201.524 S0
G1 X201.397 S4
S0
G0 X200.635 S0
G1 X200.508 S3
S0
G1 X200.381 S4
S0
G1 X200.254 S2
S0
G1 X200.127 S1
S0
G1 X200.000 S83
S0
G0 Y33.020
G0 X200.000 S0
G1 X200.127 S76
S0
G1 X200.254 S1
S0
G1 X200.381 S2
S0
G1 X200.508 S4
S0
G1 X200.635 S2
S0
G0 X200.762 S0
G1 X200.889 S4
S0
G1 X201.016 S1
S0
G0 X201.397 S0
G1 X201.524 S4
S0
G0 X202.032 S0
G1 X202.159 S63
S0
G1 X202.286 S136
S0
G1 X202.540 S94
S0
G1 X202.667 S104
S0
G1 X202.794 S98
S0
G1 X202.921 S87
S0
G1 X203.048 S94
S0
G1 X203.175 S111
S0
G1 X203.302 S130
S0
G1 X203.429 S121
S0
G1 X203.556 S103
S0
G1 X203.683 S81
S0
G1 X203.810 S41
S0
G1 X203.937 S7
S0
G1 X204.064 S2
S0
G1 X204.191 S3
S0
G0 X209.144 S0
G1 X209.271 S2
S0
G0 X209.398 S0
G1 X209.525 S5
S0
G1 X209.652 S35
S0
G1 X209.779 S106
S0
G1 X209.906 S124
S0
G1 X210.033 S37
S0
G1 X210.160 S209
S0
G1 X210.287 S570
S0
G1 X210.414 S675
S0
G1 X210.541 S354
S0
G1 X210.668 S367
S0
G1 X210.795 S576
S0
G1 X210.922 S517
S0
G1 X211.049 S526
S0
G1 X211.176 S524
S0
G1 X211.303 S505
S0
G1 X211.430 S750
S0
G1 X211.557 S883
S0
G1 X212.192 S853
S0
G1 X212.319 S855
S0
G1 X212.446 S859
S0
G1 X212.700 S855
S0
G1 X213.081 S859
S0
G1 X213.335 S855
S0
G1 X213.462 S859
S0
G1 X213.589 S855
S0
G1 X213.716 S860
S0
G1 X213.843 S840
S0
G1 X213.970 S823
S0
G1 X214.097 S844
S0
G1 X214.224 S850
S0
G1 X214.351 S849
S0
G1 X214.478 S846
S0
G1 X214.732 S838
S0
G1 X214.859 S822
S0
G1 X214.986 S882
S0
G1 X215.113 S708
S0
G1 X215.240 S471
S0
G1 X215.367 S862
S0
G1 X215.494 S820
S0
G1 X215.621 S841
S0
G1 X215.748 S855
S0
G1 X215.875 S816
S0
G1 X216.002 S387
S0
G1 X216.129 S430
S0
G1 X216.256 S757
S0
G1 X216.383 S742
S0
G1 X216.510 S710
S0
G1 X216.637 S720
S0
G1 X216.764 S693
S0
G1 X216.891 S683
S0
G1 X217.018 S652
S0
G1 X217.145 S727
S0
G1 X217.272 S880
S0
G1 X217.399 S261
S0
G0 X217.526 S0
G1 X217.653 S368
S0
G1 X217.780 S845
S0
G1 X217.907 S589
S0
G1 X218.034 S635
S0
G1 X218.161 S633
S0
G1 X218.288 S585
S0
G1 X218.415 S649
S0
G1 X218.542 S687
S0
G1 X218.669 S619
S0
G1 X218.796 S611
S0
G1 X218.923 S613
S0
G1 X219.050 S753
S0
G1 X219.177 S912
S0
G1 X219.304 S827
S0
G1 X219.431 S630
S0
G1 X219.558 S648
S0
G1 X219.685 S631
S0
G1 X219.812 S798
S0
G1 X219.939 S650
S0
G1 X220.066 S6
S0
G1 X220.193 S3
S0
G1 X220.320 S1
S0
G0 X226.416 S0
G1 X226.543 S2
S0
G1 X226.670 S5
S0
G1 X226.797 S1
S0
G1 X226.924 S4
S0
G1 X227.051 S2
S0
G1 X227.178 S5
S0
G0 X227.305 S0
G1 X227.432 S505
S0
G1 X227.559 S766
S0
G1 X227.686 S643
S0
G1 X227.813 S655
S0
G1 X227.940 S670
S0
G1 X228.067 S742
S0
G1 X228.194 S804
S0
G1 X228.321 S756
S0
G1 X228.448 S773
S0
G1 X228.575 S768
S0
G1 X228.702 S745
S0
G1 X228.829 S822
S0
G1 X228.956 S779
S0
G1 X229.083 S677
S0
G1 X229.210 S706
S0
G1 X229.337 S699
S0
G1 X229.464 S669
S0
G1 X229.591 S661
S0
G1 X229.718 S642
S0
G1 X229.845 S800
S0
G1 X229.972 S621
S0
G1 X230.099 S2
S0
G0 X230.353 S0
G1 X230.480 S5
S0
G0 Y32.893
G0 X230.480 S0
G1 X230.353 S1
S0
G0 X230.099 S0
G1 X229.972 S113
S0
G1 X229.845 S796
S0
G1 X229.718 S738
S0
G1 X229.591 S685
S0
G1 X229.464 S714
S0
G1 X229.337 S723
S0
G1 X229.210 S691
S0
G1 X229.083 S731
S0
G1 X228.956 S721
S0
G1 X228.829 S822
S0
G1 X228.702 S806
S0
G1 X228.575 S756
S0
G1 X228.448 S773
S0
G1 X228.321 S769
S0
G1 X228.194 S772
S0
G1 X228.067 S807
S0
G1 X227.940 S783
S0
G1 X227.813 S695
S0
G1 X227.686 S689
S0
G1 X227.559 S655
S0
G1 X227.432 S749
S0
G1 X227.305 S616
S0
G1 X227.178 S13
S0
G1 X227.051 S5
S0
G1 X226.924 S3
S0
G1 X226.797 S2
S0
G1 X226.670 S143
S0
G1 X226.543 S107
S0
G0 X220.320 S0
G1 X220.193 S2
S0
G1 X220.066 S1
S0
G0 X219.939 S0
G1 X219.812 S536
S0
G1 X219.685 S838
S0
G1 X219.558 S636
S0
G1 X219.431 S662
S0
G1 X219.304 S634
S0
G1 X219.177 S780
S0
G1 X219.050 S871
S0
G1 X218.923 S859
S0
G1 X218.796 S808
S0
G1 X218.669 S642
S0
G1 X218.542 S585
S0
G1 X218.415 S701
S0
G1 X218.288 S739
S0
G1 X218.161 S600
S0
G1 X218.034 S630
S0
G1 X217.907 S809
S0
G1 X217.780 S667
S0
G1 X217.653 S630
S0
G1 X217.526 S734
S0
G1 X217.399 S355
S0
G1 X217.272 S711
S0
G1 X217.145 S765
S0
G1 X217.018 S734
S0
G1 X216.891 S690
S0
G1 X216.764 S687
S0
G1 X216.637 S699
S0
G1 X216.510 S702
S0
G1 X216.383 S704
S0
G1 X216.256 S737
S0
G1 X216.129 S748
S0
G1 X216.002 S397
S0
G1 X215.875 S316
S0
G1 X215.748 S806
S0
G1 X215.621 S856
S0
G1 X215.494 S808
S0
G1 X215.367 S845
S0
G1 X215.240 S824
S0
G1 X215.113 S311
S0
G1 X214.986 S576
S0
G1 X214.859 S915
S0
G1 X214.732 S811
S0
G1 X214.605 S834
S0
G1 X214.478 S838
S0
G1 X214.351 S842
S0
G1 X214.224 S849
S0
G1 X214.097 S853
S0
G1 X213.970 S833
S0
G1 X213.843 S840
S0
G1 X213.716 S859
S0
G1 X213.589 S851
S0
G1 X213.462 S858
S0
G1 X213.335 S859
S0
G1 X213.208 S862
S0
G1 X213.081 S859
S0
G1 X212.954 S855
S0
G1 X212.827 S860
S0
G1 X212.700 S859
S0
G1 X212.573 S855
S0
G1 X212.446 S858
S0
G1 X212.319 S854
S0
G1 X212.192 S855
S0
G1 X212.065 S853
S0
G1 X211.938 S854
S0
G1 X211.811 S853
S0
G1 X211.684 S849
S0
G1 X211.557 S857
S0
G1 X211.430 S878
S0
G1 X211.303 S680
S0
G1 X211.176 S503
S0
G1 X211.049 S532
S0
G1 X210.922 S531
S0
G1 X210.795 S510
S0
G1 X210.668 S572
S0
G1 X210.541 S487
S0
G1 X210.414 S569
S0
G1 X210.287 S564
S0
G1 X210.160 S465
S0
G1 X210.033 S80
S0
G1 X209.906 S71
S0
G1 X209.779 S76
S0
G1 X209.652 S90
S0
G1 X209.525 S120
S0
G1 X209.398 S82
S0
G1 X209.271 S14
S0
G1 X209.144 S2
S0
G0 X204.953 S0
G1 X204.826 S4
S0
G0 X204.318 S0
G1 X204.191 S11
S0
G1 X204.064 S39
S0
G1 X203.937 S91
S0
G1 X203.810 S116
S0
G1 X203.683 S133
S0
G1 X203.556 S125
S0
G1 X203.429 S110
S0
G1 X203.302 S96
S0
G1 X203.175 S90
S0
G1 X203.048 S93
S0
G1 X202.667 S98
S0
G1 X202.540 S97
S0
G1 X202.413 S100
S0
G1 X202.286 S102
S0
G1 X202.159 S120
S0
G1 X202.032 S19
S0
G0 X201.778 S0
G1 X201.651 S4
S0
G0 X201.016 S0
G1 X200.762 S1
S0
G0 X200.635 S0
G1 X200.508 S2
S0
G0 X200.381 S0
G1 X200.254 S1
S0
G1 X200.127 S2
S0
G1 X200.000 S72
S0
G0 Y32.766
G0 X200.000 S0
G1 X200.127 S76
S0
G1 X200.254 S1
S0
G0 X200.381 S0
G1 X200.635 S1
S0
G0 X200.762 S0
G1 X200.889 S2
S0
G1 X201.016 S1
S0
G0 X202.159 S0
G1 X202.286 S95
S0
G1 X202.413 S113
S0
G1 X202.540 S86
S0
G1 X202.921 S98
S0
G1 X203.048 S99
S0
G1 X203.175 S97
S0
G1 X203.302 S98
S0
G1 X203.429 S102
S0
G1 X203.556 S99
S0
G1 X203.683 S90
S0
G1 X203.810 S92
S0
G1 X203.937 S110
S0
G1 X204.064 S130
S0
G1 X204.191 S134
S0
G1 X204.318 S120
S0
G1 X204.445 S86
S0
G1 X204.572 S51
S0
G1 X204.699 S7
S0
G1 X204.826 S1
S0
G0 X205.207 S0
G1 X205.334 S3
S0
G0 X205.588 S0
G1 X205.715 S1
S0
G0 X206.096 S0
G1 X206.223 S1
S0
G0 X206.604 S0
G1 X206.858 S1
S0
G0 X206.985 S0
G1 X207.239 S1
S0
G0 X207.620 S0
G1 X207.747 S4
S0
G0 X208.255 S0
G1 X208.382 S5
S0
G0 X208.763 S0
G1 X208.890 S1
S0
G0 X209.017 S0
G1 X209.144 S5
S0
G1 X209.271 S50
S0
G1 X209.398 S107
S0
G1 X209.525 S112
S0
G1 X209.652 S79
S0
G1 X209.779 S75
S0
G1 X209.906 S79
S0
G1 X210.033 S83
S0
G1 X210.160 S26
S0
G1 X210.287 S357
S0
G1 X210.414 S564
S0
G1 X210.541 S450
S0
G1 X210.668 S760
S0
G1 X210.795 S683
S0
G1 X210.922 S483
S0
G1 X211.176 S535
S0
G1 X211.303 S505
S0
G1 X211.430 S617
S0
G1 X211.557 S859
S0
G1 X211.684 S858
S0
G1 X211.938 S853
S0
G1 X212.065 S856
S0
G1 X212.192 S857
S0
G1 X212.319 S854
S0
G1 X212.446 S858
S0
G1 X212.573 S855
S0
G1 X212.700 S854
S0
G1 X212.827 S858
S0
G1 X212.954 S860
S0
G1 X213.208 S858
S0
G1 X213.716 S859
S0
G1 X213.843 S855
S0
G1 X213.970 S851
S0
G1 X214.097 S840
S0
G1 X214.224 S836
S0
G1 X214.351 S849
S0
G1 X214.478 S844
S0
G1 X214.605 S829
S0
G1 X214.732 S821
S0
G1 X214.859 S839
S0
G1 X214.986 S855
S0
G1 X215.113 S402
S0
G1 X215.240 S263
S0
G1 X215.367 S727
S0
G1 X215.494 S862
S0
G1 X215.621 S805
S0
G1 X215.748 S863
S0
G1 X215.875 S687
S0
G1 X216.002 S272
S0
G1 X216.129 S351
S0
G1 X216.256 S769
S0
G1 X216.383 S753
S0
G1 X216.510 S678
S0
G1 X216.637 S687
S0
G1 X216.764 S702
S0
G1 X216.891 S687
S0
G1 X217.018 S703
S0
G1 X217.145 S784
S0
G1 X217.272 S659
S0
G1 X217.399 S739
S0
G1 X217.526 S889
S0
G1 X217.653 S635
S0
G1 X217.780 S617
S0
G1 X217.907 S906
S0
G1 X218.034 S760
S0
G1 X218.161 S592
S0
G1 X218.288 S669
S0
G1 X218.415 S612
S0
G1 X218.542 S623
S0
G1 X218.669 S676
S0
G1 X218.796 S826
S0
G1 X218.923 S859
S0
G1 X219.050 S810
S0
G1 X219.177 S867
S0
G1 X219.304 S736
S0
G1 X219.431 S646
S0
G1 X219.558 S671
S0
G1 X219.685 S677
S0
G1 X219.812 S869
S0
G1 X219.939 S356
S0
G1 X220.066 S2
S0
G1 X220.320 S1
S0
G0 X225.400 S0
G1 X225.527 S1
S0
G0 X225.908 S0
G1 X226.035 S2
S0
G1 X226.162 S5
S0
G0 X226.289 S0
G1 X226.416 S2
S0
G1 X226.543 S1
S0
G1 X226.670 S400
S0
G1 X226.797 S431
S0
G0 X226.924 S0
G1 X227.051 S2
S0
G1 X227.178 S5
S0
G1 X227.305 S48
S0
G1 X227.432 S651
S0
G1 X227.559 S744
S0
G1 X227.686 S664
S0
G1 X227.813 S731
S0
G1 X227.940 S723
S0
G1 X228.067 S776
S0
G1 X228.194 S793
S0
G1 X228.321 S772
S0
G1 X228.448 S775
S0
G1 X228.575 S773
S0
G1 X228.702 S771
S0
G1 X228.829 S787
S0
G1 X228.956 S819
S0
G1 X229.083 S743
S0
G1 X229.210 S728
S0
G1 X229.337 S796
S0
G1 X229.464 S752
S0
G1 X229.591 S729
S0
G1 X229.718 S718
S0
G1 X229.845 S717
S0
G1 X229.972 S839
S0
G1 X230.099 S407
S0
G1 X230.226 S2
S0
G0 X230.861 S0
G1 X231.115 S2
S0
G0 X231.750 S0
G1 X231.877 S4
S0
G0 X232.004 S0
G1 X232.131 S4
S0
G0 X232.258 S0
G1 X232.512 S2
S0
G0 X232.893 S0
G1 X233.020 S2
S0
G1 X233.147 S4
S0
G0 X233.401 S0
G1 X233.655 S4
S0
G0 X233.782 S0
G1 X233.909 S5
S0
G1 X234.036 S2
S0
G1 X234.290 S5
S0
G0 X234.417 S0
G1 X234.671 S1
S0
G0 X235.306 S0
G1 X235.433 S5
S0
G0 X235.687 S0
G1 X235.814 S4
S0
G0 X236.068 S0
G1 X236.322 S2
S0
G1 X236.449 S4
S0
G0 X237.211 S0
G1 X237.338 S3
S0
G1 X237.465 S1
S0
G0 X237.592 S0
G1 X237.719 S4
S0
G0 X237.846 S0
G1 X237.973 S2
S0
G0 X238.227 S0
G1 X238.354 S8
S0
G1 X238.481 S2
S0
G0 X238.608 S0
G1 X238.735 S5
S0
G1 X238.862 S1
S0
G0 X238.989 S0
G1 X239.116 S1
S0
G1 X239.243 S4
S0
G1 X239.370 S2
S0
G1 X239.497 S4
S0
G1 X239.624 S1
S0
G0 Y32.639
G0 X239.624 S0
G1 X239.497 S3
S0
G0 X239.370 S0
G1 X239.243 S5
S0
G1 X239.116 S1
S0
G1 X238.989 S2
S0
G1 X238.862 S5
S0
G1 X238.735 S1
S0
G1 X238.608 S5
S0
G1 X238.354 S1
S0
G1 X238.227 S4
S0
G1 X238.100 S1
S0
G1 X237.973 S3
S0
G0 X237.846 S0
G1 X237.719 S3
S0
G0 X237.592 S0
G1 X237.465 S5
S0
G0 X236.576 S0
G1 X236.449 S1
S0
G0 X235.560 S0
G1 X235.433 S2
S0
G1 X235.306 S1
S0
G0 X235.179 S0
G1 X234.925 S4
S0
G0 X234.798 S0
G1 X234.671 S4
S0
G0 X234.163 S0
G1 X234.036 S1
S0
G1 X233.909 S3
S0
G1 X233.782 S1
S0
G0 X233.655 S0
G1 X233.528 S5
S0
G1 X233.401 S3
S0
G1 X233.147 S4
S0
G0 X233.020 S0
G1 X232.766 S1
S0
G1 X232.639 S5
S0
G1 X232.385 S1
S0
G0 X232.004 S0
G1 X231.877 S4
S0
G0 X231.750 S0
G1 X231.623 S4
S0
G1 X231.496 S1
S0
G1 X231.242 S2
S0
G0 X231.115 S0
G1 X230.988 S4
S0
G0 X230.734 S0
G1 X230.480 S5
S0
G0 X230.353 S0
G1 X230.226 S1
S0
G1 X230.099 S12
S0
G1 X229.972 S666
S0
G1 X229.845 S776
S0
G1 X229.718 S715
S0
G1 X229.591 S744
S0
G1 X229.464 S719
S0
G1 X229.337 S814
S0
G1 X229.210 S899
S0
G1 X229.083 S738
S0
G1 X228.956 S767
S0
G1 X228.829 S854
S0
G1 X228.702 S772
S0
G1 X228.575 S776
S0
G1 X228.448 S782
S0
G1 X228.321 S783
S0
G1 X228.194 S771
S0
G1 X228.067 S806
S0
G1 X227.940 S803
S0
G1 X227.813 S726
S0
G1 X227.686 S736
S0
G1 X227.559 S725
S0
G1 X227.432 S729
S0
G1 X227.305 S776
S0
G1 X227.178 S144
S0
G1 X227.051 S1
S0
G0 X226.924 S0
G1 X226.797 S3
S0
G1 X226.670 S402
S0
G1 X226.543 S484
S0
G1 X226.416 S24
S0
G1 X226.289 S1
S0
G1 X226.035 S4
S0
G0 X220.193 S0
G1 X220.066 S4
S0
G0 X219.939 S0
G1 X219.812 S199
S0
G1 X219.685 S875
S0
G1 X219.558 S745
S0
G1 X219.431 S706
S0
G1 X219.304 S672
S0
G1 X219.177 S678
S0
G1 X219.050 S845
S0
G1 X218.923 S826
S0
G1 X218.796 S790
S0
G1 X218.669 S823
S0
G1 X218.542 S907
S0
G1 X218.415 S657
S0
G1 X218.288 S290
S0
G1 X218.161 S642
S0
G1 X218.034 S665
S0
G1 X217.907 S686
S0
G1 X217.780 S859
S0
G1 X217.653 S814
S0
G1 X217.526 S645
S0
G1 X217.399 S651
S0
G1 X217.272 S743
S0
G1 X217.145 S613
S0
G1 X217.018 S591
S0
G1 X216.891 S793
S0
G1 X216.764 S682
S0
G1 X216.637 S711
S0
G1 X216.510 S683
S0
G1 X216.383 S714
S0
G1 X216.256 S929
S0
G1 X216.129 S697
S0
G1 X216.002 S287
S0
G1 X215.875 S279
S0
G1 X215.748 S574
S0
G1 X215.621 S860
S0
G1 X215.494 S799
S0
G1 X215.367 S901
S0
G1 X215.240 S629
S0
G1 X215.113 S267
S0
G1 X214.986 S286
S0
G1 X214.859 S697
S0
G1 X214.732 S916
S0
G1 X214.605 S813
S0
G1 X214.478 S833
S0
G1 X214.351 S844
S0
G1 X214.224 S833
S0
G1 X214.097 S836
S0
G1 X213.970 S844
S0
G1 X213.843 S851
S0
G1 X213.716 S855
S0
G1 X213.462 S859
S0
G1 X213.208 S860
S0
G1 X212.954 S858
S0
G1 X212.827 S859
S0
G1 X212.700 S858
S0
G1 X212.319 S859
S0
G1 X212.192 S855
S0
G1 X212.065 S854
S0
G1 X211.938 S853
S0
G1 X211.811 S859
S0
G1 X211.684 S853
S0
G1 X211.557 S871
S0
