; GCODE generated by Laserweb
; Laser Min: 0%
; Laser Max: 100%
; Black Speed: 200mm/min
; White Speed: 800mm/min
; Resolution (mm per pixel): 0.12699999999999187mm
; Laser Spot Size: NaNmm
; Laser Feedrate: 2000mm/min
; X Offset: 200mm
; Y Offset: 0mm 

G1 F1000
; Start GCode
G92
G90
G1Z0
M3S0

G0 Y37.465
G0 X200.000 S0
G1 X200.127 S623
S0
G1 X200.254 S634
S0
G1 X200.381 S580
S0
G1 X200.508 S544
S0
G1 X200.635 S545
S0
G1 X200.762 S524
S0
G1 X200.889 S548
S0
G1 X201.016 S481
S0
G1 X201.143 S457
S0
G1 X201.270 S449
S0
G1 X201.397 S530
S0
G1 X201.524 S511
S0
G1 X201.651 S445
S0
G1 X201.778 S478
S0
G1 X201.905 S479
S0
G1 X202.032 S466
S0
G1 X202.159 S509
S0
G1 X202.286 S478
S0
G1 X202.413 S469
S0
G1 X202.540 S453
S0
G1 X202.667 S449
S0
G1 X202.794 S441
S0
G1 X202.921 S465
S0
G1 X203.048 S458
S0
G1 X203.175 S413
S0
G1 X203.302 S399
S0
G1 X203.429 S382
S0
G1 X203.556 S388
S0
G1 X203.683 S378
S0
G1 X203.810 S375
S0
G1 X203.937 S394
S0
G1 X204.064 S382
S0
G1 X204.191 S430
S0
G1 X204.318 S446
S0
G1 X204.445 S465
S0
G1 X204.699 S454
S0
G1 X204.826 S504
S0
G1 X204.953 S512
S0
G1 X205.080 S485
S0
G1 X205.207 S508
S0
G1 X205.334 S533
S0
G1 X205.461 S540
S0
G1 X205.588 S565
S0
G1 X205.715 S532
S0
G1 X205.842 S557
S0
G1 X205.969 S521
S0
G1 X206.096 S528
S0
G1 X206.223 S575
S0
G1 X206.350 S500
S0
G1 X206.477 S533
S0
G1 X206.604 S485
S0
G1 X206.731 S491
S0
G1 X206.858 S492
S0
G1 X206.985 S472
S0
G1 X207.112 S501
S0
G1 X207.239 S528
S0
G1 X207.366 S555
S0
G1 X207.493 S600
S0
G1 X207.620 S619
S0
G1 X207.747 S559
S0
G1 X207.874 S505
S0
G1 X208.001 S574
S0
G1 X208.128 S697
S0
G1 X208.255 S639
S0
G1 X208.382 S631
S0
G1 X208.509 S682
S0
G1 X208.636 S574
S0
G1 X208.763 S512
S0
G1 X208.890 S574
S0
G1 X209.017 S462
S0
G1 X209.144 S453
S0
G1 X209.271 S501
S0
G1 X209.398 S521
S0
G1 X209.525 S571
S0
G1 X209.652 S524
S0
G1 X209.779 S461
S0
G1 X209.906 S602
S0
G1 X210.033 S610
S0
G1 X210.160 S626
S0
G1 X210.287 S676
S0
G1 X210.414 S606
S0
G1 X210.541 S588
S0
G1 X210.668 S633
S0
G1 X210.795 S630
S0
G1 X210.922 S658
S0
G1 X211.049 S646
S0
G1 X211.176 S651
S0
G1 X211.303 S634
S0
G1 X211.430 S673
S0
G1 X211.557 S603
S0
G1 X211.684 S595
S0
G1 X211.811 S532
S0
G1 X211.938 S384
S0
G1 X212.065 S413
S0
G1 X212.192 S417
S0
G1 X212.319 S438
S0
G1 X212.446 S415
S0
G1 X212.573 S411
S0
G1 X212.700 S429
S0
G1 X212.827 S434
S0
G1 X212.954 S421
S0
G1 X213.081 S413
S0
G1 X213.208 S426
S0
G1 X213.335 S417
S0
G1 X213.462 S421
S0
G1 X213.589 S399
S0
G1 X213.716 S386
S0
G1 X213.843 S399
S0
G1 X213.970 S387
S0
G1 X214.097 S425
S0
G1 X214.224 S439
S0
G1 X214.351 S454
S0
G1 X214.478 S429
S0
G1 X214.605 S446
S0
G1 X214.732 S423
S0
G1 X214.859 S472
S0
G1 X214.986 S485
S0
G1 X215.113 S470
S0
G1 X215.240 S414
S0
G1 X215.367 S457
S0
G1 X215.494 S419
S0
G1 X215.621 S511
S0
G1 X215.748 S623
S0
G1 X215.875 S567
S0
G1 X216.002 S610
S0
G1 X216.129 S615
S0
G1 X216.256 S532
S0
G1 X216.383 S473
S0
G1 X216.510 S505
S0
G1 X216.637 S529
S0
G1 X216.764 S477
S0
G1 X216.891 S553
S0
G1 X217.018 S611
S0
G1 X217.145 S564
S0
G1 X217.272 S437
S0
G1 X217.399 S472
S0
G1 X217.526 S532
S0
G1 X217.653 S493
S0
G1 X217.780 S417
S0
G1 X217.907 S446
S0
G1 X218.034 S458
S0
G1 X218.161 S469
S0
G1 X218.288 S399
S0
G1 X218.415 S403
S0
G1 X218.542 S445
S0
G1 X218.669 S457
S0
G1 X218.796 S410
S0
G1 X218.923 S417
S0
G1 X219.050 S388
S0
G1 X219.177 S379
S0
G1 X219.304 S501
S0
G1 X219.431 S477
S0
G1 X219.558 S426
S0
G1 X219.685 S486
S0
G1 X219.812 S485
S0
G1 X219.939 S442
S0
G1 X220.066 S445
S0
G1 X220.193 S500
S0
G1 X220.320 S450
S0
G1 X220.447 S437
S0
G1 X220.574 S486
S0
G1 X220.701 S449
S0
G1 X220.828 S480
S0
G1 X220.955 S516
S0
G1 X221.082 S490
S0
G1 X221.209 S478
S0
G1 X221.336 S455
S0
G1 X221.463 S461
S0
G1 X221.590 S533
S0
G1 X221.717 S469
S0
G1 X221.844 S451
S0
G1 X221.971 S532
S0
G1 X222.098 S615
S0
G1 X222.225 S514
S0
G1 X222.352 S442
S0
G1 X222.479 S449
S0
G1 X222.606 S462
S0
G1 X222.733 S508
S0
G1 X222.860 S450
S0
G1 X222.987 S430
S0
G1 X223.114 S560
S0
G1 X223.241 S425
S0
G1 X223.368 S427
S0
G1 X223.495 S532
S0
G1 X223.622 S443
S0
G1 X223.749 S485
S0
G1 X223.876 S547
S0
G1 X224.003 S572
S0
G1 X224.130 S497
S0
G1 X224.257 S457
S0
G1 X224.384 S545
S0
G1 X224.511 S498
S0
G1 X224.638 S529
S0
G1 X224.765 S508
S0
G1 X224.892 S481
S0
G1 X225.019 S484
S0
G1 X225.146 S418
S0
G1 X225.400 S489
S0
G1 X225.527 S529
S0
G1 X225.654 S519
S0
G1 X225.781 S525
S0
G1 X225.908 S548
S0
G1 X226.035 S559
S0
G1 X226.162 S592
S0
G1 X226.289 S647
S0
G1 X226.416 S568
S0
G1 X226.543 S545
S0
G1 X226.670 S640
S0
G1 X226.797 S623
S0
G1 X226.924 S536
S0
G1 X227.051 S529
S0
G1 X227.178 S470
S0
G1 X227.305 S450
S0
G1 X227.432 S547
S0
G1 X227.559 S612
S0
G1 X227.686 S579
S0
G1 X227.813 S591
S0
G1 X227.940 S560
S0
G1 X228.067 S477
S0
G1 X228.194 S573
S0
G1 X228.321 S596
S0
G1 X228.448 S461
S0
G1 X228.575 S553
S0
G1 X228.702 S582
S0
G1 X228.829 S434
S0
G1 X228.956 S513
S0
G1 X229.083 S595
S0
G1 X229.210 S517
S0
G1 X229.337 S433
S0
G1 X229.464 S567
S0
G1 X229.591 S634
S0
G1 X229.718 S511
S0
G1 X229.845 S629
S0
G1 X229.972 S622
S0
G1 X230.099 S490
S0
G1 X230.226 S489
S0
G1 X230.353 S469
S0
G1 X230.480 S462
S0
G1 X230.607 S487
S0
G1 X230.734 S478
S0
G1 X230.861 S496
S0
G1 X230.988 S458
S0
G1 X231.115 S442
S0
G1 X231.242 S430
S0
G1 X231.369 S395
S0
G1 X231.496 S413
S0
G1 X231.623 S364
S0
G1 X231.750 S375
S0
G1 X231.877 S434
S0
G1 X232.004 S407
S0
G1 X232.131 S392
S0
G1 X232.258 S434
S0
G1 X232.385 S473
S0
G1 X232.512 S427
S0
G1 X232.639 S418
S0
G1 X232.766 S443
S0
G1 X232.893 S481
S0
G1 X233.020 S467
S0
G1 X233.147 S441
S0
G1 X233.274 S447
S0
G1 X233.401 S443
S0
G1 X233.528 S463
S0
G1 X233.655 S418
S0
G1 X233.782 S430
S0
G1 X233.909 S449
S0
G1 X234.036 S427
S0
G1 X234.163 S409
S0
G1 X234.290 S434
S0
G1 X234.417 S441
S0
G1 X234.544 S411
S0
G1 X234.671 S450
S0
G1 X234.798 S454
S0
G1 X234.925 S442
S0
G1 X235.052 S486
S0
G1 X235.179 S372
S0
G1 X235.306 S404
S0
G1 X235.433 S579
S0
G1 X235.560 S619
S0
G1 X235.687 S647
S0
G1 X235.814 S631
S0
G1 X235.941 S616
S0
G1 X236.068 S628
S0
G1 X236.195 S584
S0
G1 X236.322 S669
S0
G1 X236.449 S674
S0
G1 X236.576 S552
S0
G1 X236.703 S611
S0
G1 X236.830 S653
S0
G1 X236.957 S500
S0
G1 X237.084 S448
S0
G1 X237.211 S445
S0
G1 X237.338 S398
S0
G1 X237.465 S386
S0
G1 X237.592 S387
S0
G1 X237.719 S398
S0
G1 X237.846 S368
S0
G1 X237.973 S406
S0
G1 X238.100 S445
S0
G1 X238.227 S610
S0
G1 X238.354 S685
S0
G1 X238.481 S670
S0
G1 X238.608 S669
S0
G1 X238.735 S648
S0
G1 X238.862 S619
S0
G1 X238.989 S646
S0
G1 X239.116 S587
S0
G1 X239.243 S537
S0
G1 X239.370 S474
S0
G1 X239.497 S438
S0
G1 X239.624 S447
S0
G1 X239.751 S378
S0
G1 X239.878 S425
S0
G1 X240.005 S435
S0
G1 X240.132 S418
S0
G1 X240.259 S434
S0
G1 X240.386 S423
S0
G1 X240.513 S431
S0
G1 X240.640 S445
S0
G1 X240.767 S466
S0
G1 X240.894 S472
S0
G1 X241.021 S458
S0
G1 X241.148 S426
S0
G1 X241.275 S466
S0
G1 X241.402 S474
S0
G1 X241.529 S442
S0
G1 X241.656 S425
S0
G1 X241.910 S433
S0
G1 X242.037 S426
S0
G1 X242.164 S446
S0
G1 X242.291 S421
S0
G1 X242.418 S430
S0
G1 X242.545 S446
S0
G1 X242.672 S425
S0
G1 X242.799 S434
S0
G1 X242.926 S415
S0
G1 X243.053 S431
S0
G1 X243.180 S426
S0
G1 X243.307 S408
S0
G1 X243.434 S450
S0
G1 X243.561 S465
S0
G1 X243.688 S438
S0
G1 X243.815 S405
S0
G1 X243.942 S415
S0
G1 X244.069 S441
S0
G1 X244.323 S411
S0
G1 X244.577 S421
S0
G1 X244.704 S433
S0
G1 X244.831 S384
S0
G1 X244.958 S399
S0
G1 X245.085 S406
S0
G1 X245.212 S427
S0
G1 X245.339 S453
S0
G1 X245.466 S442
S0
G1 X245.593 S411
S0
G1 X245.720 S417
S0
G1 X245.847 S445
S0
G1 X245.974 S477
S0
G1 X246.101 S473
S0
G1 X246.228 S445
S0
G1 X246.355 S427
S0
G1 X246.482 S462
S0
G1 X246.609 S478
S0
G1 X246.736 S455
S0
G1 X246.863 S560
S0
G1 X246.990 S528
S0
G1 X247.117 S498
S0
G1 X247.244 S532
S0
G1 X247.371 S549
S0
G1 X247.498 S540
S0
G1 X247.625 S529
S0
G1 X247.752 S536
S0
G1 X247.879 S512
S0
G1 X248.006 S533
S0
G1 X248.260 S556
S0
G1 X248.387 S553
S0
G1 X248.514 S587
S0
G1 X248.641 S537
S0
G1 X248.768 S532
S0
G1 X248.895 S568
S0
G1 X249.022 S614
S0
G1 X249.149 S560
S0
G1 X249.403 S462
S0
G1 X249.530 S536
S0
G1 X249.657 S551
S0
G1 X249.911 S567
S0
G1 X250.038 S584
S0
G0 Y37.338
G0 X250.038 S0
G1 X249.911 S548
S0
G1 X249.784 S555
S0
G1 X249.657 S548
S0
G1 X249.530 S503
S0
G1 X249.403 S510
S0
G1 X249.276 S532
S0
G1 X249.149 S508
S0
G1 X249.022 S548
S0
G1 X248.895 S560
S0
G1 X248.768 S591
S0
G1 X248.641 S557
S0
G1 X248.514 S524
S0
G1 X248.387 S548
S0
G1 X248.260 S532
S0
G1 X248.133 S552
S0
G1 X248.006 S524
S0
G1 X247.879 S563
S0
G1 X247.752 S564
S0
G1 X247.625 S526
S0
G1 X247.498 S485
S0
G1 X247.371 S530
S0
G1 X247.244 S478
S0
G1 X247.117 S489
S0
G1 X246.990 S541
S0
G1 X246.863 S537
S0
G1 X246.736 S533
S0
G1 X246.609 S461
S0
G1 X246.482 S448
S0
G1 X246.355 S460
S0
G1 X246.228 S482
S0
G1 X246.101 S442
S0
G1 X245.974 S473
S0
G1 X245.847 S476
S0
G1 X245.720 S387
S0
G1 X245.593 S403
S0
G1 X245.466 S435
S0
G1 X245.339 S413
S0
G1 X245.212 S409
S0
G1 X245.085 S433
S0
G1 X244.958 S415
S0
G1 X244.831 S395
S0
G1 X244.704 S401
S0
G1 X244.577 S391
S0
G1 X244.450 S388
S0
G1 X244.323 S411
S0
G1 X244.196 S398
S0
G1 X244.069 S419
S0
G1 X243.942 S410
S0
G1 X243.688 S394
S0
G1 X243.561 S409
S0
G1 X243.434 S434
S0
G1 X243.307 S437
S0
G1 X243.180 S420
S0
G1 X243.053 S418
S0
G1 X242.926 S417
S0
G1 X242.799 S418
S0
G1 X242.672 S407
S0
G1 X242.545 S394
S0
G1 X242.418 S401
S0
G1 X242.291 S409
S0
G1 X242.164 S427
S0
G1 X242.037 S412
S0
G1 X241.910 S399
S0
G1 X241.783 S412
S0
G1 X241.656 S398
S0
G1 X241.529 S392
S0
G1 X241.402 S427
S0
G1 X241.275 S458
S0
G1 X241.148 S430
S0
G1 X241.021 S397
S0
G1 X240.894 S393
S0
G1 X240.767 S418
S0
G1 X240.640 S431
S0
G1 X240.513 S418
S0
G1 X240.386 S386
S0
G1 X240.259 S402
S0
G1 X240.132 S384
S0
G1 X240.005 S403
S0
G1 X239.878 S434
S0
G1 X239.751 S382
S0
G1 X239.624 S372
S0
G1 X239.497 S402
S0
G1 X239.370 S422
S0
G1 X239.243 S414
S0
G1 X239.116 S433
S0
G1 X238.989 S517
S0
G1 X238.862 S581
S0
G1 X238.735 S594
S0
G1 X238.608 S669
S0
G1 X238.481 S689
S0
G1 X238.354 S655
S0
G1 X238.227 S645
S0
G1 X238.100 S657
S0
G1 X237.973 S613
S0
G1 X237.846 S630
S0
G1 X237.719 S556
S0
G1 X237.592 S515
S0
G1 X237.465 S478
S0
G1 X237.338 S575
S0
G1 X237.211 S657
S0
G1 X237.084 S694
S0
G1 X236.957 S635
S0
G1 X236.830 S664
S0
G1 X236.703 S646
S0
G1 X236.576 S618
S0
G1 X236.449 S643
S0
G1 X236.322 S630
S0
G1 X236.195 S674
S0
G1 X236.068 S667
S0
G1 X235.941 S678
S0
G1 X235.814 S681
S0
G1 X235.687 S638
S0
G1 X235.560 S594
S0
G1 X235.433 S504
S0
G1 X235.306 S445
S0
G1 X235.179 S476
S0
G1 X235.052 S410
S0
G1 X234.925 S402
S0
G1 X234.798 S418
S0
G1 X234.671 S426
S0
G1 X234.544 S429
S0
G1 X234.417 S406
S0
G1 X234.290 S429
S0
G1 X234.163 S415
S0
G1 X234.036 S408
S0
G1 X233.909 S434
S0
G1 X233.782 S472
S0
G1 X233.655 S409
S0
G1 X233.528 S425
S0
G1 X233.401 S465
S0
G1 X233.274 S457
S0
G1 X233.147 S420
S0
G1 X233.020 S458
S0
G1 X232.893 S439
S0
G1 X232.766 S438
S0
G1 X232.639 S473
S0
G1 X232.512 S426
S0
G1 X232.385 S430
S0
G1 X232.131 S453
S0
G1 X232.004 S448
S0
G1 X231.877 S441
S0
G1 X231.750 S395
S0
G1 X231.623 S414
S0
G1 X231.496 S400
S0
G1 X231.369 S415
S0
G1 X231.242 S398
S0
G1 X231.115 S399
S0
G1 X230.988 S419
S0
G1 X230.861 S407
S0
G1 X230.734 S501
S0
G1 X230.607 S532
S0
G1 X230.480 S490
S0
G1 X230.353 S465
S0
G1 X230.226 S513
S0
G1 X230.099 S472
S0
G1 X229.972 S435
S0
G1 X229.845 S598
S0
G1 X229.718 S606
S0
G1 X229.591 S537
S0
G1 X229.464 S587
S0
G1 X229.337 S674
S0
G1 X229.210 S504
S0
G1 X229.083 S507
S0
G1 X228.956 S623
S0
G1 X228.829 S572
S0
G1 X228.702 S489
S0
G1 X228.575 S592
S0
G1 X228.448 S600
S0
G1 X228.321 S537
S0
G1 X228.194 S501
S0
G1 X228.067 S493
S0
G1 X227.940 S580
S0
G1 X227.813 S524
S0
G1 X227.686 S561
S0
G1 X227.559 S527
S0
G1 X227.432 S541
S0
G1 X227.305 S524
S0
G1 X227.178 S391
S0
G1 X227.051 S559
S0
G1 X226.924 S532
S0
G1 X226.797 S482
S0
G1 X226.670 S579
S0
G1 X226.543 S509
S0
G1 X226.416 S525
S0
G1 X226.289 S599
S0
G1 X226.162 S637
S0
G1 X226.035 S488
S0
G1 X225.908 S498
S0
G1 X225.781 S601
S0
G1 X225.654 S400
S0
G1 X225.527 S579
S0
G1 X225.400 S583
S0
G1 X225.273 S437
S0
G1 X225.146 S586
S0
G1 X225.019 S521
S0
G1 X224.892 S466
S0
G1 X224.765 S430
S0
G1 X224.638 S568
S0
G1 X224.511 S508
S0
G1 X224.384 S426
S0
G1 X224.257 S460
S0
G1 X224.130 S431
S0
G1 X224.003 S489
S0
G1 X223.876 S536
S0
G1 X223.749 S597
S0
G1 X223.622 S476
S0
G1 X223.495 S527
S0
G1 X223.368 S488
S0
G1 X223.241 S410
S0
G1 X223.114 S427
S0
G1 X222.987 S437
S0
G1 X222.860 S446
S0
G1 X222.733 S394
S0
G1 X222.606 S458
S0
G1 X222.479 S516
S0
G1 X222.352 S492
S0
G1 X222.225 S442
S0
G1 X222.098 S607
S0
G1 X221.971 S563
S0
G1 X221.844 S470
S0
G1 X221.717 S504
S0
G1 X221.590 S484
S0
G1 X221.463 S490
S0
G1 X221.336 S489
S0
G1 X221.209 S445
S0
G1 X221.082 S431
S0
G1 X220.955 S486
S0
G1 X220.828 S496
S0
G1 X220.701 S446
S0
G1 X220.574 S417
S0
G1 X220.447 S427
S0
G1 X220.320 S547
S0
G1 X220.193 S485
S0
G1 X220.066 S445
S0
G1 X219.939 S520
S0
G1 X219.812 S466
S0
G1 X219.685 S433
S0
G1 X219.558 S427
S0
G1 X219.431 S393
S0
G1 X219.304 S488
S0
G1 X219.177 S443
S0
G1 X219.050 S403
S0
G1 X218.923 S390
S0
G1 X218.796 S405
S0
G1 X218.669 S407
S0
G1 X218.542 S386
S0
G1 X218.415 S410
S0
G1 X218.288 S388
S0
G1 X218.161 S382
S0
G1 X218.034 S350
S0
G1 X217.907 S429
S0
G1 X217.780 S457
S0
G1 X217.653 S502
S0
G1 X217.526 S513
S0
G1 X217.399 S559
S0
G1 X217.272 S451
S0
G1 X217.145 S458
S0
G1 X217.018 S567
S0
G1 X216.891 S568
S0
G1 X216.764 S544
S0
G1 X216.637 S449
S0
G1 X216.510 S520
S0
G1 X216.383 S500
S0
G1 X216.256 S450
S0
G1 X216.129 S509
S0
G1 X216.002 S576
S0
G1 X215.875 S585
S0
G1 X215.748 S508
S0
G1 X215.621 S622
S0
G1 X215.494 S612
S0
G1 X215.367 S433
S0
G1 X215.240 S406
S0
G1 X215.113 S457
S0
G1 X214.986 S407
S0
G1 X214.859 S409
S0
G1 X214.732 S434
S0
G1 X214.605 S397
S0
G1 X214.478 S410
S0
G1 X214.351 S425
S0
G1 X214.224 S444
S0
G1 X214.097 S464
S0
G1 X213.970 S403
S0
G1 X213.843 S390
S0
G1 X213.716 S434
S0
G1 X213.589 S426
S0
G1 X213.462 S402
S0
G1 X213.335 S403
S0
G1 X213.208 S407
S0
G1 X213.081 S442
S0
G1 X212.954 S399
S0
G1 X212.827 S406
S0
G1 X212.700 S418
S0
G1 X212.573 S413
S0
G1 X212.446 S404
S0
G1 X212.319 S421
S0
G1 X212.192 S441
S0
G1 X212.065 S388
S0
G1 X211.938 S402
S0
G1 X211.811 S528
S0
G1 X211.684 S635
S0
G1 X211.557 S676
S0
G1 X211.430 S650
S0
G1 X211.303 S634
S0
G1 X211.049 S655
S0
G1 X210.922 S602
S0
G1 X210.795 S647
S0
G1 X210.668 S571
S0
G1 X210.541 S626
S0
G1 X210.414 S599
S0
G1 X210.287 S548
S0
G1 X210.160 S587
S0
G1 X210.033 S650
S0
G1 X209.906 S638
S0
G1 X209.779 S655
S0
G1 X209.652 S649
S0
G1 X209.525 S663
S0
G1 X209.398 S708
S0
G1 X209.271 S689
S0
G1 X209.144 S702
S0
G1 X209.017 S513
S0
G1 X208.890 S594
S0
G1 X208.763 S738
S0
G1 X208.636 S685
S0
G1 X208.509 S670
S0
G1 X208.382 S678
S0
G1 X208.255 S623
S0
G1 X208.128 S650
S0
G1 X208.001 S639
S0
G1 X207.874 S599
S0
G1 X207.747 S642
S0
G1 X207.620 S595
S0
G1 X207.493 S498
S0
G1 X207.366 S497
S0
G1 X207.112 S508
S0
G1 X206.985 S488
S0
G1 X206.858 S465
S0
G1 X206.731 S474
S0
G1 X206.604 S509
S0
G1 X206.477 S517
S0
G1 X206.350 S560
S0
G1 X206.223 S532
S0
G1 X206.096 S539
S0
G1 X205.969 S509
S0
G1 X205.842 S537
S0
G1 X205.715 S567
S0
G1 X205.588 S520
S0
G1 X205.461 S541
S0
G1 X205.334 S529
S0
G1 X205.207 S532
S0
G1 X205.080 S521
S0
G1 X204.953 S517
S0
G1 X204.826 S519
S0
G1 X204.699 S523
S0
G1 X204.572 S496
S0
G1 X204.445 S513
S0
G1 X204.318 S508
S0
G1 X204.191 S485
S0
G1 X204.064 S462
S0
G1 X203.937 S441
S0
G1 X203.810 S431
S0
G1 X203.683 S399
S0
G1 X203.556 S372
S0
G1 X203.429 S376
S0
G1 X203.302 S378
S0
G1 X203.175 S396
S0
G1 X203.048 S421
S0
G1 X202.921 S418
S0
G1 X202.794 S433
S0
G1 X202.667 S454
S0
G1 X202.540 S449
S0
G1 X202.413 S446
S0
G1 X202.286 S457
S0
G1 X202.159 S456
S0
G1 X202.032 S469
S0
G1 X201.905 S482
S0
G1 X201.778 S489
S0
G1 X201.651 S481
S0
G1 X201.524 S429
S0
G1 X201.397 S437
S0
G1 X201.270 S530
S0
G1 X201.143 S552
S0
G1 X201.016 S532
S0
G1 X200.889 S500
S0
G1 X200.762 S555
S0
G1 X200.635 S504
S0
G1 X200.508 S540
S0
G1 X200.381 S555
S0
G1 X200.254 S579
S0
G1 X200.127 S626
S0
G1 X200.000 S655
S0
G0 Y37.211
G0 X200.000 S0
G1 X200.127 S623
S0
G1 X200.254 S629
S0
G1 X200.381 S591
S0
G1 X200.508 S588
S0
G1 X200.635 S576
S0
G1 X200.762 S586
S0
G1 X200.889 S588
S0
G1 X201.016 S555
S0
G1 X201.143 S508
S0
G1 X201.270 S430
S0
G1 X201.397 S466
S0
G1 X201.651 S497
S0
G1 X201.778 S458
S0
G1 X201.905 S481
S0
G1 X202.032 S461
S0
G1 X202.286 S454
S0
G1 X202.413 S464
S0
G1 X202.540 S434
S0
G1 X202.667 S450
S0
G1 X202.794 S442
S0
G1 X202.921 S415
S0
G1 X203.048 S413
S0
G1 X203.175 S427
S0
G1 X203.302 S429
S0
G1 X203.429 S422
S0
G1 X203.556 S409
S0
G1 X203.683 S413
S0
G1 X203.810 S422
S0
G1 X203.937 S453
S0
G1 X204.064 S473
S0
G1 X204.191 S469
S0
G1 X204.318 S461
S0
G1 X204.445 S478
S0
G1 X204.572 S489
S0
G1 X204.699 S500
S0
G1 X204.826 S497
S0
G1 X204.953 S478
S0
G1 X205.080 S517
S0
G1 X205.207 S497
S0
G1 X205.334 S517
S0
G1 X205.461 S525
S0
G1 X205.588 S533
S0
G1 X205.715 S504
S0
G1 X205.842 S493
S0
G1 X205.969 S512
S0
G1 X206.096 S485
S0
G1 X206.223 S454
S0
G1 X206.350 S524
S0
G1 X206.477 S537
S0
G1 X206.604 S495
S0
G1 X206.731 S500
S0
G1 X206.858 S461
S0
G1 X206.985 S502
S0
G1 X207.112 S561
S0
G1 X207.239 S489
S0
G1 X207.366 S472
S0
G1 X207.493 S463
S0
G1 X207.620 S456
S0
G1 X207.747 S524
S0
G1 X207.874 S537
S0
G1 X208.001 S521
S0
G1 X208.128 S524
S0
G1 X208.255 S602
S0
G1 X208.382 S627
S0
G1 X208.509 S650
S0
G1 X208.636 S686
S0
G1 X208.763 S658
S0
G1 X208.890 S662
S0
G1 X209.017 S673
S0
G1 X209.144 S669
S0
G1 X209.271 S677
S0
G1 X209.398 S641
S0
G1 X209.525 S626
S0
G1 X209.652 S618
S0
G1 X209.779 S665
S0
G1 X209.906 S640
S0
G1 X210.033 S614
S0
G1 X210.160 S634
S0
G1 X210.287 S622
S0
G1 X210.414 S595
S0
G1 X210.541 S639
S0
G1 X210.668 S645
S0
G1 X210.795 S606
S0
G1 X210.922 S579
S0
G1 X211.049 S586
S0
G1 X211.176 S565
S0
G1 X211.303 S579
S0
G1 X211.430 S639
S0
G1 X211.557 S657
S0
G1 X211.684 S520
S0
G1 X211.811 S599
S0
G1 X211.938 S706
S0
G1 X212.065 S566
S0
G1 X212.192 S399
S0
G1 X212.319 S367
S0
G1 X212.446 S439
S0
G1 X212.573 S441
S0
G1 X212.700 S398
S0
G1 X212.827 S413
S0
G1 X212.954 S411
S0
G1 X213.081 S414
S0
G1 X213.208 S429
S0
G1 X213.335 S426
S0
G1 X213.462 S414
S0
G1 X213.589 S426
S0
G1 X213.716 S453
S0
G1 X213.843 S442
S0
G1 X213.970 S407
S0
G1 X214.097 S447
S0
G1 X214.224 S458
S0
G1 X214.351 S457
S0
G1 X214.478 S418
S0
G1 X214.605 S411
S0
G1 X214.732 S393
S0
G1 X214.859 S401
S0
G1 X215.113 S422
S0
G1 X215.240 S481
S0
G1 X215.367 S410
S0
G1 X215.494 S567
S0
G1 X215.621 S599
S0
G1 X215.748 S630
S0
G1 X215.875 S594
S0
G1 X216.002 S576
S0
G1 X216.129 S473
S0
G1 X216.256 S454
S0
G1 X216.383 S417
S0
G1 X216.510 S431
S0
G1 X216.637 S435
S0
G1 X216.764 S529
S0
G1 X216.891 S540
S0
G1 X217.018 S512
S0
G1 X217.145 S579
S0
G1 X217.272 S572
S0
G1 X217.399 S493
S0
G1 X217.526 S533
S0
G1 X217.653 S466
S0
G1 X217.780 S431
S0
G1 X217.907 S421
S0
G1 X218.034 S348
S0
G1 X218.161 S382
S0
G1 X218.288 S406
S0
G1 X218.415 S388
S0
G1 X218.542 S419
S0
G1 X218.669 S401
S0
G1 X218.796 S374
S0
G1 X218.923 S399
S0
G1 X219.050 S417
S0
G1 X219.177 S398
S0
G1 X219.304 S423
S0
G1 X219.431 S437
S0
G1 X219.558 S421
S0
G1 X219.685 S403
S0
G1 X219.812 S405
S0
G1 X219.939 S485
S0
G1 X220.066 S520
S0
G1 X220.193 S378
S0
G1 X220.320 S520
S0
G1 X220.447 S462
S0
G1 X220.574 S441
S0
G1 X220.701 S473
S0
G1 X220.828 S417
S0
G1 X220.955 S401
S0
G1 X221.082 S437
S0
G1 X221.209 S501
S0
G1 X221.336 S493
S0
G1 X221.463 S470
S0
G1 X221.590 S462
S0
G1 X221.717 S443
S0
G1 X221.844 S493
S0
G1 X221.971 S442
S0
G1 X222.098 S508
S0
G1 X222.225 S528
S0
G1 X222.352 S474
S0
G1 X222.479 S461
S0
G1 X222.606 S500
S0
G1 X222.733 S488
S0
G1 X222.860 S454
S0
G1 X222.987 S450
S0
G1 X223.114 S414
S0
G1 X223.241 S399
S0
G1 X223.368 S496
S0
G1 X223.495 S555
S0
G1 X223.622 S481
S0
G1 X223.749 S437
S0
G1 X223.876 S498
S0
G1 X224.003 S469
S0
G1 X224.130 S454
S0
G1 X224.257 S509
S0
G1 X224.384 S427
S0
G1 X224.511 S437
S0
G1 X224.638 S572
S0
G1 X224.765 S528
S0
G1 X224.892 S474
S0
G1 X225.019 S481
S0
G1 X225.146 S465
S0
G1 X225.273 S533
S0
G1 X225.400 S500
S0
G1 X225.527 S582
S0
G1 X225.654 S598
S0
G1 X225.781 S463
S0
G1 X225.908 S586
S0
G1 X226.035 S543
S0
G1 X226.162 S461
S0
G1 X226.289 S567
S0
G1 X226.416 S552
S0
G1 X226.543 S501
S0
G1 X226.670 S529
S0
G1 X226.797 S578
S0
G1 X226.924 S577
S0
G1 X227.051 S536
S0
G1 X227.178 S557
S0
G1 X227.305 S425
S0
G1 X227.432 S540
S0
G1 X227.559 S511
S0
G1 X227.686 S461
S0
G1 X227.813 S612
S0
G1 X227.940 S545
S0
G1 X228.067 S513
S0
G1 X228.194 S532
S0
G1 X228.321 S457
S0
G1 X228.448 S482
S0
G1 X228.575 S494
S0
G1 X228.702 S555
S0
G1 X228.829 S593
S0
G1 X228.956 S582
S0
G1 X229.083 S639
S0
G1 X229.210 S563
S0
G1 X229.337 S651
S0
G1 X229.464 S624
S0
G1 X229.591 S595
S0
G1 X229.718 S579
S0
G1 X229.845 S593
S0
G1 X229.972 S580
S0
G1 X230.099 S340
S0
G1 X230.226 S360
S0
G1 X230.353 S425
S0
G1 X230.480 S444
S0
G1 X230.607 S504
S0
G1 X230.734 S514
S0
G1 X230.861 S500
S0
G1 X230.988 S477
S0
G1 X231.115 S462
S0
G1 X231.242 S472
S0
G1 X231.369 S458
S0
G1 X231.496 S410
S0
G1 X231.623 S402
S0
G1 X231.750 S469
S0
G1 X231.877 S480
S0
G1 X232.004 S405
S0
G1 X232.131 S433
S0
G1 X232.258 S478
S0
G1 X232.385 S458
S0
G1 X232.512 S372
S0
G1 X232.639 S414
S0
G1 X232.766 S440
S0
G1 X232.893 S391
S0
G1 X233.020 S438
S0
G1 X233.147 S417
S0
G1 X233.274 S427
S0
G1 X233.401 S443
S0
G1 X233.528 S446
S0
G1 X233.655 S438
S0
G1 X233.909 S441
S0
G1 X234.036 S425
S0
G1 X234.163 S408
S0
G1 X234.290 S394
S0
G1 X234.417 S406
S0
G1 X234.544 S425
S0
G1 X234.671 S451
S0
G1 X234.798 S442
S0
G1 X234.925 S413
S0
G1 X235.052 S411
S0
G1 X235.179 S391
S0
G1 X235.306 S406
S0
G1 X235.433 S445
S0
G1 X235.560 S410
S0
G1 X235.687 S414
S0
G1 X235.814 S533
S0
G1 X235.941 S625
S0
G1 X236.068 S650
S0
G1 X236.195 S611
S0
G1 X236.322 S667
S0
G1 X236.449 S665
S0
G1 X236.576 S669
S0
G1 X236.703 S622
S0
G1 X236.830 S590
S0
G1 X236.957 S677
S0
G1 X237.084 S678
S0
G1 X237.211 S693
S0
G1 X237.338 S561
S0
G1 X237.465 S587
S0
G1 X237.592 S568
S0
G1 X237.719 S565
S0
G1 X237.846 S666
S0
G1 X237.973 S654
S0
G1 X238.100 S596
S0
G1 X238.227 S650
S0
G1 X238.354 S649
S0
G1 X238.481 S698
S0
G1 X238.608 S621
S0
G1 X238.735 S551
S0
G1 X238.862 S555
S0
G1 X238.989 S479
S0
G1 X239.116 S447
S0
G1 X239.243 S406
S0
G1 X239.370 S376
S0
G1 X239.497 S399
S0
G1 X239.624 S375
S0
G1 X239.751 S379
S0
G1 X239.878 S398
S0
G1 X240.005 S367
S0
G1 X240.132 S388
S0
G1 X240.259 S370
S0
G1 X240.386 S366
S0
G1 X240.513 S368
S0
G1 X240.640 S370
S0
G1 X240.767 S415
S0
G1 X240.894 S382
S0
G1 X241.021 S335
S0
G1 X241.148 S422
S0
G1 X241.275 S438
S0
G1 X241.402 S426
S0
G1 X241.529 S422
S0
G1 X241.656 S398
S0
G1 X241.783 S370
S0
G1 X241.910 S396
S0
G1 X242.037 S408
S0
G1 X242.164 S399
S0
G1 X242.291 S398
S0
G1 X242.418 S386
S0
G1 X242.545 S394
S0
G1 X242.672 S425
S0
G1 X242.799 S417
S0
G1 X242.926 S423
S0
G1 X243.053 S414
S0
G1 X243.180 S430
S0
G1 X243.307 S446
S0
G1 X243.434 S441
S0
G1 X243.561 S422
S0
G1 X243.688 S406
S0
G1 X243.815 S394
S0
G1 X243.942 S379
S0
G1 X244.069 S394
S0
G1 X244.196 S405
S0
G1 X244.323 S414
S0
G1 X244.450 S402
S0
G1 X244.577 S391
S0
G1 X244.704 S370
S0
G1 X244.831 S398
S0
G1 X244.958 S401
S0
G1 X245.085 S380
S0
G1 X245.212 S384
S0
G1 X245.339 S416
S0
G1 X245.466 S466
S0
G1 X245.593 S421
S0
G1 X245.720 S387
S0
G1 X245.847 S406
S0
G1 X245.974 S457
S0
G1 X246.101 S451
S0
G1 X246.228 S430
S0
G1 X246.355 S426
S0
G1 X246.482 S423
S0
G1 X246.609 S402
S0
G1 X246.736 S462
S0
G1 X246.863 S490
S0
G1 X246.990 S457
S0
G1 X247.117 S501
S0
G1 X247.244 S489
S0
G1 X247.371 S466
S0
G1 X247.498 S500
S0
G1 X247.625 S489
S0
G1 X247.752 S511
S0
G1 X247.879 S528
S0
G1 X248.006 S559
S0
G1 X248.133 S513
S0
G1 X248.260 S521
S0
G1 X248.387 S490
S0
G1 X248.514 S544
S0
G1 X248.641 S533
S0
G1 X248.768 S520
S0
G1 X248.895 S525
S0
G1 X249.022 S547
S0
G1 X249.149 S600
S0
G1 X249.276 S583
S0
G1 X249.403 S560
S0
G1 X249.530 S555
S0
G1 X249.657 S533
S0
G1 X249.784 S540
S0
G1 X249.911 S583
S0
G1 X250.038 S524
S0
G0 Y37.084
G0 X250.038 S0
G1 X249.911 S494
S0
G1 X249.784 S521
S0
G1 X249.657 S516
S0
G1 X249.530 S532
S0
G1 X249.403 S554
S0
G1 X249.276 S529
S0
G1 X249.149 S516
S0
G1 X249.022 S560
S0
G1 X248.895 S547
S0
G1 X248.768 S493
S0
G1 X248.514 S528
S0
G1 X248.387 S502
S0
G1 X248.260 S489
S0
G1 X248.133 S481
S0
G1 X248.006 S485
S0
G1 X247.752 S504
S0
G1 X247.625 S463
S0
G1 X247.498 S489
S0
G1 X247.371 S504
S0
G1 X247.244 S500
S0
G1 X247.117 S486
S0
G1 X246.990 S454
S0
G1 X246.863 S398
S0
G1 X246.736 S455
S0
G1 X246.609 S475
S0
G1 X246.482 S480
S0
G1 X246.355 S401
S0
G1 X246.228 S379
S0
G1 X246.101 S388
S0
G1 X245.974 S400
S0
G1 X245.847 S415
S0
G1 X245.720 S393
S0
G1 X245.593 S402
S0
G1 X245.466 S387
S0
G1 X245.339 S519
S0
G1 X245.212 S509
S0
G1 X245.085 S383
S0
G1 X244.958 S386
S0
G1 X244.831 S413
S0
G1 X244.704 S387
S0
G1 X244.577 S393
S0
G1 X244.450 S410
S0
G1 X244.323 S403
S0
G1 X244.196 S391
S0
G1 X244.069 S367
S0
G1 X243.942 S384
S0
G1 X243.815 S382
S0
G1 X243.688 S375
S0
G1 X243.561 S378
S0
G1 X243.434 S383
S0
G1 X243.307 S446
S0
G1 X243.180 S451
S0
G1 X243.053 S417
S0
G1 X242.926 S427
S0
G1 X242.799 S426
S0
G1 X242.672 S431
S0
G1 X242.545 S435
S0
G1 X242.418 S398
S0
G1 X242.291 S374
S0
G1 X242.164 S402
S0
G1 X242.037 S422
S0
G1 X241.910 S401
S0
G1 X241.783 S411
S0
G1 X241.656 S387
S0
G1 X241.529 S386
S0
G1 X241.402 S382
S0
G1 X241.275 S399
S0
G1 X241.148 S421
S0
G1 X241.021 S392
S0
G1 X240.894 S363
S0
G1 X240.767 S391
S0
G1 X240.640 S411
S0
G1 X240.513 S378
S0
G1 X240.386 S375
S0
G1 X240.259 S374
S0
G1 X240.132 S387
S0
G1 X240.005 S375
S0
G1 X239.878 S351
S0
G1 X239.751 S364
S0
G1 X239.624 S398
S0
G1 X239.497 S414
S0
G1 X239.370 S374
S0
G1 X239.243 S386
S0
G1 X239.116 S405
S0
G1 X238.989 S407
S0
G1 X238.862 S422
S0
G1 X238.735 S449
S0
G1 X238.608 S394
S0
G1 X238.481 S434
S0
G1 X238.354 S575
S0
G1 X238.227 S694
S0
G1 X238.100 S688
S0
G1 X237.973 S504
S0
G1 X237.846 S552
S0
G1 X237.719 S638
S0
G1 X237.592 S539
S0
G1 X237.465 S568
S0
G1 X237.338 S552
S0
G1 X237.211 S530
S0
G1 X237.084 S666
S0
G1 X236.957 S694
S0
G1 X236.830 S674
S0
G1 X236.703 S623
S0
G1 X236.576 S643
S0
G1 X236.449 S642
S0
G1 X236.322 S594
S0
G1 X236.195 S580
S0
G1 X236.068 S517
S0
G1 X235.941 S533
S0
G1 X235.814 S468
S0
G1 X235.687 S402
S0
G1 X235.560 S382
S0
G1 X235.433 S410
S0
G1 X235.306 S406
S0
G1 X235.179 S426
S0
G1 X235.052 S407
S0
G1 X234.925 S391
S0
G1 X234.798 S406
S0
G1 X234.671 S401
S0
G1 X234.544 S419
S0
G1 X234.417 S398
S0
G1 X234.290 S405
S0
G1 X234.163 S435
S0
G1 X234.036 S466
S0
G1 X233.909 S441
S0
G1 X233.655 S423
S0
G1 X233.528 S399
S0
G1 X233.401 S421
S0
G1 X233.274 S444
S0
G1 X233.147 S414
S0
G1 X233.020 S406
S0
G1 X232.893 S431
S0
G1 X232.766 S449
S0
G1 X232.639 S472
S0
G1 X232.512 S441
S0
G1 X232.385 S429
S0
G1 X232.258 S473
S0
G1 X232.131 S380
S0
G1 X232.004 S387
S0
G1 X231.877 S454
S0
G1 X231.750 S482
S0
G1 X231.623 S413
S0
G1 X231.496 S384
S0
G1 X231.369 S352
S0
G1 X231.242 S380
S0
G1 X231.115 S491
S0
G1 X230.988 S517
S0
G1 X230.861 S501
S0
G1 X230.734 S477
S0
G1 X230.607 S473
S0
G1 X230.480 S497
S0
G1 X230.353 S516
S0
G1 X230.226 S461
S0
G1 X230.099 S410
S0
G1 X229.972 S477
S0
G1 X229.845 S539
S0
G1 X229.718 S621
S0
G1 X229.591 S539
S0
G1 X229.464 S544
S0
G1 X229.337 S552
S0
G1 X229.210 S596
S0
G1 X229.083 S619
S0
G1 X228.956 S638
S0
G1 X228.829 S627
S0
G1 X228.702 S580
S0
G1 X228.575 S578
S0
G1 X228.448 S472
S0
G1 X228.321 S485
S0
G1 X228.194 S595
S0
G1 X228.067 S590
S0
G1 X227.940 S505
S0
G1 X227.813 S517
S0
G1 X227.686 S583
S0
G1 X227.559 S566
S0
G1 X227.432 S449
S0
G1 X227.305 S466
S0
G1 X227.051 S545
S0
G1 X226.924 S547
S0
G1 X226.797 S517
S0
G1 X226.670 S533
S0
G1 X226.543 S477
S0
G1 X226.416 S469
S0
G1 X226.289 S498
S0
G1 X226.162 S516
S0
G1 X226.035 S509
S0
G1 X225.908 S500
S0
G1 X225.781 S450
S0
G1 X225.654 S547
S0
G1 X225.527 S614
S0
G1 X225.400 S520
S0
G1 X225.273 S505
S0
G1 X225.146 S599
S0
G1 X225.019 S520
S0
G1 X224.892 S448
S0
G1 X224.765 S429
S0
G1 X224.638 S547
S0
G1 X224.511 S540
S0
G1 X224.384 S468
S0
G1 X224.257 S453
S0
G1 X224.130 S500
S0
G1 X224.003 S391
S0
G1 X223.876 S418
S0
G1 X223.749 S408
S0
G1 X223.622 S476
S0
G1 X223.495 S595
S0
G1 X223.368 S603
S0
G1 X223.241 S507
S0
G1 X223.114 S478
S0
G1 X222.987 S422
S0
G1 X222.860 S374
S0
G1 X222.733 S520
S0
G1 X222.606 S481
S0
G1 X222.479 S453
S0
G1 X222.352 S439
S0
G1 X222.225 S477
S0
G1 X222.098 S525
S0
G1 X221.971 S472
S0
G1 X221.844 S480
S0
G1 X221.717 S505
S0
G1 X221.590 S492
S0
G1 X221.463 S496
S0
G1 X221.336 S448
S0
G1 X221.209 S493
S0
G1 X221.082 S477
S0
G1 X220.955 S512
S0
G1 X220.828 S494
S0
G1 X220.701 S484
S0
G1 X220.574 S447
S0
G1 X220.447 S439
S0
G1 X220.320 S415
S0
G1 X220.193 S538
S0
G1 X220.066 S489
S0
G1 X219.939 S418
S0
G1 X219.812 S387
S0
G1 X219.685 S427
S0
G1 X219.558 S439
S0
G1 X219.431 S457
S0
G1 X219.304 S359
S0
G1 X219.177 S437
S0
G1 X219.050 S453
S0
G1 X218.923 S405
S0
G1 X218.796 S355
S0
G1 X218.669 S375
S0
G1 X218.542 S410
S0
G1 X218.415 S395
S0
G1 X218.288 S387
S0
G1 X218.161 S433
S0
G1 X218.034 S421
S0
G1 X217.907 S403
S0
G1 X217.780 S419
S0
G1 X217.653 S437
S0
G1 X217.526 S403
S0
G1 X217.399 S477
S0
G1 X217.272 S486
S0
G1 X217.145 S588
S0
G1 X217.018 S536
S0
G1 X216.891 S434
S0
G1 X216.764 S555
S0
G1 X216.637 S478
S0
G1 X216.510 S390
S0
G1 X216.383 S409
S0
G1 X216.256 S419
S0
G1 X216.129 S410
S0
G1 X216.002 S385
S0
G1 X215.875 S504
S0
G1 X215.748 S550
S0
G1 X215.621 S611
S0
G1 X215.494 S564
S0
G1 X215.367 S590
S0
G1 X215.240 S528
S0
G1 X215.113 S445
S0
G1 X214.986 S459
S0
G1 X214.859 S430
S0
G1 X214.732 S433
S0
G1 X214.605 S452
S0
G1 X214.478 S406
S0
G1 X214.351 S415
S0
G1 X214.224 S430
S0
G1 X214.097 S453
S0
G1 X213.970 S472
S0
G1 X213.843 S388
S0
G1 X213.716 S426
S0
G1 X213.589 S422
S0
G1 X213.462 S426
S0
G1 X213.335 S406
S0
G1 X213.208 S372
S0
G1 X213.081 S399
S0
G1 X212.954 S430
S0
G1 X212.827 S406
S0
G1 X212.700 S423
S0
G1 X212.573 S419
S0
G1 X212.446 S410
S0
G1 X212.319 S434
S0
G1 X212.192 S465
S0
G1 X212.065 S609
S0
G1 X211.938 S678
S0
G1 X211.811 S636
S0
G1 X211.684 S623
S0
G1 X211.557 S465
S0
G1 X211.430 S550
S0
G1 X211.303 S581
S0
G1 X211.176 S450
S0
G1 X211.049 S406
S0
G1 X210.922 S560
S0
G1 X210.795 S434
S0
G1 X210.668 S414
S0
G1 X210.541 S461
S0
G1 X210.414 S503
S0
G1 X210.287 S537
S0
G1 X210.160 S657
S0
G1 X210.033 S662
S0
G1 X209.906 S611
S0
G1 X209.779 S647
S0
G1 X209.652 S682
S0
G1 X209.525 S619
S0
G1 X209.398 S603
S0
G1 X209.271 S610
S0
G1 X209.144 S630
S0
G1 X209.017 S607
S0
G1 X208.890 S626
S0
G1 X208.763 S678
S0
G1 X208.636 S665
S0
G1 X208.509 S618
S0
G1 X208.382 S509
S0
G1 X208.255 S517
S0
G1 X208.128 S495
S0
G1 X208.001 S474
S0
G1 X207.874 S462
S0
G1 X207.747 S430
S0
G1 X207.620 S447
S0
G1 X207.493 S451
S0
G1 X207.366 S447
S0
G1 X207.239 S498
S0
G1 X207.112 S510
S0
G1 X206.985 S474
S0
G1 X206.858 S488
S0
G1 X206.731 S484
S0
G1 X206.604 S450
S0
G1 X206.477 S528
S0
G1 X206.350 S546
S0
G1 X206.223 S489
S0
G1 X206.096 S496
S0
G1 X205.969 S482
S0
G1 X205.842 S473
S0
G1 X205.715 S485
S0
G1 X205.588 S505
S0
G1 X205.461 S504
S0
G1 X205.334 S497
S0
G1 X205.207 S516
S0
G1 X205.080 S504
S0
G1 X204.953 S488
S0
G1 X204.826 S494
S0
G1 X204.699 S467
S0
G1 X204.572 S482
S0
G1 X204.445 S453
S0
G1 X204.318 S445
S0
G1 X204.191 S453
S0
G1 X204.064 S458
S0
G1 X203.937 S449
S0
G1 X203.810 S422
S0
G1 X203.683 S399
S0
G1 X203.556 S419
S0
G1 X203.302 S406
S0
G1 X203.175 S419
S0
G1 X203.048 S426
S0
G1 X202.921 S442
S0
G1 X202.794 S426
S0
G1 X202.667 S438
S0
G1 X202.540 S422
S0
G1 X202.413 S466
S0
G1 X202.286 S520
S0
G1 X202.159 S442
S0
G1 X202.032 S438
S0
G1 X201.905 S434
S0
G1 X201.778 S414
S0
G1 X201.651 S445
S0
G1 X201.524 S464
S0
G1 X201.397 S478
S0
G1 X201.270 S488
S0
G1 X201.143 S482
S0
G1 X201.016 S533
S0
G1 X200.889 S532
S0
G1 X200.762 S552
S0
G1 X200.635 S589
S0
G1 X200.508 S618
S0
G1 X200.381 S611
S0
G1 X200.254 S600
S0
G1 X200.127 S626
S0
G1 X200.000 S583
S0
G0 Y36.957
G0 X200.000 S0
G1 X200.127 S627
S0
G1 X200.254 S607
S0
G1 X200.381 S621
S0
G1 X200.508 S624
S0
G1 X200.635 S603
S0
G1 X200.762 S555
S0
G1 X200.889 S533
S0
G1 X201.016 S579
S0
G1 X201.143 S547
S0
G1 X201.270 S553
S0
G1 X201.397 S516
S0
G1 X201.524 S480
S0
G1 X201.651 S473
S0
G1 X201.778 S446
S0
G1 X201.905 S395
S0
G1 X202.032 S414
S0
G1 X202.159 S437
S0
G1 X202.286 S478
S0
G1 X202.413 S453
S0
G1 X202.540 S418
S0
G1 X202.667 S410
S0
G1 X202.794 S441
S0
G1 X202.921 S439
S0
G1 X203.048 S417
S0
G1 X203.175 S405
S0
G1 X203.302 S402
S0
G1 X203.429 S395
S0
G1 X203.683 S391
S0
G1 X203.810 S394
S0
G1 X203.937 S410
S0
G1 X204.064 S442
S0
G1 X204.191 S457
S0
G1 X204.318 S443
S0
G1 X204.445 S447
S0
G1 X204.572 S470
S0
G1 X204.699 S457
S0
G1 X204.826 S461
S0
G1 X204.953 S454
S0
G1 X205.080 S489
S0
G1 X205.207 S517
S0
G1 X205.334 S492
S0
G1 X205.461 S457
S0
G1 X205.588 S471
S0
G1 X205.715 S505
S0
G1 X205.969 S493
S0
G1 X206.096 S497
S0
G1 X206.223 S470
S0
G1 X206.350 S458
S0
G1 X206.477 S549
S0
G1 X206.604 S532
S0
G1 X206.731 S476
S0
G1 X206.858 S497
S0
G1 X206.985 S462
S0
G1 X207.112 S493
S0
G1 X207.239 S496
S0
G1 X207.366 S481
S0
G1 X207.493 S430
S0
G1 X207.620 S407
S0
G1 X207.747 S425
S0
G1 X207.874 S441
S0
G1 X208.001 S472
S0
G1 X208.128 S454
S0
G1 X208.255 S419
S0
G1 X208.382 S462
S0
G1 X208.509 S464
S0
G1 X208.636 S486
S0
G1 X208.763 S548
S0
G1 X208.890 S564
S0
G1 X209.017 S502
S0
G1 X209.144 S524
S0
G1 X209.271 S622
S0
G1 X209.398 S490
S0
G1 X209.525 S543
S0
G1 X209.652 S557
S0
G1 X209.779 S516
S0
G1 X209.906 S465
S0
G1 X210.033 S516
S0
G1 X210.160 S556
S0
G1 X210.287 S476
S0
G1 X210.414 S445
S0
G1 X210.541 S472
S0
G1 X210.668 S415
S0
G1 X210.795 S394
S0
G1 X210.922 S418
S0
G1 X211.049 S442
S0
G1 X211.176 S411
S0
G1 X211.303 S490
S0
G1 X211.430 S596
S0
G1 X211.557 S618
S0
G1 X211.684 S627
S0
G1 X211.811 S591
S0
G1 X211.938 S630
S0
G1 X212.065 S619
S0
G1 X212.192 S662
S0
G1 X212.319 S710
S0
G1 X212.446 S553
S0
G1 X212.573 S457
S0
G1 X212.700 S406
S0
G1 X212.827 S398
S0
G1 X212.954 S376
S0
G1 X213.081 S384
S0
G1 X213.208 S423
S0
G1 X213.335 S429
S0
G1 X213.462 S406
S0
G1 X213.589 S374
S0
G1 X213.716 S398
S0
G1 X213.843 S422
S0
G1 X213.970 S410
S0
G1 X214.097 S433
S0
G1 X214.224 S441
S0
G1 X214.351 S414
S0
G1 X214.478 S394
S0
G1 X214.605 S411
S0
G1 X214.732 S427
S0
G1 X214.859 S422
S0
G1 X214.986 S363
S0
G1 X215.113 S351
S0
G1 X215.240 S533
S0
G1 X215.367 S663
S0
G1 X215.494 S577
S0
G1 X215.621 S592
S0
G1 X215.748 S553
S0
G1 X215.875 S496
S0
G1 X216.002 S442
S0
G1 X216.129 S425
S0
G1 X216.256 S433
S0
G1 X216.383 S390
S0
G1 X216.510 S411
S0
G1 X216.637 S406
S0
G1 X216.764 S454
S0
G1 X216.891 S587
S0
G1 X217.018 S506
S0
G1 X217.145 S527
S0
G1 X217.272 S559
S0
G1 X217.399 S572
S0
G1 X217.526 S422
S0
G1 X217.653 S418
S0
G1 X217.780 S460
S0
G1 X217.907 S399
S0
G1 X218.034 S450
S0
G1 X218.161 S395
S0
G1 X218.288 S350
S0
G1 X218.415 S368
S0
G1 X218.542 S367
S0
G1 X218.669 S375
S0
G1 X218.796 S379
S0
G1 X218.923 S343
S0
G1 X219.050 S367
S0
G1 X219.177 S441
S0
G1 X219.304 S457
S0
G1 X219.431 S360
S0
G1 X219.558 S418
S0
G1 X219.685 S438
S0
G1 X219.812 S430
S0
G1 X219.939 S461
S0
G1 X220.066 S406
S0
G1 X220.193 S477
S0
G1 X220.320 S426
S0
G1 X220.447 S419
S0
G1 X220.574 S453
S0
G1 X220.701 S383
S0
G1 X220.828 S449
S0
G1 X220.955 S615
S0
G1 X221.082 S600
S0
G1 X221.209 S563
S0
G1 X221.336 S496
S0
G1 X221.463 S500
S0
G1 X221.590 S446
S0
G1 X221.717 S486
S0
G1 X221.844 S523
S0
G1 X221.971 S481
S0
G1 X222.098 S407
S0
G1 X222.225 S426
S0
G1 X222.352 S585
S0
G1 X222.479 S481
S0
G1 X222.606 S472
S0
G1 X222.733 S442
S0
G1 X222.860 S493
S0
G1 X222.987 S470
S0
G1 X223.114 S405
S0
G1 X223.241 S505
S0
G1 X223.368 S441
S0
G1 X223.495 S434
S0
G1 X223.622 S506
S0
G1 X223.749 S594
S0
G1 X223.876 S453
S0
G1 X224.003 S458
S0
G1 X224.130 S497
S0
G1 X224.257 S425
S0
G1 X224.384 S426
S0
G1 X224.511 S489
S0
G1 X224.638 S461
S0
G1 X224.765 S521
S0
G1 X224.892 S367
S0
G1 X225.019 S441
S0
G1 X225.146 S455
S0
G1 X225.273 S586
S0
G1 X225.400 S574
S0
G1 X225.527 S447
S0
G1 X225.654 S515
S0
G1 X225.781 S484
S0
G1 X225.908 S389
S0
G1 X226.035 S423
S0
G1 X226.162 S540
S0
G1 X226.289 S500
S0
G1 X226.416 S425
S0
G1 X226.543 S462
S0
G1 X226.670 S474
S0
G1 X226.797 S426
S0
G1 X227.051 S489
S0
G1 X227.178 S536
S0
G1 X227.305 S591
S0
G1 X227.432 S536
S0
G1 X227.559 S592
S0
G1 X227.686 S578
S0
G1 X227.813 S481
S0
G1 X227.940 S521
S0
G1 X228.067 S661
S0
G1 X228.194 S583
S0
G1 X228.321 S560
S0
G1 X228.448 S563
S0
G1 X228.575 S474
S0
G1 X228.702 S527
S0
G1 X228.829 S551
S0
G1 X228.956 S541
S0
G1 X229.083 S643
S0
G1 X229.210 S569
S0
G1 X229.337 S501
S0
G1 X229.464 S559
S0
G1 X229.591 S525
S0
G1 X229.718 S553
S0
G1 X229.845 S595
S0
G1 X229.972 S635
S0
G1 X230.099 S626
S0
G1 X230.226 S511
S0
G1 X230.353 S568
S0
G1 X230.480 S455
S0
G1 X230.607 S430
S0
G1 X230.734 S500
S0
G1 X230.861 S486
S0
G1 X230.988 S473
S0
G1 X231.115 S437
S0
G1 X231.242 S451
S0
G1 X231.369 S388
S0
G1 X231.496 S434
S0
G1 X231.623 S430
S0
G1 X231.750 S434
S0
G1 X231.877 S344
S0
G1 X232.004 S425
S0
G1 X232.131 S378
S0
G1 X232.258 S391
S0
G1 X232.385 S453
S0
G1 X232.512 S434
S0
G1 X232.639 S413
S0
G1 X232.766 S490
S0
G1 X232.893 S501
S0
G1 X233.020 S421
S0
G1 X233.147 S413
S0
G1 X233.274 S402
S0
G1 X233.401 S394
S0
G1 X233.528 S419
S0
G1 X233.655 S390
S0
G1 X233.782 S387
S0
G1 X233.909 S431
S0
G1 X234.163 S426
S0
G1 X234.290 S422
S0
G1 X234.417 S402
S0
G1 X234.544 S401
S0
G1 X234.671 S410
S0
G1 X234.798 S402
S0
G1 X234.925 S430
S0
G1 X235.052 S410
S0
G1 X235.179 S379
S0
G1 X235.306 S430
S0
G1 X235.433 S419
S0
G1 X235.560 S450
S0
G1 X235.687 S474
S0
G1 X235.814 S375
S0
G1 X235.941 S367
S0
G1 X236.068 S443
S0
G1 X236.195 S417
S0
G1 X236.322 S449
S0
G1 X236.449 S465
S0
G1 X236.576 S536
S0
G1 X236.703 S524
S0
G1 X236.830 S560
S0
G1 X236.957 S570
S0
G1 X237.084 S587
S0
G1 X237.211 S633
S0
G1 X237.338 S558
S0
G1 X237.465 S594
S0
G1 X237.592 S659
S0
G1 X237.719 S701
S0
G1 X237.846 S606
S0
G1 X237.973 S532
S0
G1 X238.100 S525
S0
G1 X238.227 S633
S0
G1 X238.354 S520
S0
G1 X238.481 S413
S0
G1 X238.608 S386
S0
G1 X238.735 S366
S0
G1 X238.862 S415
S0
G1 X238.989 S421
S0
G1 X239.116 S410
S0
G1 X239.243 S403
S0
G1 X239.370 S390
S0
G1 X239.497 S379
S0
G1 X239.624 S423
S0
G1 X239.751 S398
S0
G1 X240.005 S374
S0
G1 X240.132 S366
S0
G1 X240.259 S378
S0
G1 X240.386 S387
S0
G1 X240.513 S382
S0
G1 X240.640 S378
S0
G1 X240.767 S399
S0
G1 X240.894 S372
S0
G1 X241.021 S355
S0
G1 X241.148 S387
S0
G1 X241.275 S382
S0
G1 X241.402 S367
S0
G1 X241.529 S363
S0
G1 X241.656 S372
S0
G1 X241.783 S399
S0
G1 X241.910 S391
S0
G1 X242.037 S382
S0
G1 X242.164 S410
S0
G1 X242.291 S398
S0
G1 X242.545 S363
S0
G1 X242.672 S404
S0
G1 X242.926 S417
S0
G1 X243.053 S430
S0
G1 X243.180 S422
S0
G1 X243.307 S430
S0
G1 X243.434 S422
S0
G1 X243.561 S378
S0
G1 X243.688 S363
S0
G1 X243.815 S380
S0
G1 X243.942 S382
S0
G1 X244.069 S395
S0
G1 X244.196 S387
S0
G1 X244.577 S406
S0
G1 X244.704 S394
S0
G1 X244.831 S430
S0
G1 X244.958 S449
S0
G1 X245.085 S441
S0
G1 X245.212 S505
S0
G1 X245.339 S477
S0
G1 X245.466 S412
S0
G1 X245.593 S417
S0
G1 X245.720 S383
S0
G1 X245.847 S399
S0
G1 X245.974 S402
S0
G1 X246.101 S395
S0
G1 X246.228 S426
S0
G1 X246.355 S408
S0
G1 X246.482 S403
S0
G1 X246.609 S421
S0
G1 X246.736 S414
S0
G1 X246.863 S407
S0
G1 X246.990 S426
S0
G1 X247.117 S439
S0
G1 X247.244 S425
S0
G1 X247.371 S434
S0
G1 X247.498 S486
S0
G1 X247.625 S524
S0
G1 X247.752 S496
S0
G1 X247.879 S514
S0
G1 X248.006 S504
S0
G1 X248.133 S494
S0
G1 X248.260 S485
S0
G1 X248.387 S484
S0
G1 X248.514 S458
S0
G1 X248.641 S512
S0
G1 X248.768 S549
S0
G1 X248.895 S507
S0
G1 X249.022 S466
S0
G1 X249.149 S480
S0
G1 X249.276 S458
S0
G1 X249.403 S507
S0
G1 X249.530 S532
S0
G1 X249.657 S509
S0
G1 X249.784 S492
S0
G1 X249.911 S485
S0
G1 X250.038 S494
S0
G0 Y36.830
G0 X250.038 S0
G1 X249.911 S490
S0
G1 X249.784 S475
S0
G1 X249.657 S469
S0
G1 X249.530 S472
S0
G1 X249.403 S458
S0
G1 X249.276 S469
S0
G1 X249.149 S457
S0
G1 X249.022 S447
S0
G1 X248.895 S434
S0
G1 X248.768 S494
S0
G1 X248.641 S509
S0
G1 X248.514 S494
S0
G1 X248.387 S477
S0
G1 X248.260 S474
S0
G1 X248.133 S449
S0
G1 X248.006 S441
S0
G1 X247.879 S512
S0
G1 X247.752 S449
S0
G1 X247.625 S430
S0
G1 X247.498 S470
S0
G1 X247.371 S403
S0
G1 X247.244 S394
S0
G1 X247.117 S401
S0
G1 X246.990 S402
S0
G1 X246.863 S398
S0
G1 X246.736 S364
S0
G1 X246.609 S385
S0
G1 X246.482 S394
S0
G1 X246.355 S406
S0
G1 X246.228 S418
S0
G1 X246.101 S412
S0
G1 X245.974 S387
S0
G1 X245.847 S410
S0
G1 X245.720 S414
S0
G1 X245.593 S403
S0
G1 X245.466 S422
S0
G1 X245.339 S425
S0
G1 X245.212 S464
S0
G1 X245.085 S524
S0
G1 X244.958 S481
S0
G1 X244.831 S489
S0
G1 X244.704 S482
S0
G1 X244.577 S415
S0
G1 X244.450 S387
S0
G1 X244.323 S399
S0
G1 X244.196 S386
S0
G1 X244.069 S374
S0
G1 X243.942 S371
S0
G1 X243.815 S384
S0
G1 X243.688 S387
S0
G1 X243.561 S395
S0
G1 X243.434 S399
S0
G1 X243.307 S406
S0
G1 X243.180 S390
S0
G1 X243.053 S370
S0
G1 X242.926 S375
S0
G1 X242.799 S399
S0
G1 X242.672 S414
S0
G1 X242.545 S407
S0
G1 X242.418 S383
S0
G1 X242.291 S394
S0
G1 X242.164 S391
S0
G1 X242.037 S378
S0
G1 X241.910 S375
S0
G1 X241.783 S351
S0
G1 X241.656 S394
S0
G1 X241.529 S351
S0
G1 X241.402 S335
S0
G1 X241.275 S359
S0
G1 X241.148 S352
S0
G1 X241.021 S362
S0
G1 X240.894 S355
S0
G1 X240.767 S367
S0
G1 X240.640 S372
S0
G1 X240.513 S383
S0
G1 X240.259 S391
S0
G1 X240.132 S383
S0
G1 X240.005 S403
S0
G1 X239.878 S380
S0
G1 X239.751 S371
S0
G1 X239.624 S394
S0
G1 X239.497 S382
S0
G1 X239.370 S368
S0
G1 X239.243 S391
S0
G1 X239.116 S422
S0
G1 X238.989 S434
S0
G1 X238.862 S422
S0
G1 X238.735 S395
S0
G1 X238.608 S383
S0
G1 X238.481 S429
S0
G1 X238.354 S426
S0
G1 X238.227 S403
S0
G1 X238.100 S434
S0
G1 X237.973 S461
S0
G1 X237.846 S500
S0
G1 X237.719 S443
S0
G1 X237.592 S521
S0
G1 X237.465 S555
S0
G1 X237.338 S506
S0
G1 X237.211 S551
S0
G1 X237.084 S634
S0
G1 X236.957 S545
S0
G1 X236.830 S488
S0
G1 X236.703 S478
S0
G1 X236.576 S434
S0
G1 X236.449 S418
S0
G1 X236.322 S410
S0
G1 X236.195 S403
S0
G1 X236.068 S407
S0
G1 X235.941 S391
S0
G1 X235.814 S422
S0
G1 X235.687 S426
S0
G1 X235.560 S418
S0
G1 X235.433 S430
S0
G1 X235.306 S438
S0
G1 X235.179 S410
S0
G1 X235.052 S399
S0
G1 X234.925 S438
S0
G1 X234.798 S415
S0
G1 X234.671 S425
S0
G1 X234.544 S441
S0
G1 X234.417 S389
S0
G1 X234.290 S367
S0
G1 X234.163 S368
S0
G1 X234.036 S407
S0
G1 X233.909 S395
S0
G1 X233.782 S422
S0
G1 X233.655 S391
S0
G1 X233.528 S418
S0
G1 X233.401 S417
S0
G1 X233.274 S441
S0
G1 X233.147 S415
S0
G1 X233.020 S401
S0
G1 X232.893 S381
S0
G1 X232.766 S413
S0
G1 X232.639 S412
S0
G1 X232.512 S383
S0
G1 X232.385 S419
S0
G1 X232.258 S422
S0
G1 X232.131 S438
S0
G1 X232.004 S415
S0
G1 X231.877 S387
S0
G1 X231.750 S406
S0
G1 X231.623 S422
S0
G1 X231.496 S414
S0
G1 X231.369 S465
S0
G1 X231.242 S346
S0
G1 X231.115 S382
S0
G1 X230.988 S427
S0
G1 X230.861 S457
S0
G1 X230.734 S522
S0
G1 X230.607 S497
S0
G1 X230.480 S454
S0
G1 X230.353 S418
S0
G1 X230.226 S550
S0
G1 X230.099 S540
S0
G1 X229.972 S606
S0
G1 X229.845 S639
S0
G1 X229.718 S594
S0
G1 X229.591 S575
S0
G1 X229.464 S578
S0
G1 X229.337 S624
S0
G1 X229.210 S603
S0
G1 X229.083 S539
S0
G1 X228.956 S545
S0
G1 X228.702 S560
S0
G1 X228.575 S508
S0
G1 X228.448 S523
S0
G1 X228.321 S528
S0
G1 X228.194 S502
S0
G1 X228.067 S529
S0
G1 X227.940 S521
S0
G1 X227.813 S508
S0
G1 X227.686 S540
S0
G1 X227.559 S498
S0
G1 X227.432 S568
S0
G1 X227.305 S573
S0
G1 X227.178 S493
S0
G1 X227.051 S517
S0
G1 X226.924 S516
S0
G1 X226.797 S485
S0
G1 X226.670 S449
S0
G1 X226.543 S504
S0
G1 X226.416 S460
S0
G1 X226.289 S455
S0
G1 X226.162 S464
S0
G1 X226.035 S505
S0
G1 X225.908 S414
S0
G1 X225.781 S406
S0
G1 X225.654 S462
S0
G1 X225.527 S501
S0
G1 X225.400 S482
S0
G1 X225.273 S442
S0
G1 X225.146 S390
S0
G1 X225.019 S391
S0
G1 X224.892 S422
S0
G1 X224.765 S399
S0
G1 X224.638 S415
S0
G1 X224.511 S446
S0
G1 X224.384 S425
S0
G1 X224.257 S391
S0
G1 X224.130 S413
S0
G1 X224.003 S505
S0
G1 X223.876 S452
S0
G1 X223.749 S410
S0
G1 X223.622 S504
S0
G1 X223.495 S453
S0
G1 X223.368 S500
S0
G1 X223.241 S457
S0
G1 X223.114 S384
S0
G1 X222.987 S375
S0
G1 X222.860 S415
S0
G1 X222.733 S382
S0
G1 X222.606 S410
S0
G1 X222.479 S414
S0
G1 X222.352 S533
S0
G1 X222.225 S555
S0
G1 X222.098 S351
S0
G1 X221.971 S398
S0
G1 X221.844 S445
S0
G1 X221.717 S554
S0
G1 X221.590 S462
S0
G1 X221.463 S454
S0
G1 X221.336 S450
S0
G1 X221.209 S486
S0
G1 X221.082 S527
S0
G1 X220.955 S493
S0
G1 X220.828 S639
S0
G1 X220.701 S486
S0
G1 X220.574 S454
S0
G1 X220.447 S465
S0
G1 X220.320 S379
S0
G1 X220.193 S394
S0
G1 X220.066 S356
S0
G1 X219.939 S455
S0
G1 X219.812 S434
S0
G1 X219.685 S375
S0
G1 X219.558 S367
S0
G1 X219.431 S372
S0
G1 X219.304 S394
S0
G1 X219.177 S376
S0
G1 X219.050 S411
S0
G1 X218.923 S391
S0
G1 X218.796 S372
S0
G1 X218.669 S374
S0
G1 X218.542 S388
S0
G1 X218.415 S382
S0
G1 X218.288 S344
S0
G1 X218.161 S332
S0
G1 X218.034 S386
S0
G1 X217.907 S430
S0
G1 X217.780 S400
S0
G1 X217.653 S403
S0
G1 X217.526 S410
S0
G1 X217.399 S405
S0
G1 X217.272 S623
S0
G1 X217.145 S599
S0
G1 X217.018 S545
S0
G1 X216.891 S532
S0
G1 X216.764 S583
S0
G1 X216.637 S453
S0
G1 X216.510 S356
S0
G1 X216.383 S411
S0
G1 X216.256 S379
S0
G1 X216.129 S403
S0
G1 X216.002 S360
S0
G1 X215.875 S430
S0
G1 X215.748 S478
S0
G1 X215.621 S486
S0
G1 X215.494 S568
S0
G1 X215.367 S596
S0
G1 X215.240 S623
S0
G1 X215.113 S629
S0
G1 X214.986 S446
S0
G1 X214.859 S363
S0
G1 X214.732 S366
S0
G1 X214.605 S351
S0
G1 X214.478 S348
S0
G1 X214.351 S398
S0
G1 X214.224 S423
S0
G1 X214.097 S434
S0
G1 X213.970 S439
S0
G1 X213.843 S431
S0
G1 X213.716 S426
S0
G1 X213.589 S408
S0
G1 X213.462 S411
S0
G1 X213.335 S457
S0
G1 X213.208 S442
S0
G1 X213.081 S390
S0
G1 X212.954 S462
S0
G1 X212.827 S454
S0
G1 X212.700 S555
S0
G1 X212.573 S572
S0
G1 X212.446 S588
S0
G1 X212.319 S558
S0
G1 X212.192 S585
S0
G1 X212.065 S566
S0
G1 X211.938 S605
S0
G1 X211.811 S604
S0
G1 X211.684 S596
S0
G1 X211.557 S559
S0
G1 X211.430 S505
S0
G1 X211.303 S547
S0
G1 X211.176 S445
S0
G1 X211.049 S407
S0
G1 X210.922 S431
S0
G1 X210.795 S422
S0
G1 X210.668 S423
S0
G1 X210.541 S399
S0
G1 X210.414 S407
S0
G1 X210.287 S387
S0
G1 X210.160 S410
S0
G1 X210.033 S445
S0
G1 X209.906 S443
S0
G1 X209.779 S426
S0
G1 X209.652 S433
S0
G1 X209.525 S451
S0
G1 X209.398 S457
S0
G1 X209.271 S419
S0
G1 X209.144 S488
S0
G1 X209.017 S498
S0
G1 X208.890 S450
S0
G1 X208.763 S422
S0
G1 X208.636 S458
S0
G1 X208.509 S442
S0
G1 X208.382 S445
S0
G1 X208.255 S461
S0
G1 X208.128 S430
S0
G1 X208.001 S445
S0
G1 X207.874 S414
S0
G1 X207.747 S433
S0
G1 X207.620 S434
S0
G1 X207.493 S438
S0
G1 X207.366 S426
S0
G1 X207.239 S418
S0
G1 X207.112 S447
S0
G1 X206.985 S484
S0
G1 X206.858 S458
S0
G1 X206.731 S496
S0
G1 X206.604 S492
S0
G1 X206.477 S446
S0
G1 X206.350 S438
S0
G1 X206.223 S478
S0
G1 X206.096 S457
S0
G1 X205.969 S473
S0
G1 X205.842 S489
S0
G1 X205.715 S497
S0
G1 X205.588 S489
S0
G1 X205.461 S474
S0
G1 X205.334 S450
S0
G1 X205.207 S490
S0
G1 X205.080 S473
S0
G1 X204.953 S480
S0
G1 X204.826 S446
S0
G1 X204.699 S425
S0
G1 X204.572 S451
S0
G1 X204.445 S418
S0
G1 X204.318 S423
S0
G1 X204.191 S413
S0
G1 X204.064 S435
S0
G1 X203.937 S426
S0
G1 X203.810 S390
S0
G1 X203.683 S394
S0
G1 X203.556 S378
S0
G1 X203.429 S413
S0
G1 X203.302 S418
S0
G1 X203.175 S399
S0
G1 X203.048 S398
S0
G1 X202.921 S402
S0
G1 X202.794 S442
S0
G1 X202.667 S445
S0
G1 X202.540 S421
S0
G1 X202.413 S445
S0
G1 X202.286 S438
S0
G1 X202.159 S449
S0
G1 X202.032 S452
S0
G1 X201.905 S438
S0
G1 X201.778 S445
S0
G1 X201.651 S457
S0
G1 X201.524 S454
S0
G1 X201.397 S449
S0
G1 X201.270 S490
S0
G1 X201.143 S506
S0
G1 X201.016 S422
S0
G1 X200.889 S509
S0
G1 X200.762 S590
S0
G1 X200.635 S594
S0
G1 X200.508 S631
S0
G1 X200.381 S624
S0
G1 X200.254 S630
S0
G1 X200.127 S606
S0
G1 X200.000 S607
S0
G0 Y36.703
G0 X200.000 S0
G1 X200.127 S633
S0
G1 X200.254 S631
S0
G1 X200.381 S595
S0
G1 X200.508 S604
S0
G1 X200.635 S598
S0
G1 X200.762 S594
S0
G1 X200.889 S598
S0
G1 X201.016 S497
S0
G1 X201.143 S467
S0
G1 X201.270 S531
S0
G1 X201.397 S466
S0
G1 X201.524 S402
S0
G1 X201.651 S408
S0
G1 X201.778 S485
S0
G1 X201.905 S457
S0
G1 X202.032 S437
S0
G1 X202.159 S441
S0
G1 X202.286 S423
S0
G1 X202.413 S443
S0
G1 X202.540 S454
S0
G1 X202.667 S438
S0
G1 X202.794 S427
S0
G1 X202.921 S408
S0
G1 X203.048 S415
S0
G1 X203.175 S411
S0
G1 X203.302 S399
S0
G1 X203.429 S423
S0
G1 X203.556 S398
S0
G1 X203.683 S352
S0
G1 X203.810 S378
S0
G1 X203.937 S392
S0
G1 X204.064 S406
S0
G1 X204.191 S446
S0
G1 X204.318 S431
S0
G1 X204.445 S410
S0
G1 X204.572 S407
S0
G1 X204.699 S430
S0
G1 X204.826 S415
S0
G1 X205.080 S465
S0
G1 X205.207 S466
S0
G1 X205.334 S454
S0
G1 X205.461 S446
S0
G1 X205.715 S465
S0
G1 X205.842 S486
S0
G1 X205.969 S482
S0
G1 X206.096 S465
S0
G1 X206.223 S462
S0
G1 X206.350 S466
S0
G1 X206.477 S442
S0
G1 X206.604 S390
S0
G1 X206.731 S438
S0
G1 X206.858 S458
S0
G1 X206.985 S419
S0
G1 X207.112 S414
S0
G1 X207.239 S437
S0
G1 X207.366 S430
S0
G1 X207.493 S403
S0
G1 X207.620 S422
S0
G1 X207.747 S447
S0
G1 X207.874 S408
S0
G1 X208.001 S403
S0
G1 X208.128 S423
S0
G1 X208.255 S461
S0
G1 X208.382 S449
S0
G1 X208.509 S443
S0
G1 X208.636 S439
S0
G1 X208.763 S417
S0
G1 X208.890 S418
S0
G1 X209.017 S415
S0
G1 X209.144 S442
S0
G1 X209.271 S427
S0
G1 X209.398 S430
S0
G1 X209.525 S427
S0
G1 X209.652 S411
S0
G1 X209.779 S422
S0
G1 X209.906 S457
S0
G1 X210.033 S438
S0
G1 X210.160 S458
S0
G1 X210.287 S442
S0
G1 X210.414 S414
S0
G1 X210.541 S422
S0
G1 X210.668 S425
S0
G1 X210.795 S402
S0
G1 X210.922 S385
S0
G1 X211.049 S430
S0
G1 X211.176 S426
S0
G1 X211.303 S410
S0
G1 X211.430 S470
S0
G1 X211.557 S431
S0
G1 X211.684 S540
S0
G1 X211.811 S592
S0
G1 X211.938 S552
S0
G1 X212.065 S599
S0
G1 X212.192 S576
S0
G1 X212.319 S575
S0
G1 X212.446 S560
S0
G1 X212.573 S489
S0
G1 X212.700 S653
S0
G1 X212.827 S670
S0
G1 X212.954 S602
S0
G1 X213.081 S645
S0
G1 X213.208 S545
S0
G1 X213.335 S461
S0
G1 X213.462 S438
S0
G1 X213.589 S400
S0
G1 X213.716 S390
S0
G1 X213.843 S402
S0
G1 X213.970 S374
S0
G1 X214.097 S414
S0
G1 X214.224 S423
S0
G1 X214.351 S374
S0
G1 X214.478 S390
S0
G1 X214.605 S449
S0
G1 X214.732 S504
S0
G1 X214.859 S461
S0
G1 X214.986 S557
S0
G1 X215.113 S655
S0
G1 X215.240 S542
S0
G1 X215.367 S589
S0
G1 X215.494 S564
S0
G1 X215.621 S508
S0
G1 X215.748 S462
S0
G1 X215.875 S418
S0
G1 X216.002 S406
S0
G1 X216.129 S374
S0
G1 X216.256 S367
S0
G1 X216.383 S383
S0
G1 X216.510 S340
S0
G1 X216.637 S370
S0
G1 X216.764 S387
S0
G1 X216.891 S575
S0
G1 X217.018 S505
S0
G1 X217.145 S481
S0
G1 X217.272 S622
S0
G1 X217.399 S544
S0
G1 X217.526 S415
S0
G1 X217.653 S437
S0
G1 X217.780 S429
S0
G1 X217.907 S385
S0
G1 X218.034 S371
S0
G1 X218.161 S386
S0
G1 X218.288 S358
S0
G1 X218.415 S316
S0
G1 X218.542 S342
S0
G1 X218.669 S356
S0
G1 X218.796 S364
S0
G1 X218.923 S379
S0
G1 X219.050 S403
S0
G1 X219.177 S383
S0
G1 X219.304 S375
S0
G1 X219.431 S383
S0
G1 X219.558 S378
S0
G1 X219.685 S375
S0
G1 X219.812 S355
S0
G1 X219.939 S383
S0
G1 X220.066 S386
S0
G1 X220.193 S451
S0
G1 X220.320 S545
S0
G1 X220.447 S401
S0
G1 X220.574 S441
S0
G1 X220.701 S517
S0
G1 X220.828 S477
S0
G1 X220.955 S600
S0
G1 X221.082 S464
S0
G1 X221.209 S450
S0
G1 X221.336 S571
S0
G1 X221.463 S521
S0
G1 X221.590 S446
S0
G1 X221.717 S407
S0
G1 X221.844 S502
S0
G1 X221.971 S433
S0
G1 X222.098 S374
S0
G1 X222.225 S402
S0
G1 X222.352 S506
S0
G1 X222.479 S537
S0
G1 X222.606 S429
S0
G1 X222.733 S442
S0
G1 X222.860 S406
S0
G1 X222.987 S378
S0
G1 X223.114 S374
S0
G1 X223.241 S391
S0
G1 X223.368 S414
S0
G1 X223.495 S453
S0
G1 X223.622 S474
S0
G1 X223.749 S443
S0
G1 X223.876 S442
S0
G1 X224.003 S418
S0
G1 X224.130 S395
S0
G1 X224.257 S347
S0
G1 X224.384 S383
S0
G1 X224.511 S394
S0
G1 X224.638 S323
S0
G1 X224.765 S354
S0
G1 X224.892 S466
S0
G1 X225.019 S461
S0
G1 X225.146 S343
S0
G1 X225.273 S402
S0
G1 X225.400 S419
S0
G1 X225.527 S411
S0
G1 X225.654 S489
S0
G1 X225.781 S409
S0
G1 X225.908 S414
S0
G1 X226.162 S449
S0
G1 X226.289 S421
S0
G1 X226.416 S422
S0
G1 X226.543 S425
S0
G1 X226.670 S427
S0
G1 X226.797 S423
S0
G1 X226.924 S454
S0
G1 X227.051 S463
S0
G1 X227.178 S505
S0
G1 X227.305 S504
S0
G1 X227.432 S466
S0
G1 X227.559 S476
S0
G1 X227.686 S520
S0
G1 X227.813 S403
S0
G1 X227.940 S477
S0
G1 X228.067 S537
S0
G1 X228.194 S442
S0
G1 X228.321 S394
S0
G1 X228.448 S387
S0
G1 X228.575 S524
S0
G1 X228.702 S526
S0
G1 X228.829 S527
S0
G1 X228.956 S553
S0
G1 X229.083 S450
S0
G1 X229.210 S485
S0
G1 X229.337 S661
S0
G1 X229.464 S654
S0
G1 X229.591 S619
S0
G1 X229.718 S548
S0
G1 X229.845 S575
S0
G1 X229.972 S622
S0
G1 X230.099 S572
S0
G1 X230.226 S607
S0
G1 X230.353 S596
S0
G1 X230.480 S478
S0
G1 X230.607 S486
S0
G1 X230.734 S504
S0
G1 X230.861 S462
S0
G1 X230.988 S472
S0
G1 X231.115 S434
S0
G1 X231.242 S398
S0
G1 X231.369 S352
S0
G1 X231.496 S405
S0
G1 X231.623 S439
S0
G1 X231.750 S379
S0
G1 X231.877 S426
S0
G1 X232.004 S447
S0
G1 X232.131 S423
S0
G1 X232.258 S379
S0
G1 X232.385 S374
S0
G1 X232.512 S407
S0
G1 X232.639 S376
S0
G1 X232.766 S383
S0
G1 X232.893 S368
S0
G1 X233.020 S382
S0
G1 X233.147 S410
S0
G1 X233.274 S430
S0
G1 X233.401 S468
S0
G1 X233.528 S443
S0
G1 X233.655 S408
S0
G1 X233.782 S423
S0
G1 X233.909 S407
S0
G1 X234.036 S417
S0
G1 X234.163 S429
S0
G1 X234.290 S396
S0
G1 X234.417 S378
S0
G1 X234.544 S394
S0
G1 X234.671 S450
S0
G1 X234.798 S438
S0
G1 X234.925 S421
S0
G1 X235.052 S426
S0
G1 X235.179 S435
S0
G1 X235.306 S418
S0
G1 X235.433 S403
S0
G1 X235.560 S425
S0
G1 X235.814 S408
S0
G1 X235.941 S437
S0
G1 X236.068 S396
S0
G1 X236.195 S391
S0
G1 X236.322 S402
S0
G1 X236.449 S375
S0
G1 X236.576 S333
S0
G1 X236.703 S430
S0
G1 X236.830 S421
S0
G1 X236.957 S417
S0
G1 X237.084 S429
S0
G1 X237.211 S454
S0
G1 X237.338 S439
S0
G1 X237.465 S493
S0
G1 X237.592 S492
S0
G1 X237.719 S411
S0
G1 X237.846 S388
S0
G1 X237.973 S415
S0
G1 X238.100 S402
S0
G1 X238.227 S383
S0
G1 X238.354 S398
S0
G1 X238.481 S396
S0
G1 X238.608 S415
S0
G1 X238.735 S418
S0
G1 X238.862 S375
S0
G1 X238.989 S370
S0
G1 X239.116 S399
S0
G1 X239.243 S405
S0
G1 X239.370 S390
S0
G1 X239.497 S383
S0
G1 X239.624 S387
S0
G1 X239.751 S362
S0
G1 X239.878 S366
S0
G1 X240.005 S384
S0
G1 X240.132 S387
S0
G1 X240.259 S386
S0
G1 X240.386 S375
S0
G1 X240.513 S382
S0
G1 X240.640 S374
S0
G1 X240.767 S381
S0
G1 X240.894 S386
S0
G1 X241.021 S381
S0
G1 X241.148 S356
S0
G1 X241.275 S355
S0
G1 X241.402 S359
S0
G1 X241.529 S356
S0
G1 X241.656 S358
S0
G1 X241.783 S364
S0
G1 X241.910 S344
S0
G1 X242.037 S360
S0
G1 X242.164 S382
S0
G1 X242.291 S390
S0
G1 X242.418 S383
S0
G1 X242.545 S387
S0
G1 X242.672 S384
S0
G1 X242.799 S362
S0
G1 X242.926 S376
S0
G1 X243.053 S389
S0
G1 X243.180 S356
S0
G1 X243.307 S329
S0
G1 X243.434 S371
S0
G1 X243.561 S400
S0
G1 X243.688 S413
S0
G1 X243.815 S451
S0
G1 X243.942 S415
S0
G1 X244.069 S411
S0
G1 X244.196 S413
S0
G1 X244.323 S401
S0
G1 X244.450 S398
S0
G1 X244.577 S426
S0
G1 X244.704 S441
S0
G1 X244.831 S488
S0
G1 X244.958 S477
S0
G1 X245.085 S489
S0
G1 X245.212 S471
S0
G1 X245.339 S464
S0
G1 X245.466 S434
S0
G1 X245.593 S396
S0
G1 X245.720 S401
S0
G1 X245.847 S425
S0
G1 X245.974 S390
S0
G1 X246.101 S363
S0
G1 X246.228 S388
S0
G1 X246.355 S407
S0
G1 X246.482 S375
S0
G1 X246.609 S358
S0
G1 X246.736 S368
S0
G1 X246.863 S348
S0
G1 X246.990 S375
S0
G1 X247.117 S382
S0
G1 X247.244 S406
S0
G1 X247.371 S367
S0
G1 X247.498 S382
S0
G1 X247.625 S409
S0
G1 X247.752 S391
S0
G1 X247.879 S407
S0
G1 X248.006 S423
S0
G1 X248.133 S421
S0
G1 X248.260 S425
S0
G1 X248.387 S450
S0
G1 X248.514 S462
S0
G1 X248.641 S430
S0
G1 X248.768 S446
S0
G1 X248.895 S458
S0
G1 X249.149 S446
S0
G1 X249.276 S445
S0
G1 X249.403 S465
S0
G1 X249.530 S434
S0
G1 X249.657 S445
S0
G1 X249.784 S478
S0
G1 X249.911 S454
S0
G1 X250.038 S441
S0
G0 Y36.576
G0 X250.038 S0
G1 X249.911 S458
S0
G1 X249.784 S442
S0
G1 X249.657 S437
S0
G1 X249.530 S445
S0
G1 X249.403 S434
S0
G1 X249.276 S442
S0
G1 X249.149 S458
S0
G1 X249.022 S445
S0
G1 X248.895 S422
S0
G1 X248.768 S418
S0
G1 X248.641 S433
S0
G1 X248.514 S438
S0
G1 X248.387 S431
S0
G1 X248.260 S434
S0
G1 X248.133 S446
S0
G1 X248.006 S433
S0
G1 X247.879 S387
S0
G1 X247.752 S415
S0
G1 X247.625 S402
S0
G1 X247.498 S411
S0
G1 X247.371 S382
S0
G1 X247.244 S368
S0
G1 X247.117 S379
S0
G1 X246.990 S358
S0
G1 X246.863 S333
S0
G1 X246.736 S351
S0
G1 X246.609 S366
S0
G1 X246.482 S348
S0
G1 X246.355 S358
S0
G1 X246.228 S374
S0
G1 X246.101 S355
S0
G1 X245.974 S376
S0
G1 X245.847 S382
S0
G1 X245.720 S370
S0
G1 X245.593 S379
S0
G1 X245.466 S370
S0
G1 X245.339 S383
S0
G1 X245.212 S447
S0
G1 X245.085 S418
S0
G1 X244.958 S430
S0
G1 X244.831 S466
S0
G1 X244.704 S454
S0
G1 X244.577 S494
S0
G1 X244.450 S473
S0
G1 X244.323 S418
S0
G1 X244.196 S405
S0
G1 X244.069 S457
S0
G1 X243.942 S502
S0
G1 X243.815 S508
S0
G1 X243.688 S434
S0
G1 X243.561 S430
S0
G1 X243.434 S472
S0
G1 X243.307 S449
S0
G1 X243.180 S376
S0
G1 X243.053 S368
S0
G1 X242.926 S372
S0
G1 X242.799 S366
S0
G1 X242.672 S347
S0
G1 X242.545 S362
S0
G1 X242.418 S351
S0
G1 X242.291 S363
S0
G1 X242.164 S419
S0
G1 X242.037 S411
S0
G1 X241.910 S351
S0
G1 X241.783 S356
S0
G1 X241.656 S355
S0
G1 X241.529 S386
S0
G1 X241.402 S362
S0
G1 X241.275 S359
S0
G1 X241.148 S356
S0
G1 X241.021 S358
S0
G1 X240.894 S376
S0
G1 X240.767 S402
S0
G1 X240.640 S382
S0
G1 X240.513 S388
S0
G1 X240.386 S398
S0
G1 X240.259 S378
S0
G1 X240.132 S371
S0
G1 X240.005 S378
S0
G1 X239.878 S382
S0
G1 X239.751 S370
S0
G1 X239.624 S356
S0
G1 X239.497 S372
S0
G1 X239.370 S376
S0
G1 X239.243 S402
S0
G1 X239.116 S375
S0
G1 X238.989 S356
S0
G1 X238.862 S386
S0
G1 X238.735 S380
S0
G1 X238.608 S360
S0
G1 X238.481 S386
S0
G1 X238.354 S398
S0
G1 X238.227 S410
S0
G1 X238.100 S403
S0
G1 X237.973 S386
S0
G1 X237.719 S367
S0
G1 X237.592 S431
S0
G1 X237.465 S421
S0
G1 X237.338 S402
S0
G1 X237.211 S419
S0
G1 X237.084 S409
S0
G1 X236.957 S363
S0
G1 X236.830 S360
S0
G1 X236.703 S387
S0
G1 X236.576 S399
S0
G1 X236.449 S352
S0
G1 X236.322 S372
S0
G1 X236.195 S392
S0
G1 X236.068 S419
S0
G1 X235.941 S410
S0
G1 X235.814 S391
S0
G1 X235.687 S398
S0
G1 X235.560 S418
S0
G1 X235.433 S403
S0
G1 X235.306 S402
S0
G1 X235.179 S409
S0
G1 X235.052 S394
S0
G1 X234.925 S399
S0
G1 X234.798 S417
S0
G1 X234.671 S425
S0
G1 X234.544 S410
S0
G1 X234.417 S356
S0
G1 X234.290 S396
S0
G1 X234.163 S411
S0
G1 X234.036 S401
S0
G1 X233.909 S408
S0
G1 X233.782 S397
S0
G1 X233.655 S391
S0
G1 X233.528 S366
S0
G1 X233.401 S414
S0
G1 X233.274 S410
S0
G1 X233.147 S415
S0
G1 X233.020 S441
S0
G1 X232.893 S421
S0
G1 X232.766 S387
S0
G1 X232.639 S438
S0
G1 X232.512 S509
S0
G1 X232.385 S438
S0
G1 X232.258 S376
S0
G1 X232.131 S410
S0
G1 X231.877 S419
S0
G1 X231.750 S402
S0
G1 X231.623 S426
S0
G1 X231.496 S430
S0
G1 X231.369 S426
S0
G1 X231.242 S374
S0
G1 X231.115 S457
S0
G1 X230.988 S473
S0
G1 X230.861 S494
S0
G1 X230.734 S502
S0
G1 X230.607 S449
S0
G1 X230.480 S548
S0
G1 X230.353 S604
S0
G1 X230.226 S509
S0
G1 X230.099 S482
S0
G1 X229.972 S568
S0
G1 X229.845 S552
S0
G1 X229.718 S595
S0
G1 X229.591 S596
S0
G1 X229.464 S552
S0
G1 X229.337 S528
S0
G1 X229.210 S529
S0
G1 X229.083 S497
S0
G1 X228.956 S472
S0
G1 X228.829 S540
S0
G1 X228.702 S508
S0
G1 X228.575 S504
S0
G1 X228.448 S441
S0
G1 X228.321 S331
S0
G1 X228.194 S351
S0
G1 X228.067 S379
S0
G1 X227.940 S402
S0
G1 X227.813 S497
S0
G1 X227.686 S431
S0
G1 X227.559 S414
S0
G1 X227.432 S400
S0
G1 X227.305 S391
S0
G1 X227.178 S434
S0
G1 X227.051 S426
S0
G1 X226.924 S418
S0
G1 X226.797 S434
S0
G1 X226.670 S441
S0
G1 X226.543 S389
S0
G1 X226.416 S384
S0
G1 X226.289 S414
S0
G1 X226.035 S419
S0
G1 X225.908 S411
S0
G1 X225.781 S430
S0
G1 X225.654 S474
S0
G1 X225.527 S425
S0
G1 X225.400 S446
S0
G1 X225.273 S379
S0
G1 X225.146 S430
S0
G1 X225.019 S346
S0
G1 X224.892 S375
S0
G1 X224.765 S384
S0
G1 X224.638 S332
S0
G1 X224.511 S335
S0
G1 X224.384 S347
S0
G1 X224.257 S403
S0
G1 X224.130 S387
S0
G1 X224.003 S458
S0
G1 X223.876 S421
S0
G1 X223.749 S414
S0
G1 X223.622 S419
S0
G1 X223.495 S391
S0
G1 X223.368 S364
S0
G1 X223.241 S355
S0
G1 X223.114 S359
S0
G1 X222.860 S360
S0
G1 X222.733 S379
S0
G1 X222.606 S435
S0
G1 X222.479 S384
S0
G1 X222.352 S437
S0
G1 X222.225 S475
S0
G1 X222.098 S491
S0
G1 X221.971 S450
S0
G1 X221.844 S444
S0
G1 X221.717 S570
S0
G1 X221.590 S379
S0
G1 X221.463 S516
S0
G1 X221.336 S594
S0
G1 X221.209 S481
S0
G1 X221.082 S414
S0
G1 X220.955 S504
S0
G1 X220.828 S567
S0
G1 X220.701 S445
S0
G1 X220.574 S497
S0
G1 X220.447 S477
S0
G1 X220.320 S384
S0
G1 X220.193 S525
S0
G1 X220.066 S461
S0
G1 X219.939 S374
S0
G1 X219.812 S395
S0
G1 X219.685 S370
S0
G1 X219.558 S437
S0
G1 X219.431 S375
S0
G1 X219.304 S402
S0
G1 X219.177 S414
S0
G1 X219.050 S367
S0
G1 X218.923 S486
S0
G1 X218.796 S379
S0
G1 X218.669 S367
S0
G1 X218.542 S407
S0
G1 X218.415 S351
S0
G1 X218.288 S343
S0
G1 X218.161 S359
S0
G1 X218.034 S371
S0
G1 X217.907 S390
S0
G1 X217.780 S367
S0
G1 X217.653 S355
S0
G1 X217.526 S390
S0
G1 X217.399 S434
S0
G1 X217.272 S531
S0
G1 X217.145 S615
S0
G1 X217.018 S486
S0
G1 X216.891 S536
S0
G1 X216.764 S524
S0
G1 X216.637 S327
S0
G1 X216.510 S414
S0
G1 X216.383 S430
S0
G1 X216.256 S355
S0
G1 X216.129 S372
S0
G1 X216.002 S405
S0
G1 X215.875 S386
S0
G1 X215.748 S407
S0
G1 X215.621 S378
S0
G1 X215.494 S383
S0
G1 X215.367 S516
S0
G1 X215.240 S576
S0
G1 X215.113 S551
S0
G1 X214.986 S545
S0
G1 X214.859 S576
S0
G1 X214.732 S603
S0
G1 X214.605 S682
S0
G1 X214.478 S651
S0
G1 X214.351 S567
S0
G1 X214.224 S489
S0
G1 X214.097 S532
S0
G1 X213.970 S461
S0
G1 X213.843 S520
S0
G1 X213.716 S465
S0
G1 X213.589 S449
S0
G1 X213.462 S478
S0
G1 X213.335 S470
S0
G1 X213.208 S485
S0
G1 X213.081 S632
S0
G1 X212.954 S557
S0
G1 X212.827 S567
S0
G1 X212.700 S643
S0
G1 X212.573 S580
S0
G1 X212.446 S438
S0
G1 X212.319 S553
S0
G1 X212.192 S630
S0
G1 X212.065 S579
S0
G1 X211.938 S599
S0
G1 X211.811 S576
S0
G1 X211.684 S532
S0
G1 X211.557 S486
S0
G1 X211.430 S425
S0
G1 X211.303 S452
S0
G1 X211.176 S414
S0
G1 X211.049 S430
S0
G1 X210.922 S410
S0
G1 X210.795 S391
S0
G1 X210.668 S402
S0
G1 X210.541 S434
S0
G1 X210.414 S438
S0
G1 X210.287 S450
S0
G1 X210.160 S445
S0
G1 X210.033 S473
S0
G1 X209.906 S441
S0
G1 X209.779 S445
S0
G1 X209.652 S434
S0
G1 X209.525 S431
S0
G1 X209.398 S433
S0
G1 X209.271 S421
S0
G1 X209.144 S420
S0
G1 X209.017 S426
S0
G1 X208.890 S396
S0
G1 X208.763 S400
S0
G1 X208.636 S413
S0
G1 X208.509 S419
S0
G1 X208.382 S426
S0
G1 X208.255 S429
S0
G1 X208.128 S413
S0
G1 X208.001 S406
S0
G1 X207.874 S403
S0
G1 X207.747 S397
S0
G1 X207.620 S410
S0
G1 X207.493 S414
S0
G1 X207.366 S410
S0
G1 X207.239 S401
S0
G1 X207.112 S430
S0
G1 X206.985 S398
S0
G1 X206.858 S391
S0
G1 X206.731 S408
S0
G1 X206.604 S430
S0
G1 X206.477 S417
S0
G1 X206.350 S444
S0
G1 X206.223 S459
S0
G1 X205.969 S446
S0
G1 X205.842 S450
S0
G1 X205.715 S458
S0
G1 X205.588 S434
S0
G1 X205.461 S453
S0
G1 X205.334 S441
S0
G1 X205.207 S446
S0
G1 X205.080 S447
S0
G1 X204.953 S437
S0
G1 X204.826 S449
S0
G1 X204.699 S435
S0
G1 X204.572 S422
S0
G1 X204.445 S430
S0
G1 X204.318 S422
S0
G1 X204.191 S450
S0
G1 X204.064 S425
S0
G1 X203.937 S395
S0
G1 X203.810 S370
S0
G1 X203.683 S359
S0
G1 X203.556 S374
S0
G1 X203.429 S375
S0
G1 X203.175 S399
S0
G1 X203.048 S390
S0
G1 X202.921 S418
S0
G1 X202.794 S407
S0
G1 X202.667 S422
S0
G1 X202.413 S435
S0
G1 X202.286 S398
S0
G1 X202.159 S403
S0
G1 X202.032 S400
S0
G1 X201.905 S411
S0
G1 X201.778 S438
S0
G1 X201.651 S456
S0
G1 X201.524 S409
S0
G1 X201.397 S434
S0
G1 X201.270 S461
S0
G1 X201.143 S552
S0
G1 X201.016 S540
S0
G1 X200.889 S592
S0
G1 X200.762 S584
S0
G1 X200.635 S576
S0
G1 X200.508 S562
S0
G1 X200.381 S600
S0
G1 X200.254 S627
S0
G1 X200.127 S626
S0
G1 X200.000 S647
S0
G0 Y36.449
G0 X200.000 S0
G1 X200.127 S646
S0
G1 X200.254 S658
S0
G1 X200.381 S631
S0
G1 X200.508 S636
S0
G1 X200.635 S560
S0
G1 X200.762 S500
S0
G1 X200.889 S611
S0
G1 X201.016 S580
S0
G1 X201.143 S453
S0
G1 X201.270 S466
S0
G1 X201.397 S500
S0
G1 X201.524 S470
S0
G1 X201.651 S441
S0
G1 X201.778 S446
S0
G1 X201.905 S423
S0
G1 X202.032 S446
S0
G1 X202.159 S403
S0
G1 X202.286 S411
S0
G1 X202.413 S425
S0
G1 X202.540 S443
S0
G1 X202.667 S449
S0
G1 X202.794 S414
S0
G1 X202.921 S408
S0
G1 X203.048 S409
S0
G1 X203.175 S413
S0
G1 X203.302 S393
S0
G1 X203.429 S386
S0
G1 X203.556 S394
S0
G1 X203.683 S414
S0
G1 X203.810 S392
S0
G1 X203.937 S363
S0
G1 X204.064 S371
S0
G1 X204.191 S411
S0
G1 X204.318 S430
S0
G1 X204.445 S406
S0
G1 X204.572 S417
S0
G1 X204.699 S407
S0
G1 X204.826 S402
S0
G1 X204.953 S422
S0
G1 X205.080 S406
S0
G1 X205.207 S414
S0
G1 X205.334 S438
S0
G1 X205.588 S443
S0
G1 X205.715 S450
S0
G1 X205.842 S423
S0
G1 X205.969 S418
S0
G1 X206.096 S444
S0
G1 X206.223 S437
S0
G1 X206.350 S435
S0
G1 X206.477 S415
S0
G1 X206.604 S410
S0
G1 X206.731 S427
S0
G1 X206.858 S390
S0
G1 X206.985 S403
S0
G1 X207.112 S422
S0
G1 X207.239 S419
S0
G1 X207.366 S399
S0
G1 X207.493 S394
S0
G1 X207.620 S386
S0
G1 X207.747 S364
S0
G1 X207.874 S391
S0
G1 X208.001 S427
S0
G1 X208.128 S399
S0
G1 X208.255 S398
S0
G1 X208.382 S404
S0
G1 X208.509 S407
S0
G1 X208.636 S406
S0
G1 X208.763 S403
S0
G1 X208.890 S380
S0
G1 X209.017 S386
S0
G1 X209.144 S390
S0
G1 X209.271 S401
S0
G1 X209.398 S423
S0
G1 X209.525 S410
S0
G1 X209.652 S421
S0
G1 X209.779 S419
S0
G1 X209.906 S407
S0
G1 X210.033 S445
S0
G1 X210.160 S443
S0
G1 X210.287 S419
S0
G1 X210.414 S414
S0
G1 X210.541 S408
S0
G1 X210.668 S417
S0
G1 X210.795 S387
S0
G1 X210.922 S438
S0
G1 X211.049 S402
S0
G1 X211.176 S434
S0
G1 X211.303 S437
S0
G1 X211.430 S434
S0
G1 X211.557 S435
S0
G1 X211.684 S417
S0
G1 X211.811 S390
S0
G1 X211.938 S489
S0
G1 X212.065 S560
S0
G1 X212.192 S571
S0
G1 X212.319 S616
S0
G1 X212.446 S607
S0
G1 X212.573 S537
S0
G1 X212.700 S592
S0
G1 X212.827 S599
S0
G1 X212.954 S539
S0
G1 X213.081 S591
S0
G1 X213.208 S555
S0
G1 X213.335 S525
S0
G1 X213.462 S643
S0
G1 X213.589 S642
S0
G1 X213.716 S572
S0
G1 X213.843 S541
S0
G1 X213.970 S675
S0
G1 X214.097 S678
S0
G1 X214.224 S651
S0
G1 X214.351 S628
S0
G1 X214.478 S602
S0
G1 X214.605 S619
S0
G1 X214.732 S599
S0
G1 X214.859 S485
S0
G1 X214.986 S512
S0
G1 X215.113 S567
S0
G1 X215.240 S535
S0
G1 X215.367 S476
S0
G1 X215.494 S461
S0
G1 X215.621 S379
S0
G1 X215.748 S401
S0
G1 X215.875 S415
S0
G1 X216.002 S387
S0
G1 X216.129 S339
S0
G1 X216.256 S326
S0
G1 X216.383 S457
S0
G1 X216.510 S509
S0
G1 X216.637 S526
S0
G1 X216.764 S462
S0
G1 X216.891 S453
S0
G1 X217.018 S545
S0
G1 X217.145 S509
S0
G1 X217.272 S596
S0
G1 X217.399 S544
S0
G1 X217.526 S442
S0
G1 X217.653 S388
S0
G1 X217.780 S329
S0
G1 X217.907 S332
S0
G1 X218.034 S378
S0
G1 X218.161 S390
S0
G1 X218.288 S364
S0
G1 X218.415 S445
S0
G1 X218.542 S339
S0
G1 X218.669 S415
S0
G1 X218.796 S469
S0
G1 X218.923 S317
S0
G1 X219.050 S500
S0
G1 X219.177 S470
S0
G1 X219.304 S371
S0
G1 X219.431 S339
S0
G1 X219.558 S352
S0
G1 X219.685 S426
S0
G1 X219.812 S393
S0
G1 X219.939 S360
S0
G1 X220.066 S378
S0
G1 X220.193 S429
S0
G1 X220.320 S501
S0
G1 X220.447 S403
S0
G1 X220.574 S509
S0
G1 X220.701 S507
S0
G1 X220.828 S430
S0
G1 X221.082 S599
S0
G1 X221.209 S465
S0
G1 X221.336 S505
S0
G1 X221.463 S493
S0
G1 X221.590 S457
S0
G1 X221.717 S461
S0
G1 X221.844 S559
S0
G1 X221.971 S486
S0
G1 X222.098 S395
S0
G1 X222.225 S418
S0
G1 X222.352 S403
S0
G1 X222.479 S339
S0
G1 X222.606 S348
S0
G1 X222.733 S363
S0
G1 X222.860 S359
S0
G1 X222.987 S363
S0
G1 X223.114 S371
S0
G1 X223.241 S319
S0
G1 X223.368 S370
S0
G1 X223.495 S403
S0
G1 X223.622 S357
S0
G1 X223.749 S422
S0
G1 X223.876 S481
S0
G1 X224.003 S402
S0
G1 X224.130 S446
S0
G1 X224.257 S452
S0
G1 X224.384 S434
S0
G1 X224.511 S414
S0
G1 X224.638 S394
S0
G1 X224.765 S401
S0
G1 X224.892 S355
S0
G1 X225.019 S382
S0
G1 X225.146 S477
S0
G1 X225.273 S386
S0
G1 X225.400 S459
S0
G1 X225.527 S540
S0
G1 X225.654 S398
S0
G1 X225.781 S486
S0
G1 X225.908 S492
S0
G1 X226.035 S359
S0
G1 X226.162 S411
S0
G1 X226.289 S422
S0
G1 X226.416 S408
S0
G1 X226.543 S426
S0
G1 X226.670 S355
S0
G1 X226.797 S399
S0
G1 X226.924 S411
S0
G1 X227.051 S382
S0
G1 X227.178 S375
S0
G1 X227.305 S418
S0
G1 X227.432 S437
S0
G1 X227.559 S435
S0
G1 X227.686 S402
S0
G1 X227.813 S431
S0
G1 X227.940 S347
S0
G1 X228.067 S380
S0
G1 X228.194 S418
S0
G1 X228.321 S342
S0
G1 X228.448 S391
S0
G1 X228.575 S379
S0
G1 X228.702 S454
S0
G1 X228.829 S501
S0
G1 X228.956 S486
S0
G1 X229.083 S475
S0
G1 X229.210 S537
S0
G1 X229.337 S445
S0
G1 X229.464 S458
S0
G1 X229.591 S481
S0
G1 X229.718 S449
S0
G1 X229.845 S626
S0
G1 X229.972 S578
S0
G1 X230.099 S539
S0
G1 X230.226 S414
S0
G1 X230.353 S382
S0
G1 X230.480 S407
S0
G1 X230.607 S425
S0
G1 X230.734 S457
S0
G1 X230.861 S473
S0
G1 X230.988 S432
S0
G1 X231.115 S457
S0
G1 X231.242 S372
S0
G1 X231.369 S403
S0
G1 X231.496 S407
S0
G1 X231.623 S426
S0
G1 X231.877 S405
S0
G1 X232.004 S433
S0
G1 X232.131 S415
S0
G1 X232.258 S407
S0
G1 X232.385 S399
S0
G1 X232.512 S379
S0
G1 X232.639 S438
S0
G1 X232.766 S454
S0
G1 X232.893 S380
S0
G1 X233.020 S417
S0
G1 X233.147 S392
S0
G1 X233.274 S376
S0
G1 X233.401 S391
S0
G1 X233.528 S387
S0
G1 X233.655 S344
S0
G1 X233.782 S375
S0
G1 X233.909 S396
S0
G1 X234.036 S415
S0
G1 X234.163 S419
S0
G1 X234.290 S389
S0
G1 X234.417 S386
S0
G1 X234.544 S375
S0
G1 X234.671 S391
S0
G1 X234.798 S403
S0
G1 X234.925 S414
S0
G1 X235.052 S379
S0
G1 X235.179 S358
S0
G1 X235.306 S391
S0
G1 X235.433 S374
S0
G1 X235.560 S362
S0
G1 X235.687 S394
S0
G1 X235.814 S380
S0
G1 X235.941 S367
S0
G1 X236.068 S364
S0
G1 X236.195 S352
S0
G1 X236.322 S370
S0
G1 X236.449 S411
S0
G1 X236.576 S398
S0
G1 X236.703 S389
S0
G1 X236.830 S387
S0
G1 X236.957 S398
S0
G1 X237.084 S367
S0
G1 X237.211 S384
S0
G1 X237.338 S415
S0
G1 X237.465 S406
S0
G1 X237.592 S402
S0
G1 X237.719 S408
S0
G1 X237.846 S399
S0
G1 X237.973 S402
S0
G1 X238.100 S386
S0
G1 X238.227 S402
S0
G1 X238.354 S410
S0
G1 X238.481 S403
S0
G1 X238.608 S411
S0
G1 X238.735 S403
S0
G1 X238.862 S387
S0
G1 X238.989 S415
S0
G1 X239.116 S363
S0
G1 X239.243 S350
S0
G1 X239.370 S378
S0
G1 X239.497 S375
S0
G1 X239.624 S368
S0
G1 X239.751 S352
S0
G1 X239.878 S348
S0
G1 X240.005 S378
S0
G1 X240.132 S394
S0
G1 X240.259 S375
S0
G1 X240.386 S368
S0
G1 X240.513 S385
S0
G1 X240.640 S398
S0
G1 X240.767 S387
S0
G1 X240.894 S383
S0
G1 X241.021 S359
S0
G1 X241.148 S345
S0
G1 X241.275 S338
S0
G1 X241.402 S356
S0
G1 X241.529 S367
S0
G1 X241.656 S347
S0
G1 X241.783 S343
S0
G1 X242.037 S359
S0
G1 X242.164 S405
S0
G1 X242.291 S459
S0
G1 X242.418 S372
S0
G1 X242.545 S349
S0
G1 X242.799 S355
S0
G1 X242.926 S340
S0
G1 X243.053 S374
S0
G1 X243.180 S425
S0
G1 X243.307 S447
S0
G1 X243.434 S442
S0
G1 X243.561 S489
S0
G1 X243.688 S450
S0
G1 X243.815 S458
S0
G1 X243.942 S482
S0
G1 X244.069 S422
S0
G1 X244.196 S417
S0
G1 X244.323 S456
S0
G1 X244.450 S462
S0
G1 X244.577 S524
S0
G1 X244.704 S467
S0
G1 X244.831 S418
S0
G1 X244.958 S439
S0
G1 X245.085 S389
S0
G1 X245.212 S402
S0
G1 X245.339 S390
S0
G1 X245.466 S355
S0
G1 X245.593 S346
S0
G1 X245.847 S339
S0
G1 X245.974 S363
S0
G1 X246.101 S360
S0
G1 X246.228 S335
S0
G1 X246.355 S329
S0
G1 X246.482 S312
S0
G1 X246.609 S348
S0
G1 X246.736 S347
S0
G1 X246.863 S343
S0
G1 X246.990 S331
S0
G1 X247.117 S335
S0
G1 X247.244 S337
S0
G1 X247.371 S354
S0
G1 X247.498 S384
S0
G1 X247.625 S370
S0
G1 X247.752 S372
S0
G1 X247.879 S388
S0
G1 X248.006 S398
S0
G1 X248.133 S423
S0
G1 X248.260 S454
S0
G1 X248.387 S451
S0
G1 X248.514 S418
S0
G1 X248.641 S434
S0
G1 X248.768 S435
S0
G1 X248.895 S410
S0
G1 X249.022 S423
S0
G1 X249.149 S430
S0
G1 X249.276 S457
S0
G1 X249.403 S453
S0
G1 X249.530 S426
S0
G1 X249.657 S457
S0
G1 X249.784 S450
S0
G1 X249.911 S454
S0
G1 X250.038 S449
S0
G0 Y36.322
G0 X250.038 S0
G1 X249.911 S433
S0
G1 X249.784 S442
S0
G1 X249.657 S445
S0
G1 X249.530 S454
S0
G1 X249.276 S451
S0
G1 X249.149 S426
S0
G1 X249.022 S422
S0
G1 X248.895 S431
S0
G1 X248.768 S445
S0
G1 X248.641 S423
S0
G1 X248.514 S396
S0
G1 X248.387 S441
S0
G1 X248.260 S447
S0
G1 X248.133 S411
S0
G1 X248.006 S441
S0
G1 X247.879 S410
S0
G1 X247.752 S400
S0
G1 X247.625 S382
S0
G1 X247.371 S371
S0
G1 X247.244 S364
S0
G1 X247.117 S343
S0
G1 X246.990 S320
S0
G1 X246.863 S329
S0
G1 X246.736 S319
S0
G1 X246.609 S313
S0
G1 X246.482 S332
S0
G1 X246.355 S320
S0
G1 X246.228 S304
S0
G1 X246.101 S331
S0
G1 X245.974 S323
S0
G1 X245.847 S319
S0
G1 X245.720 S328
S0
G1 X245.593 S323
S0
G1 X245.466 S324
S0
G1 X245.339 S340
S0
G1 X245.212 S351
S0
G1 X245.085 S340
S0
G1 X244.958 S343
S0
G1 X244.831 S406
S0
G1 X244.704 S437
S0
G1 X244.577 S465
S0
G1 X244.450 S538
S0
G1 X244.323 S469
S0
G1 X244.196 S446
S0
G1 X244.069 S407
S0
G1 X243.942 S378
S0
G1 X243.815 S359
S0
G1 X243.688 S434
S0
G1 X243.561 S450
S0
G1 X243.434 S462
S0
G1 X243.307 S449
S0
G1 X243.180 S473
S0
G1 X243.053 S477
S0
G1 X242.926 S433
S0
G1 X242.799 S386
S0
G1 X242.672 S354
S0
G1 X242.545 S352
S0
G1 X242.418 S350
S0
G1 X242.291 S379
S0
G1 X242.164 S406
S0
G1 X242.037 S362
S0
G1 X241.910 S340
S0
G1 X241.783 S331
S0
G1 X241.656 S332
S0
G1 X241.529 S352
S0
G1 X241.275 S362
S0
G1 X241.148 S352
S0
G1 X241.021 S355
S0
G1 X240.894 S368
S0
G1 X240.767 S371
S0
G1 X240.640 S375
S0
G1 X240.513 S366
S0
G1 X240.386 S371
S0
G1 X240.259 S375
S0
G1 X240.132 S368
S0
G1 X240.005 S375
S0
G1 X239.878 S364
S0
G1 X239.751 S345
S0
G1 X239.624 S352
S0
G1 X239.497 S370
S0
G1 X239.370 S394
S0
G1 X239.243 S375
S0
G1 X239.116 S356
S0
G1 X238.989 S360
S0
G1 X238.862 S395
S0
G1 X238.735 S415
S0
G1 X238.608 S406
S0
G1 X238.481 S383
S0
G1 X238.354 S407
S0
G1 X238.227 S402
S0
G1 X238.100 S375
S0
G1 X237.973 S355
S0
G1 X237.846 S430
S0
G1 X237.719 S693
S0
G1 X237.592 S564
S0
G1 X237.465 S351
S0
G1 X237.338 S410
S0
G1 X237.211 S390
S0
G1 X237.084 S391
S0
G1 X236.957 S375
S0
G1 X236.830 S402
S0
G1 X236.703 S390
S0
G1 X236.576 S372
S0
G1 X236.449 S351
S0
G1 X236.322 S376
S0
G1 X236.195 S372
S0
G1 X236.068 S363
S0
G1 X235.941 S383
S0
G1 X235.814 S363
S0
G1 X235.687 S371
S0
G1 X235.560 S375
S0
G1 X235.433 S372
S0
G1 X235.306 S370
S0
G1 X235.179 S371
S0
G1 X235.052 S379
S0
G1 X234.925 S370
S0
G1 X234.798 S367
S0
G1 X234.671 S368
S0
G1 X234.544 S375
S0
G1 X234.417 S367
S0
G1 X234.290 S376
S0
G1 X234.036 S391
S0
G1 X233.909 S390
S0
G1 X233.782 S403
S0
G1 X233.655 S404
S0
G1 X233.528 S384
S0
G1 X233.401 S395
S0
G1 X233.274 S384
S0
G1 X233.147 S376
S0
G1 X233.020 S368
S0
G1 X232.893 S383
S0
G1 X232.766 S384
S0
G1 X232.639 S411
S0
G1 X232.512 S363
S0
G1 X232.385 S398
S0
G1 X232.258 S382
S0
G1 X232.131 S359
S0
G1 X232.004 S389
S0
G1 X231.877 S391
S0
G1 X231.750 S360
S0
G1 X231.623 S349
S0
G1 X231.496 S378
S0
G1 X231.369 S398
S0
G1 X231.242 S414
S0
G1 X231.115 S421
S0
G1 X230.988 S489
S0
G1 X230.861 S469
S0
G1 X230.734 S513
S0
G1 X230.607 S447
S0
G1 X230.480 S388
S0
G1 X230.353 S401
S0
G1 X230.226 S367
S0
G1 X230.099 S409
S0
G1 X229.972 S551
S0
G1 X229.845 S627
S0
G1 X229.718 S545
S0
G1 X229.591 S366
S0
G1 X229.464 S423
S0
G1 X229.337 S433
S0
G1 X229.210 S335
S0
G1 X229.083 S447
S0
G1 X228.956 S442
S0
G1 X228.829 S384
S0
G1 X228.702 S391
S0
G1 X228.575 S462
S0
G1 X228.448 S387
S0
G1 X228.321 S348
S0
G1 X228.194 S375
S0
G1 X228.067 S470
S0
G1 X227.940 S473
S0
G1 X227.813 S380
S0
G1 X227.686 S442
S0
G1 X227.559 S411
S0
G1 X227.432 S376
S0
G1 X227.305 S402
S0
G1 X227.178 S411
S0
G1 X227.051 S410
S0
G1 X226.924 S391
S0
G1 X226.797 S395
S0
G1 X226.670 S359
S0
G1 X226.543 S347
S0
G1 X226.416 S389
S0
G1 X226.289 S383
S0
G1 X226.162 S378
S0
G1 X226.035 S458
S0
G1 X225.908 S452
S0
G1 X225.781 S419
S0
G1 X225.654 S411
S0
G1 X225.527 S335
S0
G1 X225.400 S477
S0
G1 X225.273 S446
S0
G1 X225.146 S321
S0
G1 X225.019 S451
S0
G1 X224.892 S483
S0
G1 X224.765 S391
S0
G1 X224.638 S395
S0
G1 X224.511 S454
S0
G1 X224.384 S440
S0
G1 X224.257 S500
S0
G1 X224.130 S414
S0
G1 X224.003 S489
S0
G1 X223.876 S477
S0
G1 X223.749 S438
S0
G1 X223.622 S445
S0
G1 X223.495 S541
S0
G1 X223.368 S392
S0
G1 X223.241 S371
S0
G1 X223.114 S363
S0
G1 X222.987 S346
S0
G1 X222.860 S364
S0
G1 X222.733 S356
S0
G1 X222.606 S374
S0
G1 X222.479 S383
S0
G1 X222.352 S439
S0
G1 X222.225 S415
S0
G1 X222.098 S363
S0
G1 X221.971 S374
S0
G1 X221.844 S439
S0
G1 X221.717 S388
S0
G1 X221.590 S477
S0
G1 X221.463 S411
S0
G1 X221.336 S435
S0
G1 X221.209 S461
S0
G1 X221.082 S540
S0
G1 X220.955 S485
S0
G1 X220.828 S434
S0
G1 X220.701 S371
S0
G1 X220.574 S419
S0
G1 X220.447 S513
S0
G1 X220.193 S450
S0
G1 X220.066 S356
S0
G1 X219.939 S360
S0
G1 X219.812 S390
S0
G1 X219.685 S406
S0
G1 X219.558 S368
S0
G1 X219.431 S364
S0
G1 X219.304 S415
S0
G1 X219.177 S358
S0
G1 X219.050 S446
S0
G1 X218.923 S453
S0
G1 X218.796 S315
S0
G1 X218.669 S509
S0
G1 X218.542 S343
S0
G1 X218.415 S363
S0
G1 X218.288 S430
S0
G1 X218.161 S312
S0
G1 X218.034 S361
S0
G1 X217.907 S347
S0
G1 X217.780 S348
S0
G1 X217.653 S367
S0
G1 X217.526 S378
S0
G1 X217.399 S395
S0
G1 X217.272 S532
S0
G1 X217.145 S571
S0
G1 X217.018 S451
S0
G1 X216.891 S481
S0
G1 X216.764 S453
S0
G1 X216.637 S434
S0
G1 X216.510 S488
S0
G1 X216.383 S531
S0
G1 X216.256 S568
S0
G1 X216.129 S453
S0
G1 X216.002 S360
S0
G1 X215.875 S399
S0
G1 X215.748 S422
S0
G1 X215.621 S450
S0
G1 X215.494 S410
S0
G1 X215.367 S388
S0
G1 X215.240 S439
S0
G1 X215.113 S463
S0
G1 X214.986 S433
S0
G1 X214.859 S543
S0
G1 X214.732 S500
S0
G1 X214.605 S575
S0
G1 X214.478 S626
S0
G1 X214.351 S502
S0
G1 X214.224 S583
S0
G1 X214.097 S615
S0
G1 X213.970 S619
S0
G1 X213.843 S580
S0
G1 X213.716 S591
S0
G1 X213.589 S560
S0
G1 X213.462 S534
S0
G1 X213.335 S576
S0
G1 X213.208 S596
S0
G1 X213.081 S531
S0
G1 X212.954 S543
S0
G1 X212.827 S551
S0
G1 X212.700 S556
S0
G1 X212.573 S551
S0
G1 X212.446 S604
S0
G1 X212.319 S533
S0
G1 X212.192 S505
S0
G1 X212.065 S494
S0
G1 X211.938 S450
S0
G1 X211.811 S426
S0
G1 X211.684 S415
S0
G1 X211.557 S453
S0
G1 X211.430 S445
S0
G1 X211.303 S433
S0
G1 X211.176 S450
S0
G1 X211.049 S406
S0
G1 X210.922 S433
S0
G1 X210.795 S417
S0
G1 X210.668 S411
S0
G1 X210.541 S421
S0
G1 X210.414 S430
S0
G1 X210.287 S421
S0
G1 X210.160 S414
S0
G1 X210.033 S427
S0
G1 X209.906 S431
S0
G1 X209.779 S407
S0
G1 X209.652 S427
S0
G1 X209.525 S453
S0
G1 X209.398 S411
S0
G1 X209.271 S391
S0
G1 X209.144 S421
S0
G1 X209.017 S399
S0
G1 X208.890 S368
S0
G1 X208.763 S360
S0
G1 X208.636 S394
S0
G1 X208.509 S387
S0
G1 X208.382 S383
S0
G1 X208.255 S398
S0
G1 X208.128 S390
S0
G1 X208.001 S387
S0
G1 X207.874 S399
S0
G1 X207.747 S367
S0
G1 X207.620 S354
S0
G1 X207.366 S375
S0
G1 X207.239 S386
S0
G1 X207.112 S404
S0
G1 X206.985 S411
S0
G1 X206.858 S402
S0
G1 X206.731 S398
S0
G1 X206.604 S386
S0
G1 X206.477 S391
S0
G1 X206.350 S393
S0
G1 X206.223 S455
S0
G1 X206.096 S422
S0
G1 X205.969 S433
S0
G1 X205.842 S465
S0
G1 X205.715 S434
S0
G1 X205.588 S430
S0
G1 X205.461 S425
S0
G1 X205.334 S449
S0
G1 X205.207 S423
S0
G1 X205.080 S431
S0
G1 X204.953 S454
S0
G1 X204.826 S466
S0
G1 X204.699 S472
S0
G1 X204.445 S434
S0
G1 X204.318 S404
S0
G1 X204.191 S402
S0
G1 X204.064 S407
S0
G1 X203.810 S372
S0
G1 X203.683 S419
S0
G1 X203.556 S397
S0
G1 X203.429 S379
S0
G1 X203.302 S407
S0
G1 X203.175 S395
S0
G1 X203.048 S413
S0
G1 X202.921 S430
S0
G1 X202.667 S408
S0
G1 X202.540 S457
S0
G1 X202.286 S458
S0
G1 X202.159 S435
S0
G1 X202.032 S418
S0
G1 X201.905 S433
S0
G1 X201.778 S446
S0
G1 X201.651 S442
S0
G1 X201.524 S438
S0
G1 X201.397 S451
S0
G1 X201.270 S495
S0
G1 X201.143 S465
S0
G1 X201.016 S504
S0
G1 X200.889 S528
S0
G1 X200.762 S555
S0
G1 X200.635 S564
S0
G1 X200.508 S621
S0
G1 X200.381 S627
S0
G1 X200.254 S622
S0
G1 X200.127 S654
S0
G1 X200.000 S603
S0
G0 Y36.195
G0 X200.000 S0
G1 X200.127 S638
S0
G1 X200.254 S651
S0
G1 X200.381 S616
S0
G1 X200.508 S602
S0
G1 X200.635 S607
S0
G1 X200.762 S619
S0
G1 X200.889 S568
S0
G1 X201.016 S466
S0
G1 X201.143 S473
S0
G1 X201.270 S517
S0
G1 X201.397 S520
S0
G1 X201.524 S509
S0
G1 X201.651 S478
S0
G1 X201.778 S464
S0
G1 X201.905 S430
S0
G1 X202.032 S388
S0
G1 X202.159 S415
S0
G1 X202.286 S422
S0
G1 X202.413 S410
S0
G1 X202.540 S457
S0
G1 X202.667 S441
S0
G1 X202.794 S429
S0
G1 X202.921 S447
S0
G1 X203.048 S466
S0
G1 X203.175 S399
S0
G1 X203.302 S378
S0
G1 X203.429 S417
S0
G1 X203.556 S450
S0
G1 X203.683 S501
S0
G1 X203.810 S520
S0
G1 X203.937 S580
S0
G1 X204.064 S562
S0
G1 X204.191 S575
S0
G1 X204.318 S567
S0
G1 X204.445 S496
S0
G1 X204.572 S485
S0
G1 X204.699 S465
S0
G1 X204.826 S446
S0
G1 X204.953 S482
S0
G1 X205.080 S532
S0
G1 X205.207 S571
S0
G1 X205.334 S567
S0
G1 X205.461 S480
S0
G1 X205.588 S418
S0
G1 X205.715 S438
S0
G1 X205.842 S443
S0
G1 X205.969 S469
S0
G1 X206.096 S457
S0
G1 X206.223 S449
S0
G1 X206.350 S406
S0
G1 X206.477 S426
S0
G1 X206.604 S395
S0
G1 X206.731 S385
S0
G1 X206.858 S383
S0
G1 X206.985 S366
S0
G1 X207.112 S380
S0
G1 X207.239 S384
S0
G1 X207.366 S379
S0
G1 X207.493 S359
S0
G1 X207.620 S347
S0
G1 X207.747 S360
S0
G1 X207.874 S366
S0
G1 X208.001 S371
S0
G1 X208.128 S351
S0
G1 X208.255 S376
S0
G1 X208.382 S405
S0
G1 X208.509 S387
S0
G1 X208.636 S402
S0
G1 X208.763 S380
S0
G1 X208.890 S366
S0
G1 X209.017 S376
S0
G1 X209.144 S407
S0
G1 X209.271 S439
S0
G1 X209.398 S403
S0
G1 X209.525 S394
S0
G1 X209.652 S414
S0
G1 X209.779 S434
S0
G1 X209.906 S415
S0
G1 X210.033 S414
S0
G1 X210.160 S429
S0
G1 X210.287 S433
S0
G1 X210.414 S434
S0
G1 X210.541 S417
S0
G1 X210.668 S415
S0
G1 X210.795 S401
S0
G1 X210.922 S363
S0
G1 X211.049 S419
S0
G1 X211.176 S415
S0
G1 X211.303 S376
S0
G1 X211.430 S425
S0
G1 X211.557 S466
S0
G1 X211.684 S449
S0
G1 X211.811 S461
S0
G1 X211.938 S450
S0
G1 X212.065 S454
S0
G1 X212.192 S477
S0
G1 X212.319 S484
S0
G1 X212.446 S488
S0
G1 X212.573 S532
S0
G1 X212.700 S484
S0
G1 X212.827 S532
S0
G1 X212.954 S533
S0
G1 X213.081 S646
S0
G1 X213.208 S524
S0
G1 X213.335 S444
S0
G1 X213.462 S584
S0
G1 X213.589 S411
S0
G1 X213.716 S548
S0
G1 X213.843 S627
S0
G1 X213.970 S588
S0
G1 X214.097 S559
S0
G1 X214.224 S509
S0
G1 X214.351 S594
S0
G1 X214.478 S475
S0
G1 X214.605 S407
S0
G1 X214.732 S477
S0
G1 X214.859 S510
S0
G1 X214.986 S477
S0
G1 X215.113 S403
S0
G1 X215.240 S383
S0
G1 X215.367 S418
S0
G1 X215.494 S379
S0
G1 X215.621 S417
S0
G1 X215.748 S414
S0
G1 X215.875 S410
S0
G1 X216.002 S384
S0
G1 X216.129 S468
S0
G1 X216.256 S560
S0
G1 X216.383 S603
S0
G1 X216.510 S517
S0
G1 X216.637 S413
S0
G1 X216.764 S450
S0
G1 X216.891 S417
S0
G1 X217.018 S447
S0
G1 X217.145 S454
S0
G1 X217.272 S538
S0
G1 X217.399 S507
S0
G1 X217.526 S371
S0
G1 X217.653 S364
S0
G1 X217.780 S370
S0
G1 X217.907 S379
S0
G1 X218.034 S340
S0
G1 X218.161 S354
S0
G1 X218.288 S269
S0
G1 X218.415 S453
S0
G1 X218.542 S450
S0
G1 X218.669 S360
S0
G1 X218.796 S406
S0
G1 X218.923 S319
S0
G1 X219.050 S441
S0
G1 X219.177 S431
S0
G1 X219.304 S356
S0
G1 X219.431 S395
S0
G1 X219.558 S356
S0
G1 X219.685 S384
S0
G1 X219.812 S360
S0
G1 X219.939 S359
S0
G1 X220.066 S351
S0
G1 X220.193 S319
S0
G1 X220.320 S398
S0
G1 X220.447 S461
S0
G1 X220.574 S391
S0
G1 X220.701 S368
S0
G1 X220.828 S387
S0
G1 X220.955 S339
S0
G1 X221.082 S351
S0
G1 X221.209 S445
S0
G1 X221.336 S410
S0
G1 X221.463 S371
S0
G1 X221.590 S360
S0
G1 X221.717 S405
S0
G1 X221.844 S422
S0
G1 X221.971 S403
S0
G1 X222.098 S380
S0
G1 X222.225 S364
S0
G1 X222.352 S356
S0
G1 X222.479 S462
S0
G1 X222.606 S379
S0
G1 X222.733 S384
S0
G1 X222.860 S376
S0
G1 X222.987 S343
S0
G1 X223.114 S347
S0
G1 X223.241 S363
S0
G1 X223.368 S364
S0
G1 X223.495 S335
S0
G1 X223.622 S517
S0
G1 X223.749 S559
S0
G1 X223.876 S388
S0
G1 X224.003 S414
S0
G1 X224.130 S513
S0
G1 X224.257 S494
S0
G1 X224.384 S524
S0
G1 X224.511 S370
S0
G1 X224.638 S442
S0
G1 X224.765 S419
S0
G1 X224.892 S309
S0
G1 X225.019 S433
S0
G1 X225.146 S488
S0
G1 X225.273 S391
S0
G1 X225.400 S328
S0
G1 X225.527 S403
S0
G1 X225.654 S391
S0
G1 X225.781 S386
S0
G1 X225.908 S367
S0
G1 X226.035 S417
S0
G1 X226.162 S445
S0
G1 X226.289 S398
S0
G1 X226.416 S375
S0
G1 X226.543 S347
S0
G1 X226.670 S355
S0
G1 X226.797 S398
S0
G1 X226.924 S370
S0
G1 X227.051 S394
S0
G1 X227.178 S401
S0
G1 X227.305 S351
S0
G1 X227.432 S387
S0
G1 X227.559 S345
S0
G1 X227.686 S360
S0
G1 X227.813 S411
S0
G1 X227.940 S375
S0
G1 X228.067 S364
S0
G1 X228.194 S446
S0
G1 X228.321 S433
S0
G1 X228.448 S354
S0
G1 X228.575 S392
S0
G1 X228.702 S353
S0
G1 X228.829 S375
S0
G1 X228.956 S410
S0
G1 X229.083 S364
S0
G1 X229.210 S378
S0
G1 X229.337 S387
S0
G1 X229.464 S438
S0
G1 X229.591 S521
S0
G1 X229.718 S421
S0
G1 X229.845 S502
S0
G1 X229.972 S627
S0
G1 X230.099 S492
S0
G1 X230.226 S380
S0
G1 X230.353 S420
S0
G1 X230.480 S477
S0
G1 X230.607 S418
S0
G1 X230.734 S445
S0
G1 X230.861 S482
S0
G1 X230.988 S462
S0
G1 X231.115 S454
S0
G1 X231.242 S418
S0
G1 X231.369 S364
S0
G1 X231.496 S359
S0
G1 X231.623 S339
S0
G1 X231.877 S363
S0
G1 X232.004 S360
S0
G1 X232.131 S346
S0
G1 X232.258 S329
S0
G1 X232.385 S368
S0
G1 X232.512 S415
S0
G1 X232.639 S405
S0
G1 X232.766 S393
S0
G1 X232.893 S375
S0
G1 X233.020 S376
S0
G1 X233.147 S390
S0
G1 X233.274 S407
S0
G1 X233.401 S364
S0
G1 X233.528 S383
S0
G1 X233.655 S387
S0
G1 X233.782 S367
S0
G1 X233.909 S394
S0
G1 X234.036 S368
S0
G1 X234.163 S379
S0
G1 X234.290 S364
S0
G1 X234.417 S347
S0
G1 X234.544 S359
S0
G1 X234.671 S352
S0
G1 X234.798 S340
S0
G1 X234.925 S356
S0
G1 X235.052 S384
S0
G1 X235.179 S370
S0
G1 X235.306 S362
S0
G1 X235.433 S367
S0
G1 X235.560 S390
S0
G1 X235.687 S367
S0
G1 X235.941 S359
S0
G1 X236.068 S358
S0
G1 X236.195 S386
S0
G1 X236.322 S370
S0
G1 X236.449 S352
S0
G1 X236.576 S340
S0
G1 X236.703 S372
S0
G1 X236.830 S364
S0
G1 X236.957 S368
S0
G1 X237.084 S352
S0
G1 X237.211 S364
S0
G1 X237.338 S379
S0
G1 X237.592 S367
S0
G1 X237.719 S540
S0
G1 X237.846 S579
S0
G1 X237.973 S392
S0
G1 X238.100 S348
S0
G1 X238.227 S379
S0
G1 X238.354 S400
S0
G1 X238.481 S411
S0
G1 X238.608 S383
S0
G1 X238.735 S385
S0
G1 X238.862 S386
S0
G1 X238.989 S363
S0
G1 X239.116 S364
S0
G1 X239.243 S356
S0
G1 X239.370 S352
S0
G1 X239.497 S364
S0
G1 X239.624 S367
S0
G1 X239.751 S348
S0
G1 X239.878 S341
S0
G1 X240.005 S339
S0
G1 X240.132 S351
S0
G1 X240.259 S375
S0
G1 X240.386 S356
S0
G1 X240.513 S360
S0
G1 X240.640 S354
S0
G1 X240.767 S375
S0
G1 X240.894 S366
S0
G1 X241.021 S335
S0
G1 X241.148 S331
S0
G1 X241.275 S351
S0
G1 X241.402 S370
S0
G1 X241.529 S353
S0
G1 X241.656 S334
S0
G1 X241.783 S333
S0
G1 X241.910 S327
S0
G1 X242.037 S323
S0
G1 X242.164 S352
S0
G1 X242.291 S340
S0
G1 X242.418 S336
S0
G1 X242.545 S341
S0
G1 X242.672 S342
S0
G1 X242.799 S384
S0
G1 X242.926 S441
S0
G1 X243.053 S462
S0
G1 X243.180 S457
S0
G1 X243.307 S486
S0
G1 X243.434 S425
S0
G1 X243.561 S367
S0
G1 X243.688 S395
S0
G1 X243.815 S431
S0
G1 X243.942 S450
S0
G1 X244.069 S407
S0
G1 X244.196 S352
S0
G1 X244.323 S415
S0
G1 X244.450 S437
S0
G1 X244.577 S419
S0
G1 X244.704 S449
S0
G1 X244.831 S445
S0
G1 X244.958 S399
S0
G1 X245.085 S398
S0
G1 X245.212 S340
S0
G1 X245.339 S320
S0
G1 X245.466 S332
S0
G1 X245.593 S329
S0
G1 X245.720 S345
S0
G1 X245.847 S323
S0
G1 X245.974 S324
S0
G1 X246.101 S333
S0
G1 X246.228 S304
S0
G1 X246.355 S315
S0
G1 X246.482 S319
S0
G1 X246.609 S335
S0
G1 X246.736 S323
S0
G1 X246.863 S325
S0
G1 X246.990 S336
S0
G1 X247.117 S331
S0
G1 X247.244 S361
S0
G1 X247.371 S347
S0
G1 X247.498 S344
S0
G1 X247.625 S379
S0
G1 X247.752 S410
S0
G1 X247.879 S407
S0
G1 X248.006 S417
S0
G1 X248.133 S429
S0
G1 X248.260 S423
S0
G1 X248.387 S406
S0
G1 X248.514 S434
S0
G1 X248.641 S429
S0
G1 X248.768 S425
S0
G1 X248.895 S466
S0
G1 X249.022 S443
S0
G1 X249.149 S411
S0
G1 X249.276 S426
S0
G1 X249.403 S437
S0
G1 X249.530 S430
S0
G1 X249.657 S417
S0
G1 X249.911 S431
S0
G1 X250.038 S439
S0
G0 Y36.068
G0 X250.038 S0
G1 X249.911 S439
S0
G1 X249.784 S434
S0
G1 X249.657 S441
S0
G1 X249.530 S450
S0
G1 X249.403 S438
S0
G1 X249.276 S450
S0
G1 X249.149 S446
S0
G1 X249.022 S443
S0
G1 X248.895 S442
S0
G1 X248.768 S446
S0
G1 X248.641 S450
S0
G1 X248.514 S441
S0
G1 X248.387 S407
S0
G1 X248.260 S414
S0
G1 X248.133 S411
S0
G1 X248.006 S402
S0
G1 X247.879 S437
S0
G1 X247.752 S417
S0
G1 X247.625 S398
S0
G1 X247.498 S355
S0
G1 X247.371 S351
S0
G1 X247.244 S356
S0
G1 X247.117 S366
S0
G1 X246.990 S343
S0
G1 X246.863 S317
S0
G1 X246.736 S327
S0
G1 X246.609 S336
S0
G1 X246.482 S320
S0
G1 X246.355 S309
S0
G1 X246.228 S324
S0
G1 X246.101 S300
S0
G1 X245.974 S314
S0
G1 X245.847 S323
S0
G1 X245.720 S335
S0
G1 X245.593 S340
S0
G1 X245.466 S304
S0
G1 X245.339 S333
S0
G1 X245.212 S304
S0
G1 X245.085 S415
S0
G1 X244.958 S461
S0
G1 X244.831 S384
S0
G1 X244.704 S414
S0
G1 X244.577 S367
S0
G1 X244.450 S391
S0
G1 X244.323 S422
S0
G1 X244.196 S453
S0
G1 X244.069 S446
S0
G1 X243.942 S470
S0
G1 X243.815 S513
S0
G1 X243.688 S399
S0
G1 X243.561 S379
S0
G1 X243.434 S364
S0
G1 X243.307 S387
S0
G1 X243.180 S437
S0
G1 X243.053 S415
S0
G1 X242.926 S417
S0
G1 X242.799 S418
S0
G1 X242.672 S374
S0
G1 X242.545 S367
S0
G1 X242.418 S339
S0
G1 X242.291 S332
S0
G1 X242.164 S319
S0
G1 X242.037 S331
S0
G1 X241.910 S328
S0
G1 X241.783 S327
S0
G1 X241.656 S332
S0
G1 X241.529 S309
S0
G1 X241.402 S312
S0
G1 X241.275 S327
S0
G1 X241.148 S331
S0
G1 X241.021 S324
S0
G1 X240.894 S327
S0
G1 X240.767 S379
S0
G1 X240.640 S396
S0
G1 X240.513 S349
S0
G1 X240.386 S363
S0
G1 X240.259 S358
S0
G1 X240.132 S377
S0
G1 X239.878 S339
S0
G1 X239.751 S352
S0
G1 X239.624 S345
S0
G1 X239.497 S340
S0
G1 X239.243 S355
S0
G1 X239.116 S347
S0
G1 X238.989 S381
S0
G1 X238.862 S391
S0
G1 X238.735 S383
S0
G1 X238.608 S390
S0
G1 X238.481 S388
S0
G1 X238.354 S402
S0
G1 X238.227 S400
S0
G1 X238.100 S366
S0
G1 X237.973 S379
S0
G1 X237.846 S363
S0
G1 X237.719 S331
S0
G1 X237.465 S362
S0
G1 X237.338 S372
S0
G1 X237.211 S379
S0
G1 X237.084 S364
S0
G1 X236.957 S348
S0
G1 X236.830 S351
S0
G1 X236.703 S366
S0
G1 X236.576 S372
S0
G1 X236.449 S356
S0
G1 X236.322 S372
S0
G1 X236.195 S382
S0
G1 X236.068 S390
S0
G1 X235.941 S347
S0
G1 X235.814 S339
S0
G1 X235.687 S367
S0
G1 X235.433 S341
S0
G1 X235.306 S348
S0
G1 X235.179 S386
S0
G1 X235.052 S366
S0
G1 X234.925 S360
S0
G1 X234.798 S370
S0
G1 X234.671 S353
S0
G1 X234.544 S331
S0
G1 X234.417 S349
S0
G1 X234.290 S324
S0
G1 X234.163 S409
S0
G1 X234.036 S407
S0
G1 X233.909 S355
S0
G1 X233.782 S407
S0
G1 X233.655 S383
S0
G1 X233.528 S364
S0
G1 X233.401 S379
S0
G1 X233.274 S387
S0
G1 X233.147 S386
S0
G1 X233.020 S383
S0
G1 X232.893 S368
S0
G1 X232.766 S374
S0
G1 X232.639 S364
S0
G1 X232.512 S419
S0
G1 X232.385 S388
S0
G1 X232.258 S335
S0
G1 X232.131 S327
S0
G1 X231.877 S364
S0
G1 X231.750 S347
S0
G1 X231.623 S379
S0
G1 X231.496 S339
S0
G1 X231.369 S353
S0
G1 X231.242 S368
S0
G1 X231.115 S382
S0
G1 X230.988 S453
S0
G1 X230.861 S457
S0
G1 X230.734 S442
S0
G1 X230.607 S474
S0
G1 X230.480 S450
S0
G1 X230.353 S399
S0
G1 X230.226 S378
S0
G1 X230.099 S489
S0
G1 X229.972 S472
S0
G1 X229.845 S500
S0
G1 X229.718 S503
S0
G1 X229.591 S485
S0
G1 X229.464 S560
S0
G1 X229.337 S457
S0
G1 X229.210 S371
S0
G1 X229.083 S399
S0
G1 X228.956 S363
S0
G1 X228.829 S352
S0
G1 X228.702 S379
S0
G1 X228.575 S402
S0
G1 X228.448 S391
S0
G1 X228.321 S383
S0
G1 X228.067 S351
S0
G1 X227.940 S364
S0
G1 X227.813 S355
S0
G1 X227.686 S374
S0
G1 X227.559 S410
S0
G1 X227.432 S343
S0
G1 X227.305 S379
S0
G1 X227.178 S394
S0
G1 X227.051 S387
S0
G1 X226.924 S362
S0
G1 X226.670 S359
S0
G1 X226.543 S363
S0
G1 X226.416 S375
S0
G1 X226.289 S356
S0
G1 X226.162 S419
S0
G1 X226.035 S433
S0
G1 X225.908 S356
S0
G1 X225.781 S442
S0
G1 X225.654 S411
S0
G1 X225.527 S386
S0
G1 X225.400 S347
S0
G1 X225.273 S372
S0
G1 X225.146 S425
S0
G1 X225.019 S384
S0
G1 X224.892 S379
S0
G1 X224.765 S387
S0
G1 X224.638 S397
S0
G1 X224.511 S378
S0
G1 X224.384 S390
S0
G1 X224.257 S413
S0
G1 X224.130 S442
S0
G1 X224.003 S426
S0
G1 X223.876 S379
S0
G1 X223.749 S447
S0
G1 X223.622 S533
S0
G1 X223.495 S434
S0
G1 X223.368 S371
S0
G1 X223.241 S375
S0
G1 X223.114 S430
S0
G1 X222.987 S488
S0
G1 X222.860 S376
S0
G1 X222.733 S374
S0
G1 X222.606 S429
S0
G1 X222.479 S405
S0
G1 X222.352 S485
S0
G1 X222.225 S396
S0
G1 X222.098 S346
S0
G1 X221.971 S371
S0
G1 X221.717 S459
S0
G1 X221.590 S378
S0
G1 X221.463 S433
S0
G1 X221.336 S413
S0
G1 X221.209 S399
S0
G1 X221.082 S367
S0
G1 X220.955 S400
S0
G1 X220.828 S406
S0
G1 X220.701 S407
S0
G1 X220.447 S386
S0
G1 X220.320 S433
S0
G1 X220.193 S454
S0
G1 X220.066 S428
S0
G1 X219.939 S367
S0
G1 X219.812 S376
S0
G1 X219.685 S368
S0
G1 X219.558 S376
S0
G1 X219.431 S364
S0
G1 X219.304 S324
S0
G1 X219.177 S331
S0
G1 X219.050 S339
S0
G1 X218.923 S354
S0
G1 X218.796 S368
S0
G1 X218.669 S327
S0
G1 X218.542 S335
S0
G1 X218.288 S398
S0
G1 X218.161 S334
S0
G1 X218.034 S371
S0
G1 X217.907 S351
S0
G1 X217.780 S390
S0
G1 X217.653 S335
S0
G1 X217.526 S351
S0
G1 X217.399 S364
S0
G1 X217.272 S529
S0
G1 X217.145 S498
S0
G1 X217.018 S477
S0
G1 X216.891 S363
S0
G1 X216.764 S453
S0
G1 X216.637 S560
S0
G1 X216.510 S445
S0
G1 X216.383 S435
S0
G1 X216.256 S517
S0
G1 X216.129 S441
S0
G1 X216.002 S391
S0
G1 X215.875 S392
S0
G1 X215.748 S417
S0
G1 X215.621 S411
S0
G1 X215.494 S409
S0
G1 X215.367 S406
S0
G1 X215.240 S434
S0
G1 X215.113 S399
S0
G1 X214.986 S442
S0
G1 X214.859 S411
S0
G1 X214.732 S427
S0
G1 X214.478 S431
S0
G1 X214.351 S471
S0
G1 X214.224 S453
S0
G1 X214.097 S505
S0
G1 X213.970 S570
S0
G1 X213.843 S528
S0
G1 X213.716 S485
S0
G1 X213.589 S555
S0
G1 X213.462 S500
S0
G1 X213.335 S516
S0
G1 X213.208 S415
S0
G1 X213.081 S512
S0
G1 X212.954 S591
S0
G1 X212.827 S551
S0
G1 X212.700 S514
S0
G1 X212.573 S493
S0
G1 X212.446 S410
S0
G1 X212.319 S468
S0
G1 X212.192 S507
S0
G1 X212.065 S492
S0
G1 X211.938 S470
S0
G1 X211.811 S465
S0
G1 X211.684 S548
S0
G1 X211.557 S457
S0
G1 X211.303 S426
S0
G1 X211.176 S411
S0
G1 X211.049 S417
S0
G1 X210.922 S406
S0
G1 X210.795 S402
S0
G1 X210.668 S407
S0
G1 X210.541 S398
S0
G1 X210.414 S423
S0
G1 X210.287 S435
S0
G1 X210.160 S441
S0
G1 X210.033 S435
S0
G1 X209.906 S407
S0
G1 X209.779 S406
S0
G1 X209.652 S398
S0
G1 X209.525 S386
S0
G1 X209.398 S390
S0
G1 X209.271 S425
S0
G1 X209.144 S400
S0
G1 X209.017 S386
S0
G1 X208.890 S379
S0
G1 X208.763 S376
S0
G1 X208.636 S351
S0
G1 X208.509 S355
S0
G1 X208.382 S375
S0
G1 X208.255 S394
S0
G1 X208.128 S359
S0
G1 X208.001 S371
S0
G1 X207.874 S379
S0
G1 X207.747 S360
S0
G1 X207.620 S340
S0
G1 X207.493 S374
S0
G1 X207.366 S386
S0
G1 X207.239 S382
S0
G1 X207.112 S359
S0
G1 X206.985 S375
S0
G1 X206.858 S382
S0
G1 X206.731 S453
S0
G1 X206.604 S454
S0
G1 X206.477 S449
S0
G1 X206.350 S521
S0
G1 X206.223 S438
S0
G1 X206.096 S372
S0
G1 X205.969 S435
S0
G1 X205.842 S450
S0
G1 X205.715 S509
S0
G1 X205.588 S434
S0
G1 X205.461 S512
S0
G1 X205.334 S545
S0
G1 X205.207 S348
S0
G1 X205.080 S184
S0
G1 X204.953 S187
S0
G1 X204.826 S243
S0
G1 X204.699 S214
S0
G1 X204.572 S233
S0
G1 X204.445 S264
S0
G1 X204.318 S270
S0
G1 X204.064 S242
S0
G1 X203.937 S274
S0
G1 X203.810 S233
S0
G1 X203.683 S281
S0
G1 X203.556 S588
S0
G1 X203.429 S470
S0
G1 X203.302 S441
S0
G1 X203.175 S497
S0
G1 X203.048 S569
S0
G1 X202.921 S458
S0
G1 X202.794 S462
S0
G1 X202.667 S588
S0
G1 X202.540 S509
S0
G1 X202.413 S461
S0
G1 X202.286 S493
S0
G1 X202.159 S409
S0
G1 X202.032 S419
S0
G1 X201.905 S430
S0
G1 X201.778 S476
S0
G1 X201.651 S453
S0
G1 X201.524 S533
S0
G1 X201.397 S516
S0
G1 X201.270 S454
S0
G1 X201.143 S457
S0
G1 X201.016 S516
S0
G1 X200.889 S564
S0
G1 X200.762 S578
S0
G1 X200.635 S536
S0
G1 X200.508 S588
S0
G1 X200.381 S614
S0
G1 X200.254 S627
S0
G1 X200.127 S622
S0
G1 X200.000 S673
S0
G0 Y35.941
G0 X200.000 S0
G1 X200.127 S661
S0
G1 X200.254 S626
S0
G1 X200.381 S647
S0
G1 X200.508 S633
S0
G1 X200.635 S561
S0
G1 X200.762 S507
S0
G1 X200.889 S559
S0
G1 X201.016 S583
S0
G1 X201.143 S498
S0
G1 X201.270 S489
S0
G1 X201.397 S472
S0
G1 X201.524 S429
S0
G1 X201.651 S512
S0
G1 X201.778 S429
S0
G1 X201.905 S504
S0
G1 X202.032 S564
S0
G1 X202.159 S426
S0
G1 X202.286 S506
S0
G1 X202.413 S500
S0
G1 X202.540 S527
S0
G1 X202.667 S537
S0
G1 X202.794 S469
S0
G1 X202.921 S427
S0
G1 X203.048 S395
S0
G1 X203.175 S552
S0
G1 X203.302 S565
S0
G1 X203.429 S430
S0
G1 X203.556 S387
S0
G1 X203.683 S556
S0
G1 X203.810 S424
S0
G1 X203.937 S219
S0
G1 X204.064 S262
S0
G1 X204.191 S314
S0
G1 X204.318 S414
S0
G1 X204.445 S559
S0
G1 X204.572 S630
S0
G1 X204.699 S645
S0
G1 X204.826 S607
S0
G1 X204.953 S512
S0
G1 X205.080 S451
S0
G1 X205.207 S274
S0
G1 X205.334 S117
S0
G1 X205.461 S125
S0
G1 X205.588 S461
S0
G1 X205.715 S531
S0
G1 X205.842 S441
S0
G1 X205.969 S321
S0
G1 X206.096 S453
S0
G1 X206.223 S418
S0
G1 X206.350 S379
S0
G1 X206.477 S343
S0
G1 X206.604 S320
S0
G1 X206.731 S351
S0
G1 X206.858 S393
S0
G1 X206.985 S469
S0
G1 X207.112 S411
S0
G1 X207.239 S370
S0
G1 X207.366 S386
S0
G1 X207.493 S375
S0
G1 X207.620 S367
S0
G1 X207.747 S344
S0
G1 X207.874 S352
S0
G1 X208.001 S355
S0
G1 X208.128 S366
S0
G1 X208.255 S363
S0
G1 X208.382 S383
S0
G1 X208.509 S387
S0
G1 X208.636 S367
S0
G1 X208.763 S344
S0
G1 X208.890 S363
S0
G1 X209.017 S395
S0
G1 X209.144 S386
S0
G1 X209.271 S375
S0
G1 X209.398 S387
S0
G1 X209.525 S390
S0
G1 X209.652 S398
S0
G1 X209.779 S427
S0
G1 X209.906 S411
S0
G1 X210.033 S427
S0
G1 X210.160 S439
S0
G1 X210.287 S419
S0
G1 X210.414 S417
S0
G1 X210.541 S434
S0
G1 X210.668 S412
S0
G1 X210.795 S390
S0
G1 X210.922 S407
S0
G1 X211.049 S426
S0
G1 X211.176 S419
S0
G1 X211.303 S403
S0
G1 X211.430 S441
S0
G1 X211.557 S411
S0
G1 X211.684 S458
S0
G1 X211.811 S592
S0
G1 X211.938 S520
S0
G1 X212.065 S478
S0
G1 X212.192 S458
S0
G1 X212.319 S459
S0
G1 X212.446 S482
S0
G1 X212.573 S421
S0
G1 X212.700 S477
S0
G1 X212.827 S482
S0
G1 X212.954 S509
S0
G1 X213.081 S533
S0
G1 X213.208 S493
S0
G1 X213.335 S457
S0
G1 X213.462 S448
S0
G1 X213.589 S482
S0
G1 X213.716 S468
S0
G1 X213.843 S375
S0
G1 X213.970 S491
S0
G1 X214.097 S427
S0
G1 X214.224 S394
S0
G1 X214.351 S445
S0
G1 X214.478 S453
S0
G1 X214.605 S445
S0
G1 X214.732 S437
S0
G1 X214.859 S418
S0
G1 X214.986 S442
S0
G1 X215.113 S379
S0
G1 X215.240 S396
S0
G1 X215.367 S415
S0
G1 X215.494 S407
S0
G1 X215.621 S351
S0
G1 X215.748 S378
S0
G1 X215.875 S393
S0
G1 X216.002 S386
S0
G1 X216.129 S356
S0
G1 X216.256 S346
S0
G1 X216.383 S323
S0
G1 X216.510 S339
S0
G1 X216.637 S465
S0
G1 X216.764 S512
S0
G1 X216.891 S576
S0
G1 X217.018 S433
S0
G1 X217.145 S454
S0
G1 X217.272 S557
S0
G1 X217.399 S480
S0
G1 X217.526 S460
S0
G1 X217.653 S382
S0
G1 X217.780 S343
S0
G1 X217.907 S358
S0
G1 X218.034 S331
S0
G1 X218.161 S355
S0
G1 X218.288 S357
S0
G1 X218.415 S307
S0
G1 X218.542 S300
S0
G1 X218.669 S340
S0
G1 X218.796 S359
S0
G1 X218.923 S345
S0
G1 X219.050 S340
S0
G1 X219.177 S344
S0
G1 X219.304 S335
S0
G1 X219.431 S339
S0
G1 X219.558 S344
S0
G1 X219.685 S383
S0
G1 X219.812 S395
S0
G1 X219.939 S386
S0
G1 X220.066 S388
S0
G1 X220.193 S482
S0
G1 X220.320 S446
S0
G1 X220.447 S360
S0
G1 X220.574 S437
S0
G1 X220.701 S473
S0
G1 X220.828 S401
S0
G1 X220.955 S482
S0
G1 X221.082 S417
S0
G1 X221.209 S415
S0
G1 X221.336 S451
S0
G1 X221.463 S472
S0
G1 X221.590 S452
S0
G1 X221.717 S439
S0
G1 X221.844 S489
S0
G1 X221.971 S405
S0
G1 X222.098 S319
S0
G1 X222.225 S418
S0
G1 X222.352 S469
S0
G1 X222.479 S460
S0
G1 X222.606 S461
S0
G1 X222.733 S469
S0
G1 X222.860 S319
S0
G1 X222.987 S364
S0
G1 X223.114 S469
S0
G1 X223.241 S399
S0
G1 X223.368 S351
S0
G1 X223.495 S389
S0
G1 X223.622 S407
S0
G1 X223.749 S419
S0
G1 X223.876 S462
S0
G1 X224.003 S410
S0
G1 X224.130 S356
S0
G1 X224.257 S382
S0
G1 X224.384 S366
S0
G1 X224.511 S370
S0
G1 X224.638 S364
S0
G1 X224.765 S340
S0
G1 X224.892 S427
S0
G1 X225.019 S525
S0
G1 X225.146 S445
S0
G1 X225.273 S477
S0
G1 X225.400 S387
S0
G1 X225.527 S344
S0
G1 X225.654 S356
S0
G1 X225.781 S454
S0
G1 X225.908 S427
S0
G1 X226.035 S423
S0
G1 X226.162 S462
S0
G1 X226.289 S363
S0
G1 X226.416 S360
S0
G1 X226.543 S364
S0
G1 X226.670 S372
S0
G1 X226.797 S356
S0
G1 X226.924 S372
S0
G1 X227.051 S384
S0
G1 X227.178 S379
S0
G1 X227.305 S397
S0
G1 X227.432 S374
S0
G1 X227.559 S390
S0
G1 X227.686 S418
S0
G1 X227.813 S349
S0
G1 X227.940 S353
S0
G1 X228.067 S343
S0
G1 X228.194 S316
S0
G1 X228.321 S343
S0
G1 X228.448 S355
S0
G1 X228.575 S427
S0
G1 X228.702 S450
S0
G1 X228.829 S356
S0
G1 X228.956 S374
S0
G1 X229.083 S395
S0
G1 X229.210 S386
S0
G1 X229.337 S366
S0
G1 X229.464 S410
S0
G1 X229.591 S497
S0
G1 X229.718 S473
S0
G1 X229.845 S578
S0
G1 X229.972 S502
S0
G1 X230.099 S457
S0
G1 X230.226 S438
S0
G1 X230.353 S272
S0
G1 X230.480 S312
S0
G1 X230.607 S453
S0
G1 X230.734 S446
S0
G1 X230.861 S434
S0
G1 X230.988 S416
S0
G1 X231.115 S442
S0
G1 X231.242 S449
S0
G1 X231.369 S454
S0
G1 X231.496 S398
S0
G1 X231.623 S313
S0
G1 X231.750 S317
S0
G1 X231.877 S362
S0
G1 X232.004 S355
S0
G1 X232.131 S340
S0
G1 X232.258 S356
S0
G1 X232.385 S347
S0
G1 X232.512 S367
S0
G1 X232.639 S395
S0
G1 X232.766 S364
S0
G1 X232.893 S390
S0
G1 X233.020 S378
S0
G1 X233.147 S367
S0
G1 X233.274 S360
S0
G1 X233.401 S402
S0
G1 X233.528 S403
S0
G1 X233.655 S438
S0
G1 X233.782 S458
S0
G1 X233.909 S429
S0
G1 X234.036 S383
S0
G1 X234.163 S392
S0
G1 X234.290 S391
S0
G1 X234.417 S352
S0
G1 X234.544 S344
S0
G1 X234.671 S348
S0
G1 X234.798 S350
S0
G1 X234.925 S368
S0
G1 X235.052 S343
S0
G1 X235.179 S355
S0
G1 X235.306 S348
S0
G1 X235.433 S349
S0
G1 X235.560 S352
S0
G1 X235.687 S336
S0
G1 X235.814 S367
S0
G1 X235.941 S374
S0
G1 X236.068 S360
S0
G1 X236.195 S368
S0
G1 X236.322 S379
S0
G1 X236.449 S399
S0
G1 X236.576 S376
S0
G1 X236.703 S372
S0
G1 X236.830 S363
S0
G1 X236.957 S344
S0
G1 X237.084 S362
S0
G1 X237.211 S356
S0
G1 X237.338 S363
S0
G1 X237.465 S352
S0
G1 X237.592 S358
S0
G1 X237.719 S375
S0
G1 X237.846 S372
S0
G1 X237.973 S364
S0
G1 X238.100 S363
S0
G1 X238.227 S372
S0
G1 X238.354 S385
S0
G1 X238.481 S379
S0
G1 X238.735 S390
S0
G1 X238.862 S388
S0
G1 X238.989 S381
S0
G1 X239.116 S374
S0
G1 X239.243 S349
S0
G1 X239.370 S353
S0
G1 X239.497 S349
S0
G1 X239.751 S337
S0
G1 X239.878 S344
S0
G1 X240.132 S351
S0
G1 X240.259 S367
S0
G1 X240.386 S368
S0
G1 X240.513 S336
S0
G1 X240.640 S329
S0
