; GCODE generated by Laserweb
; Laser Min: 0%
; Laser Max: 100%
; Black Speed: 200mm/min
; White Speed: 800mm/min
; Resolution (mm per pixel): 0.12699999999999187mm
; Laser Spot Size: NaNmm
; Laser Feedrate: 2000mm/min
; X Offset: 200mm
; Y Offset: 0mm 

G1 F1000
; Start GCode
G92
G90
G1Z0
M3S0

G0 Y37.465
G0 X200.000 S0
G1 X200.254 S648
S0
G1 X200.508 S652
S0
G1 X201.016 S648
S0
G1 X201.143 S647
S0
G1 X201.397 S651
S0
G1 X201.524 S649
S0
G1 X201.905 S648
S0
G1 X202.032 S653
S0
G1 X202.159 S652
S0
G1 X202.413 S653
S0
G1 X202.540 S649
S0
G1 X202.667 S657
S0
G1 X202.794 S652
S0
G1 X203.175 S656
S0
G1 X203.302 S655
S0
G1 X203.556 S656
S0
G1 X203.810 S655
S0
G1 X203.937 S656
S0
G1 X204.064 S654
S0
G1 X204.318 S657
S0
G1 X204.445 S656
S0
G1 X204.572 S657
S0
G1 X206.096 S656
S0
G1 X206.350 S657
S0
G1 X206.858 S655
S0
G1 X207.112 S656
S0
G1 X207.620 S655
S0
G1 X207.747 S656
S0
G1 X207.874 S655
S0
G1 X208.001 S656
S0
G1 X208.128 S658
S0
G1 X208.255 S651
S0
G1 X208.382 S643
S0
G1 X208.509 S651
S0
G1 X208.636 S649
S0
G1 X208.763 S647
S0
G1 X208.890 S649
S0
G1 X209.017 S641
S0
G1 X209.271 S652
S0
G1 X209.398 S645
S0
G1 X209.525 S652
S0
G1 X209.652 S641
S0
G1 X209.779 S655
S0
G1 X209.906 S644
S0
G1 X210.033 S629
S0
G1 X210.160 S633
S0
G1 X210.287 S637
S0
G1 X210.414 S620
S0
G1 X210.541 S608
S0
G1 X210.668 S598
S0
G1 X210.795 S569
S0
G1 X210.922 S525
S0
G1 X211.049 S483
S0
G1 X211.176 S436
S0
G1 X211.303 S417
S0
G1 X211.430 S413
S0
G1 X211.557 S409
S0
G1 X211.684 S401
S0
G1 X211.811 S425
S0
G1 X211.938 S487
S0
G1 X212.065 S570
S0
G1 X212.192 S623
S0
G1 X212.319 S641
S0
G1 X212.446 S624
S0
G1 X212.573 S608
S0
G1 X212.700 S574
S0
G1 X212.827 S533
S0
G1 X212.954 S495
S0
G1 X213.081 S476
S0
G1 X213.208 S468
S0
G1 X213.462 S451
S0
G1 X213.589 S439
S0
G1 X213.716 S447
S0
G1 X213.843 S437
S0
G1 X213.970 S432
S0
G1 X214.097 S435
S0
G1 X214.605 S427
S0
G1 X214.732 S423
S0
G1 X214.859 S427
S0
G1 X214.986 S419
S0
G1 X215.113 S391
S0
G1 X215.240 S372
S0
G1 X215.367 S342
S0
G1 X215.621 S323
S0
G1 X215.748 S319
S0
G1 X216.129 S323
S0
G1 X216.256 S327
S0
G1 X216.383 S344
S0
G1 X216.510 S357
S0
G1 X216.637 S377
S0
G1 X216.764 S392
S0
G1 X216.891 S398
S0
G1 X217.018 S396
S0
G1 X217.145 S392
S0
G1 X217.399 S393
S0
G1 X217.526 S384
S0
G1 X217.780 S377
S0
G1 X218.161 S381
S0
G1 X218.288 S377
S0
G1 X218.415 S380
S0
G1 X218.669 S384
S0
G1 X218.796 S376
S0
G1 X218.923 S372
S0
G1 X219.050 S377
S0
G1 X219.177 S373
S0
G1 X219.304 S374
S0
G1 X219.431 S365
S0
G1 X219.558 S370
S0
G1 X219.685 S362
S0
G1 X219.812 S354
S0
G1 X219.939 S343
S0
G1 X220.066 S334
S0
G1 X220.193 S329
S0
G1 X220.320 S330
S0
G1 X220.574 S326
S0
G1 X220.701 S321
S0
G1 X220.828 S323
S0
G1 X220.955 S326
S0
G1 X221.082 S333
S0
G1 X221.209 S343
S0
G1 X221.336 S351
S0
G1 X221.463 S361
S0
G1 X221.590 S370
S0
G1 X221.717 S378
S0
G1 X221.844 S385
S0
G1 X221.971 S399
S0
G1 X222.098 S411
S0
G1 X222.225 S424
S0
G1 X222.352 S440
S0
G1 X222.479 S446
S0
G1 X222.606 S455
S0
G1 X222.733 S464
S0
G1 X222.860 S472
S0
G1 X222.987 S483
S0
G1 X223.114 S491
S0
G1 X223.241 S495
S0
G1 X223.368 S503
S0
G1 X223.495 S506
S0
G1 X223.622 S504
S0
G1 X223.749 S511
S0
G1 X223.876 S499
S0
G1 X224.003 S504
S0
G1 X224.257 S508
S0
G1 X224.384 S510
S0
G1 X224.511 S503
S0
G1 X224.638 S496
S0
G1 X224.765 S500
S0
G1 X224.892 S514
S0
G1 X225.019 S507
S0
G1 X225.146 S471
S0
G1 X225.273 S453
S0
G1 X225.400 S454
S0
G1 X225.527 S472
S0
G1 X225.654 S480
S0
G1 X225.781 S464
S0
G1 X225.908 S429
S0
G1 X226.035 S390
S0
G1 X226.162 S386
S0
G1 X226.289 S390
S0
G1 X226.416 S398
S0
G1 X226.543 S405
S0
G1 X226.670 S420
S0
G1 X226.797 S436
S0
G1 X226.924 S447
S0
G1 X227.051 S459
S0
G1 X227.178 S471
S0
G1 X227.305 S487
S0
G1 X227.432 S495
S0
G1 X227.686 S503
S0
G1 X227.813 S474
S0
G1 X227.940 S455
S0
G1 X228.067 S443
S0
G1 X228.194 S435
S0
G1 X228.321 S441
S0
G1 X228.448 S432
S0
G1 X228.575 S420
S0
G1 X228.702 S413
S0
G1 X228.829 S425
S0
G1 X228.956 S443
S0
G1 X229.083 S484
S0
G1 X229.210 S539
S0
G1 X229.337 S570
S0
G1 X229.464 S602
S0
G1 X229.591 S640
S0
G1 X229.845 S656
S0
G1 X229.972 S657
S0
G1 X230.099 S656
S0
G1 X230.226 S655
S0
G1 X230.480 S657
S0
G1 X230.734 S656
S0
G1 X230.861 S657
S0
G1 X231.115 S652
S0
G1 X231.369 S649
S0
G1 X231.496 S653
S0
G1 X231.623 S648
S0
G1 X231.750 S649
S0
G1 X231.877 S653
S0
G1 X232.004 S651
S0
G1 X232.131 S648
S0
G1 X232.258 S639
S0
G1 X232.385 S635
S0
G1 X232.512 S631
S0
G1 X232.639 S639
S0
G1 X232.766 S647
S0
G1 X232.893 S651
S0
G1 X233.020 S649
S0
G1 X233.274 S645
S0
G1 X233.401 S640
S0
G1 X233.528 S636
S0
G1 X233.655 S635
S0
G1 X233.782 S632
S0
G1 X233.909 S649
S0
G1 X234.036 S655
S0
G1 X234.163 S651
S0
G1 X234.290 S657
S0
G1 X234.417 S661
S0
G1 X234.544 S664
S0
G1 X234.798 S656
S0
G1 X234.925 S664
S0
G1 X235.052 S656
S0
G1 X235.179 S652
S0
G1 X235.560 S653
S0
G1 X235.687 S652
S0
G1 X235.941 S651
S0
G1 X236.068 S652
S0
G1 X236.449 S657
S0
G1 X237.084 S655
S0
G1 X237.338 S657
S0
G1 X237.592 S656
S0
G1 X237.719 S657
S0
G1 X238.354 S655
S0
G1 X238.735 S652
S0
G1 X238.862 S648
S0
G1 X238.989 S651
S0
G1 X239.116 S652
S0
G1 X239.243 S647
S0
G1 X239.497 S648
S0
G1 X239.751 S649
S0
G1 X239.878 S645
S0
G1 X240.259 S644
S0
G1 X240.386 S649
S0
G1 X240.513 S645
S0
G1 X240.640 S641
S0
G1 X240.767 S632
S0
G1 X240.894 S624
S0
G1 X241.021 S620
S0
G1 X241.148 S612
S0
G1 X241.402 S605
S0
G1 X241.529 S601
S0
G1 X241.656 S608
S0
G1 X241.783 S609
S0
G1 X241.910 S605
S0
G1 X242.037 S608
S0
G1 X242.164 S604
S0
G1 X242.291 S597
S0
G1 X242.418 S593
S0
G1 X242.672 S584
S0
G1 X242.799 S592
S0
G1 X242.926 S601
S0
G1 X243.053 S612
S0
G1 X243.180 S608
S0
G1 X243.307 S604
S0
G1 X243.434 S596
S0
G1 X243.561 S582
S0
G1 X243.688 S585
S0
G1 X243.815 S592
S0
G1 X243.942 S609
S0
G1 X244.069 S617
S0
G1 X244.196 S625
S0
G1 X244.323 S632
S0
G1 X244.450 S637
S0
G1 X244.577 S634
S0
G1 X244.704 S631
S0
G1 X244.831 S637
S0
G1 X244.958 S635
S0
G1 X245.085 S636
S0
G1 X245.212 S640
S0
G1 X245.339 S639
S0
G1 X245.466 S644
S0
G1 X245.720 S639
S0
G1 X245.847 S640
S0
G1 X245.974 S639
S0
G1 X246.228 S640
S0
G1 X246.355 S643
S0
G1 X246.482 S640
S0
G1 X246.609 S643
S0
G1 X247.117 S640
S0
G1 X247.498 S636
S0
G1 X247.625 S633
S0
G1 X247.752 S638
S0
G1 X249.022 S633
S0
G1 X249.403 S628
S0
G1 X249.657 S623
S0
G1 X249.784 S624
S0
G1 X250.038 S623
S0
G0 Y37.338
G0 X250.038 S0
G1 X249.784 S626
S0
G1 X249.657 S624
S0
G1 X249.530 S626
S0
G1 X249.276 S624
S0
G1 X249.149 S625
S0
G1 X249.022 S629
S0
G1 X248.895 S632
S0
G1 X248.768 S631
S0
G1 X248.641 S628
S0
G1 X248.133 S632
S0
G1 X247.752 S634
S0
G1 X247.498 S632
S0
G1 X247.371 S637
S0
G1 X247.117 S638
S0
G1 X246.863 S641
S0
G1 X246.736 S642
S0
G1 X246.609 S640
S0
G1 X246.355 S642
S0
G1 X246.228 S641
S0
G1 X246.101 S640
S0
G1 X245.974 S639
S0
G1 X245.847 S641
S0
G1 X245.720 S640
S0
G1 X245.339 S641
S0
G1 X245.085 S639
S0
G1 X244.577 S640
S0
G1 X244.450 S637
S0
G1 X244.323 S623
S0
G1 X244.196 S612
S0
G1 X244.069 S605
S0
G1 X243.942 S602
S0
G1 X243.815 S590
S0
G1 X243.688 S571
S0
G1 X243.561 S557
S0
G1 X243.434 S553
S0
G1 X243.307 S566
S0
G1 X243.180 S573
S0
G1 X243.053 S581
S0
G1 X242.926 S587
S0
G1 X242.799 S581
S0
G1 X242.672 S569
S0
G1 X242.545 S553
S0
G1 X242.291 S545
S0
G1 X242.164 S553
S0
G1 X242.037 S559
S0
G1 X241.910 S573
S0
G1 X241.783 S581
S0
G1 X241.656 S585
S0
G1 X241.529 S578
S0
G1 X241.402 S573
S0
G1 X241.275 S582
S0
G1 X241.148 S590
S0
G1 X241.021 S600
S0
G1 X240.894 S614
S0
G1 X240.767 S621
S0
G1 X240.640 S633
S0
G1 X240.132 S641
S0
G1 X240.005 S640
S0
G1 X239.751 S644
S0
G1 X239.243 S648
S0
G1 X238.989 S647
S0
G1 X238.862 S652
S0
G1 X238.735 S651
S0
G1 X238.608 S657
S0
G1 X238.481 S655
S0
G1 X238.227 S656
S0
G1 X237.846 S655
S0
G1 X237.719 S656
S0
G1 X236.068 S655
S0
G1 X235.941 S652
S0
G1 X235.814 S653
S0
G1 X235.560 S651
S0
G1 X235.433 S652
S0
G1 X235.306 S655
S0
G1 X235.052 S651
S0
G1 X234.798 S655
S0
G1 X234.671 S648
S0
G1 X234.544 S652
S0
G1 X234.417 S656
S0
G1 X234.290 S652
S0
G1 X234.163 S647
S0
G1 X234.036 S648
S0
G1 X233.909 S647
S0
G1 X233.782 S639
S0
G1 X233.655 S627
S0
G1 X233.528 S615
S0
G1 X233.401 S605
S0
G1 X233.274 S614
S0
G1 X233.147 S626
S0
G1 X233.020 S632
S0
G1 X232.893 S636
S0
G1 X232.766 S632
S0
G1 X232.639 S629
S0
G1 X232.512 S625
S0
G1 X232.385 S621
S0
G1 X232.258 S625
S0
G1 X232.004 S629
S0
G1 X231.877 S632
S0
G1 X231.623 S636
S0
G1 X231.496 S640
S0
G1 X231.369 S649
S0
G1 X230.988 S648
S0
G1 X230.607 S653
S0
G1 X230.480 S657
S0
G1 X230.226 S656
S0
G1 X230.099 S657
S0
G1 X229.972 S659
S0
G1 X229.845 S655
S0
G1 X229.718 S659
S0
G1 X229.591 S660
S0
G1 X229.464 S628
S0
G1 X229.337 S562
S0
G1 X229.210 S529
S0
G1 X229.083 S520
S0
G1 X228.956 S492
S0
G1 X228.829 S481
S0
G1 X228.702 S459
S0
G1 X228.575 S439
S0
G1 X228.321 S431
S0
G1 X228.067 S428
S0
G1 X227.940 S431
S0
G1 X227.813 S441
S0
G1 X227.686 S460
S0
G1 X227.559 S472
S0
G1 X227.432 S465
S0
G1 X227.305 S463
S0
G1 X227.178 S459
S0
G1 X227.051 S451
S0
G1 X226.924 S440
S0
G1 X226.797 S429
S0
G1 X226.670 S412
S0
G1 X226.543 S400
S0
G1 X226.289 S389
S0
G1 X226.162 S381
S0
G1 X226.035 S378
S0
G1 X225.908 S362
S0
G1 X225.781 S378
S0
G1 X225.654 S397
S0
G1 X225.527 S394
S0
G1 X225.400 S385
S0
G1 X225.273 S369
S0
G1 X225.146 S365
S0
G1 X225.019 S369
S0
G1 X224.892 S443
S0
G1 X224.638 S510
S0
G1 X224.511 S502
S0
G1 X224.384 S507
S0
G1 X224.257 S510
S0
G1 X224.130 S519
S0
G1 X224.003 S507
S0
G1 X223.876 S510
S0
G1 X223.749 S507
S0
G1 X223.622 S506
S0
G1 X223.495 S510
S0
G1 X223.368 S503
S0
G1 X223.241 S494
S0
G1 X223.114 S490
S0
G1 X222.987 S486
S0
G1 X222.860 S479
S0
G1 X222.733 S471
S0
G1 X222.606 S467
S0
G1 X222.479 S459
S0
G1 X222.352 S451
S0
G1 X222.225 S432
S0
G1 X222.098 S419
S0
G1 X221.971 S407
S0
G1 X221.844 S396
S0
G1 X221.717 S385
S0
G1 X221.590 S382
S0
G1 X221.463 S374
S0
G1 X221.336 S364
S0
G1 X221.209 S358
S0
G1 X221.082 S347
S0
G1 X220.955 S333
S0
G1 X220.828 S330
S0
G1 X220.701 S326
S0
G1 X220.574 S330
S0
G1 X220.320 S326
S0
G1 X220.066 S329
S0
G1 X219.939 S338
S0
G1 X219.812 S354
S0
G1 X219.685 S356
S0
G1 X219.558 S365
S0
G1 X219.431 S370
S0
G1 X219.304 S368
S0
G1 X219.177 S369
S0
G1 X218.923 S368
S0
G1 X218.796 S369
S0
G1 X218.669 S373
S0
G1 X218.542 S382
S0
G1 X218.415 S378
S0
G1 X218.288 S372
S0
G1 X218.161 S369
S0
G1 X218.034 S370
S0
G1 X217.907 S366
S0
G1 X217.653 S369
S0
G1 X217.526 S372
S0
G1 X217.399 S373
S0
G1 X217.272 S377
S0
G1 X217.145 S376
S0
G1 X216.891 S378
S0
G1 X216.764 S373
S0
G1 X216.637 S365
S0
G1 X216.510 S353
S0
G1 X216.383 S341
S0
G1 X216.256 S337
S0
G1 X216.129 S326
S0
G1 X216.002 S322
S0
G1 X215.367 S318
S0
G1 X215.240 S333
S0
G1 X215.113 S357
S0
G1 X214.986 S384
S0
G1 X214.859 S413
S0
G1 X214.732 S419
S0
G1 X214.605 S423
S0
G1 X214.351 S433
S0
G1 X214.224 S423
S0
G1 X214.097 S378
S0
G1 X213.970 S356
S0
G1 X213.843 S372
S0
G1 X213.716 S394
S0
G1 X213.589 S419
S0
G1 X213.462 S447
S0
G1 X213.335 S452
S0
G1 X213.208 S428
S0
G1 X213.081 S409
S0
G1 X212.954 S436
S0
G1 X212.827 S498
S0
G1 X212.700 S554
S0
G1 X212.573 S590
S0
G1 X212.446 S621
S0
G1 X212.319 S641
S0
G1 X212.192 S645
S0
G1 X212.065 S573
S0
G1 X211.938 S449
S0
G1 X211.811 S374
S0
G1 X211.684 S343
S0
G1 X211.557 S330
S0
G1 X211.430 S338
S0
G1 X211.303 S337
S0
G1 X211.176 S326
S0
G1 X211.049 S333
S0
G1 X210.922 S361
S0
G1 X210.795 S418
S0
G1 X210.668 S504
S0
G1 X210.541 S562
S0
G1 X210.414 S574
S0
G1 X210.287 S585
S0
G1 X210.160 S598
S0
G1 X210.033 S606
S0
G1 X209.906 S604
S0
G1 X209.779 S614
S0
G1 X209.652 S630
S0
G1 X209.525 S645
S0
G1 X209.398 S659
S0
G1 X209.271 S648
S0
G1 X209.144 S652
S0
G1 X209.017 S651
S0
G1 X208.890 S644
S0
G1 X208.763 S653
S0
G1 X208.636 S660
S0
G1 X208.509 S656
S0
G1 X208.382 S653
S0
G1 X208.255 S649
S0
G1 X207.874 S657
S0
G1 X207.747 S655
S0
G1 X207.366 S657
S0
G1 X206.477 S656
S0
G1 X206.350 S655
S0
G1 X206.223 S656
S0
G1 X206.096 S655
S0
G1 X204.826 S656
S0
G1 X204.572 S657
S0
G1 X204.318 S656
S0
G1 X204.064 S657
S0
G1 X203.683 S656
S0
G1 X203.556 S655
S0
G1 X203.429 S656
S0
G1 X203.175 S655
S0
G1 X202.794 S656
S0
G1 X202.667 S653
S0
G1 X202.540 S657
S0
G1 X202.413 S648
S0
G1 X202.159 S652
S0
G1 X202.032 S653
S0
G1 X201.778 S652
S0
G1 X201.651 S649
S0
G1 X201.397 S648
S0
G1 X200.508 S649
S0
G1 X200.254 S653
S0
G1 X200.000 S649
S0
G0 Y37.211
G0 X200.000 S0
G1 X200.254 S649
S0
G1 X200.508 S652
S0
G1 X201.016 S648
S0
G1 X201.397 S647
S0
G1 X201.905 S648
S0
G1 X202.286 S652
S0
G1 X202.540 S651
S0
G1 X203.556 S655
S0
G1 X203.810 S657
S0
G1 X204.064 S655
S0
G1 X204.191 S656
S0
G1 X204.318 S657
S0
G1 X204.572 S656
S0
G1 X204.826 S657
S0
G1 X205.080 S656
S0
G1 X206.223 S657
S0
G1 X206.350 S655
S0
G1 X207.112 S656
S0
G1 X207.239 S655
S0
G1 X207.366 S656
S0
G1 X207.620 S655
S0
G1 X207.874 S657
S0
G1 X208.001 S656
S0
G1 X208.128 S651
S0
G1 X208.255 S648
S0
G1 X208.509 S656
S0
G1 X208.636 S660
S0
G1 X208.763 S655
S0
G1 X208.890 S645
S0
G1 X209.017 S649
S0
G1 X209.144 S657
S0
G1 X209.271 S655
S0
G1 X209.398 S636
S0
G1 X209.525 S614
S0
G1 X209.652 S585
S0
G1 X209.779 S580
S0
G1 X209.906 S582
S0
G1 X210.033 S578
S0
G1 X210.287 S565
S0
G1 X210.414 S554
S0
G1 X210.541 S536
S0
G1 X210.668 S499
S0
G1 X210.795 S431
S0
G1 X210.922 S347
S0
G1 X211.049 S310
S0
G1 X211.176 S301
S0
G1 X211.303 S307
S0
G1 X211.430 S312
S0
G1 X211.557 S327
S0
G1 X211.684 S333
S0
G1 X211.811 S335
S0
G1 X211.938 S326
S0
G1 X212.065 S343
S0
G1 X212.192 S447
S0
G1 X212.319 S553
S0
G1 X212.446 S625
S0
G1 X212.573 S640
S0
G1 X212.700 S605
S0
G1 X212.827 S521
S0
G1 X212.954 S434
S0
G1 X213.081 S376
S0
G1 X213.208 S347
S0
G1 X213.335 S346
S0
G1 X213.462 S351
S0
G1 X213.589 S339
S0
G1 X213.716 S318
S0
G1 X213.843 S309
S0
G1 X213.970 S303
S0
G1 X214.097 S291
S0
G1 X214.224 S318
S0
G1 X214.351 S373
S0
G1 X214.478 S416
S0
G1 X214.605 S440
S0
G1 X214.732 S428
S0
G1 X214.859 S413
S0
G1 X214.986 S398
S0
G1 X215.113 S370
S0
G1 X215.240 S341
S0
G1 X215.367 S330
S0
G1 X216.129 S318
S0
G1 X216.256 S322
S0
G1 X216.383 S323
S0
G1 X216.510 S325
S0
G1 X216.637 S329
S0
G1 X216.764 S334
S0
G1 X216.891 S343
S0
G1 X217.018 S350
S0
G1 X217.272 S354
S0
G1 X217.399 S350
S0
G1 X217.526 S358
S0
G1 X217.780 S357
S0
G1 X218.034 S353
S0
G1 X218.161 S357
S0
G1 X218.288 S362
S0
G1 X218.415 S365
S0
G1 X218.542 S368
S0
G1 X218.669 S369
S0
G1 X218.796 S365
S0
G1 X218.923 S361
S0
G1 X219.050 S364
S0
G1 X219.177 S360
S0
G1 X219.304 S365
S0
G1 X219.431 S364
S0
G1 X219.685 S368
S0
G1 X219.812 S360
S0
G1 X219.939 S356
S0
G1 X220.066 S347
S0
G1 X220.193 S334
S0
G1 X220.320 S331
S0
G1 X220.447 S330
S0
G1 X220.574 S326
S0
G1 X220.701 S330
S0
G1 X220.828 S334
S0
G1 X220.955 S333
S0
G1 X221.082 S347
S0
G1 X221.209 S355
S0
G1 X221.336 S361
S0
G1 X221.463 S370
S0
G1 X221.590 S373
S0
G1 X221.717 S381
S0
G1 X221.844 S385
S0
G1 X221.971 S396
S0
G1 X222.098 S410
S0
G1 X222.225 S421
S0
G1 X222.352 S436
S0
G1 X222.479 S440
S0
G1 X222.606 S451
S0
G1 X222.733 S459
S0
G1 X222.860 S467
S0
G1 X222.987 S472
S0
G1 X223.114 S478
S0
G1 X223.241 S485
S0
G1 X223.368 S493
S0
G1 X223.495 S497
S0
G1 X223.622 S505
S0
G1 X223.749 S509
S0
G1 X223.876 S501
S0
G1 X224.003 S509
S0
G1 X224.130 S510
S0
G1 X224.257 S505
S0
G1 X224.511 S511
S0
G1 X224.638 S509
S0
G1 X224.765 S499
S0
G1 X224.892 S435
S0
G1 X225.019 S382
S0
G1 X225.146 S361
S0
G1 X225.273 S348
S0
G1 X225.400 S340
S0
G1 X225.527 S348
S0
G1 X225.908 S353
S0
G1 X226.035 S361
S0
G1 X226.162 S373
S0
G1 X226.289 S377
S0
G1 X226.416 S382
S0
G1 X226.543 S393
S0
G1 X226.670 S400
S0
G1 X226.797 S413
S0
G1 X226.924 S420
S0
G1 X227.051 S428
S0
G1 X227.178 S427
S0
G1 X227.305 S432
S0
G1 X227.559 S436
S0
G1 X227.813 S444
S0
G1 X228.067 S435
S0
G1 X228.194 S441
S0
G1 X228.321 S439
S0
G1 X228.448 S453
S0
G1 X228.575 S460
S0
G1 X228.702 S469
S0
G1 X228.829 S484
S0
G1 X228.956 S516
S0
G1 X229.083 S514
S0
G1 X229.210 S515
S0
G1 X229.337 S502
S0
G1 X229.464 S525
S0
G1 X229.591 S605
S0
G1 X229.718 S656
S0
G1 X229.845 S660
S0
G1 X229.972 S657
S0
G1 X230.099 S656
S0
G1 X230.226 S657
S0
G1 X230.353 S661
S0
G1 X230.480 S655
S0
G1 X230.607 S660
S0
G1 X230.988 S653
S0
G1 X231.369 S650
S0
G1 X231.496 S646
S0
G1 X231.877 S637
S0
G1 X232.004 S626
S0
G1 X232.131 S620
S0
G1 X232.258 S614
S0
G1 X232.385 S606
S0
G1 X232.512 S602
S0
G1 X232.639 S608
S0
G1 X232.893 S613
S0
G1 X233.020 S605
S0
G1 X233.147 S603
S0
G1 X233.274 S599
S0
G1 X233.401 S594
S0
G1 X233.528 S590
S0
G1 X233.655 S596
S0
G1 X233.782 S617
S0
G1 X233.909 S633
S0
G1 X234.163 S639
S0
G1 X234.290 S637
S0
G1 X234.417 S645
S0
G1 X234.671 S652
S0
G1 X234.798 S649
S0
G1 X234.925 S651
S0
G1 X235.306 S648
S0
G1 X235.560 S649
S0
G1 X235.687 S644
S0
G1 X235.814 S646
S0
G1 X236.195 S649
S0
G1 X236.322 S653
S0
G1 X236.449 S657
S0
G1 X236.576 S653
S0
G1 X236.957 S656
S0
G1 X237.719 S657
S0
G1 X237.973 S656
S0
G1 X238.100 S657
S0
G1 X238.354 S656
S0
G1 X238.481 S657
S0
G1 X238.862 S653
S0
G1 X238.989 S648
S0
G1 X239.370 S644
S0
G1 X239.497 S640
S0
G1 X239.624 S644
S0
G1 X239.751 S646
S0
G1 X240.005 S640
S0
G1 X240.259 S639
S0
G1 X240.386 S641
S0
G1 X240.513 S637
S0
G1 X240.640 S640
S0
G1 X240.767 S638
S0
G1 X240.894 S621
S0
G1 X241.021 S609
S0
G1 X241.148 S597
S0
G1 X241.275 S581
S0
G1 X241.402 S570
S0
G1 X241.656 S566
S0
G1 X241.783 S574
S0
G1 X241.910 S567
S0
G1 X242.037 S551
S0
G1 X242.164 S531
S0
G1 X242.291 S523
S0
G1 X242.418 S518
S0
G1 X242.545 S522
S0
G1 X242.672 S537
S0
G1 X242.799 S561
S0
G1 X242.926 S574
S0
G1 X243.053 S578
S0
G1 X243.180 S570
S0
G1 X243.307 S561
S0
G1 X243.434 S550
S0
G1 X243.561 S542
S0
G1 X243.688 S550
S0
G1 X243.815 S567
S0
G1 X243.942 S585
S0
G1 X244.069 S594
S0
G1 X244.196 S597
S0
G1 X244.323 S606
S0
G1 X244.450 S617
S0
G1 X244.577 S633
S0
G1 X244.831 S641
S0
G1 X244.958 S644
S0
G1 X245.085 S648
S0
G1 X245.212 S643
S0
G1 X245.339 S645
S0
G1 X245.466 S641
S0
G1 X245.720 S644
S0
G1 X245.974 S642
S0
G1 X246.736 S641
S0
G1 X246.990 S645
S0
G1 X247.117 S641
S0
G1 X247.244 S642
S0
G1 X247.371 S638
S0
G1 X247.498 S637
S0
G1 X247.752 S632
S0
G1 X247.879 S633
S0
G1 X248.006 S637
S0
G1 X248.260 S633
S0
G1 X248.641 S634
S0
G1 X248.768 S632
S0
G1 X248.895 S634
S0
G1 X249.022 S637
S0
G1 X249.149 S628
S0
G1 X249.276 S624
S0
G1 X250.038 S625
S0
G0 Y37.084
G0 X250.038 S0
G1 X249.784 S624
S0
G1 X249.657 S625
S0
G1 X249.530 S629
S0
G1 X249.276 S624
S0
G1 X249.149 S625
S0
G1 X249.022 S629
S0
G1 X248.895 S636
S0
G1 X248.133 S632
S0
G1 X248.006 S633
S0
G1 X247.879 S637
S0
G1 X247.752 S633
S0
G1 X247.625 S637
S0
G1 X247.498 S633
S0
G1 X247.371 S637
S0
G1 X247.244 S638
S0
G1 X247.117 S637
S0
G1 X246.990 S640
S0
G1 X246.863 S641
S0
G1 X246.736 S640
S0
G1 X246.482 S641
S0
G1 X246.355 S637
S0
G1 X246.228 S641
S0
G1 X245.974 S642
S0
G1 X245.847 S639
S0
G1 X245.720 S640
S0
G1 X245.339 S645
S0
G1 X244.958 S644
S0
G1 X244.831 S643
S0
G1 X244.577 S639
S0
G1 X244.450 S637
S0
G1 X244.323 S633
S0
G1 X244.196 S624
S0
G1 X244.069 S617
S0
G1 X243.942 S604
S0
G1 X243.815 S605
S0
G1 X243.688 S597
S0
G1 X243.561 S580
S0
G1 X243.434 S575
S0
G1 X243.307 S578
S0
G1 X243.180 S583
S0
G1 X243.053 S585
S0
G1 X242.926 S582
S0
G1 X242.799 S570
S0
G1 X242.672 S554
S0
G1 X242.545 S538
S0
G1 X242.418 S525
S0
G1 X242.291 S517
S0
G1 X242.164 S521
S0
G1 X242.037 S538
S0
G1 X241.910 S558
S0
G1 X241.783 S567
S0
G1 X241.656 S575
S0
G1 X241.529 S574
S0
G1 X241.402 S571
S0
G1 X241.275 S574
S0
G1 X241.148 S583
S0
G1 X241.021 S598
S0
G1 X240.894 S606
S0
G1 X240.767 S614
S0
G1 X240.640 S626
S0
G1 X240.386 S633
S0
G1 X240.259 S639
S0
G1 X240.132 S636
S0
G1 X240.005 S632
S0
G1 X239.624 S636
S0
G1 X239.370 S641
S0
G1 X239.116 S644
S0
G1 X238.989 S647
S0
G1 X238.862 S652
S0
G1 X238.735 S653
S0
G1 X238.608 S651
S0
G1 X238.481 S655
S0
G1 X238.227 S659
S0
G1 X238.100 S661
S0
G1 X237.846 S657
S0
G1 X237.719 S656
S0
G1 X237.084 S655
S0
G1 X236.576 S657
S0
G1 X236.449 S656
S0
G1 X236.322 S657
S0
G1 X236.195 S651
S0
G1 X235.941 S647
S0
G1 X235.687 S649
S0
G1 X235.560 S647
S0
G1 X235.306 S649
S0
G1 X235.052 S648
S0
G1 X234.925 S644
S0
G1 X234.798 S645
S0
G1 X234.671 S641
S0
G1 X234.544 S645
S0
G1 X234.417 S641
S0
G1 X234.290 S628
S0
G1 X234.036 S620
S0
G1 X233.909 S624
S0
G1 X233.782 S616
S0
G1 X233.655 S603
S0
G1 X233.528 S586
S0
G1 X233.401 S578
S0
G1 X233.274 S574
S0
G1 X233.147 S571
S0
G1 X233.020 S574
S0
G1 X232.893 S582
S0
G1 X232.639 S590
S0
G1 X232.512 S585
S0
G1 X232.385 S586
S0
G1 X232.258 S594
S0
G1 X232.131 S610
S0
G1 X232.004 S621
S0
G1 X231.877 S633
S0
G1 X231.623 S644
S0
G1 X231.496 S641
S0
G1 X231.369 S640
S0
G1 X231.242 S644
S0
G1 X230.988 S649
S0
G1 X230.861 S648
S0
G1 X230.607 S652
S0
G1 X230.353 S656
S0
G1 X230.226 S657
S0
G1 X230.099 S656
S0
G1 X229.972 S652
S0
G1 X229.845 S657
S0
G1 X229.718 S664
S0
G1 X229.591 S641
S0
G1 X229.464 S582
S0
G1 X229.337 S539
S0
G1 X229.210 S522
S0
G1 X229.083 S523
S0
G1 X228.956 S506
S0
G1 X228.829 S492
S0
G1 X228.702 S467
S0
G1 X228.575 S471
S0
G1 X228.448 S474
S0
G1 X228.321 S471
S0
G1 X228.194 S468
S0
G1 X228.067 S467
S0
G1 X227.940 S455
S0
G1 X227.813 S432
S0
G1 X227.686 S424
S0
G1 X227.432 S425
S0
G1 X227.305 S424
S0
G1 X227.178 S417
S0
G1 X227.051 S412
S0
G1 X226.924 S413
S0
G1 X226.797 S407
S0
G1 X226.670 S408
S0
G1 X226.543 S401
S0
G1 X226.416 S388
S0
G1 X226.289 S394
S0
G1 X226.162 S381
S0
G1 X225.908 S366
S0
G1 X225.781 S346
S0
G1 X225.654 S343
S0
G1 X225.527 S353
S0
G1 X225.400 S354
S0
G1 X225.273 S352
S0
G1 X224.892 S361
S0
G1 X224.765 S385
S0
G1 X224.638 S458
S0
G1 X224.511 S511
S0
G1 X224.384 S502
S0
G1 X224.257 S503
S0
G1 X224.130 S507
S0
G1 X224.003 S511
S0
G1 X223.876 S499
S0
G1 X223.622 S490
S0
G1 X223.368 S503
S0
G1 X223.241 S490
S0
G1 X223.114 S483
S0
G1 X222.987 S474
S0
G1 X222.860 S467
S0
G1 X222.733 S465
S0
G1 X222.606 S457
S0
G1 X222.479 S444
S0
G1 X222.352 S428
S0
G1 X222.225 S423
S0
G1 X222.098 S414
S0
G1 X221.971 S402
S0
G1 X221.844 S394
S0
G1 X221.717 S385
S0
G1 X221.590 S381
S0
G1 X221.336 S377
S0
G1 X221.209 S370
S0
G1 X221.082 S360
S0
G1 X220.955 S353
S0
G1 X220.828 S339
S0
G1 X220.701 S335
S0
G1 X220.574 S331
S0
G1 X220.447 S327
S0
G1 X220.320 S330
S0
G1 X220.193 S334
S0
G1 X220.066 S331
S0
G1 X219.939 S348
S0
G1 X219.812 S362
S0
G1 X219.685 S366
S0
G1 X219.431 S370
S0
G1 X219.304 S366
S0
G1 X219.177 S367
S0
G1 X218.923 S366
S0
G1 X218.796 S363
S0
G1 X218.669 S361
S0
G1 X218.542 S363
S0
G1 X218.288 S359
S0
G1 X218.161 S351
S0
G1 X218.034 S347
S0
G1 X217.907 S342
S0
G1 X217.780 S345
S0
G1 X217.653 S347
S0
G1 X217.526 S343
S0
G1 X217.399 S339
S0
G1 X217.145 S334
S0
G1 X217.018 S335
S0
G1 X216.891 S330
S0
G1 X216.764 S329
S0
G1 X216.637 S325
S0
G1 X216.383 S323
S0
G1 X216.256 S318
S0
G1 X215.875 S319
S0
G1 X215.367 S315
S0
G1 X215.240 S323
S0
G1 X215.113 S339
S0
G1 X214.986 S346
S0
G1 X214.859 S361
S0
G1 X214.732 S373
S0
G1 X214.605 S389
S0
G1 X214.478 S398
S0
G1 X214.351 S362
S0
G1 X214.224 S302
S0
G1 X213.970 S287
S0
G1 X213.843 S291
S0
G1 X213.716 S294
S0
G1 X213.589 S298
S0
G1 X213.462 S294
S0
G1 X213.335 S302
S0
G1 X213.208 S308
S0
G1 X213.081 S323
S0
G1 X212.954 S338
S0
G1 X212.827 S353
S0
G1 X212.700 S441
S0
G1 X212.573 S555
S0
G1 X212.446 S559
S0
G1 X212.319 S508
S0
G1 X212.192 S441
S0
G1 X212.065 S380
S0
G1 X211.938 S353
S0
G1 X211.811 S358
S0
G1 X211.684 S339
S0
G1 X211.557 S326
S0
G1 X211.430 S317
S0
G1 X211.303 S316
S0
G1 X211.176 S322
S0
G1 X211.049 S317
S0
G1 X210.922 S319
S0
G1 X210.795 S330
S0
G1 X210.668 S370
S0
G1 X210.541 S421
S0
G1 X210.414 S465
S0
G1 X210.287 S486
S0
G1 X210.160 S498
S0
G1 X210.033 S531
S0
G1 X209.906 S551
S0
G1 X209.779 S527
S0
G1 X209.652 S478
S0
G1 X209.525 S447
S0
G1 X209.398 S471
S0
G1 X209.271 S543
S0
G1 X209.144 S624
S0
G1 X209.017 S672
S0
G1 X208.890 S668
S0
G1 X208.763 S655
S0
G1 X208.636 S660
S0
G1 X208.509 S657
S0
G1 X208.382 S648
S0
G1 X208.255 S652
S0
G1 X208.001 S651
S0
G1 X206.350 S655
S0
G1 X206.223 S657
S0
G1 X206.096 S655
S0
G1 X205.715 S658
S0
G1 X205.461 S655
S0
G1 X205.080 S651
S0
G1 X204.826 S655
S0
G1 X204.699 S656
S0
G1 X204.572 S657
S0
G1 X204.445 S655
S0
G1 X204.318 S656
S0
G1 X204.191 S657
S0
G1 X203.810 S656
S0
G1 X203.683 S655
S0
G1 X203.175 S657
S0
G1 X203.048 S656
S0
G1 X202.794 S658
S0
G1 X202.540 S656
S0
G1 X202.159 S652
S0
G1 X202.032 S653
S0
G1 X201.778 S652
S0
G1 X201.397 S648
S0
G1 X201.016 S650
S0
G1 X200.508 S649
S0
G1 X200.381 S653
S0
G1 X200.000 S649
S0
G0 Y36.957
G0 X200.000 S0
G1 X200.508 S647
S0
G1 X201.016 S650
S0
G1 X201.778 S648
S0
G1 X202.032 S651
S0
G1 X202.540 S652
S0
G1 X202.667 S653
S0
G1 X203.048 S657
S0
G1 X203.175 S656
S0
G1 X203.556 S657
S0
G1 X203.937 S656
S0
G1 X204.191 S657
S0
G1 X204.318 S655
S0
G1 X204.445 S657
S0
G1 X204.572 S656
S0
G1 X204.699 S655
S0
G1 X204.826 S657
S0
G1 X205.080 S656
S0
G1 X205.461 S652
S0
G1 X206.096 S656
S0
G1 X206.223 S655
S0
G1 X206.350 S657
S0
G1 X206.477 S655
S0
G1 X206.604 S656
S0
G1 X206.731 S655
S0
G1 X206.858 S657
S0
G1 X207.112 S656
S0
G1 X207.620 S657
S0
G1 X208.001 S655
S0
G1 X208.128 S651
S0
G1 X208.255 S650
S0
G1 X208.382 S651
S0
G1 X208.509 S652
S0
G1 X208.636 S636
S0
G1 X208.763 S629
S0
G1 X208.890 S627
S0
G1 X209.017 S612
S0
G1 X209.144 S580
S0
G1 X209.271 S500
S0
G1 X209.398 S409
S0
G1 X209.652 S353
S0
G1 X209.779 S377
S0
G1 X209.906 S436
S0
G1 X210.033 S479
S0
G1 X210.160 S464
S0
G1 X210.287 S406
S0
G1 X210.414 S389
S0
G1 X210.541 S390
S0
G1 X210.668 S370
S0
G1 X210.795 S342
S0
G1 X211.049 S329
S0
G1 X211.303 S334
S0
G1 X211.430 S330
S0
G1 X211.557 S318
S0
G1 X211.684 S319
S0
G1 X211.811 S331
S0
G1 X211.938 S368
S0
G1 X212.065 S386
S0
G1 X212.192 S400
S0
G1 X212.319 S401
S0
G1 X212.446 S405
S0
G1 X212.573 S465
S0
G1 X212.700 S476
S0
G1 X212.827 S391
S0
G1 X212.954 S335
S0
G1 X213.081 S319
S0
G1 X213.208 S309
S0
G1 X213.589 S314
S0
G1 X213.716 S310
S0
G1 X213.843 S290
S0
G1 X214.097 S287
S0
G1 X214.224 S271
S0
G1 X214.351 S270
S0
G1 X214.478 S305
S0
G1 X214.605 S325
S0
G1 X214.732 S321
S0
G1 X214.859 S325
S0
G1 X214.986 S330
S0
G1 X215.113 S325
S0
G1 X215.240 S322
S0
G1 X215.367 S315
S0
G1 X215.494 S311
S0
G1 X216.002 S315
S0
G1 X216.256 S319
S0
G1 X216.637 S314
S0
G1 X216.764 S317
S0
G1 X216.891 S321
S0
G1 X217.145 S326
S0
G1 X217.272 S327
S0
G1 X217.399 S334
S0
G1 X217.526 S333
S0
G1 X217.653 S331
S0
G1 X218.034 S334
S0
G1 X218.161 S342
S0
G1 X218.288 S346
S0
G1 X218.415 S353
S0
G1 X218.542 S355
S0
G1 X218.669 S354
S0
G1 X218.796 S358
S0
G1 X218.923 S361
S0
G1 X219.304 S365
S0
G1 X219.685 S368
S0
G1 X219.939 S365
S0
G1 X220.066 S351
S0
G1 X220.193 S329
S0
G1 X220.447 S334
S0
G1 X220.574 S329
S0
G1 X220.828 S333
S0
G1 X220.955 S337
S0
G1 X221.082 S354
S0
G1 X221.209 S361
S0
G1 X221.336 S369
S0
G1 X221.590 S378
S0
G1 X221.717 S382
S0
G1 X221.971 S386
S0
G1 X222.098 S389
S0
G1 X222.225 S396
S0
G1 X222.352 S405
S0
G1 X222.479 S419
S0
G1 X222.606 S444
S0
G1 X222.733 S452
S0
G1 X222.860 S460
S0
G1 X222.987 S467
S0
G1 X223.114 S475
S0
G1 X223.241 S480
S0
G1 X223.368 S486
S0
G1 X223.495 S500
S0
G1 X223.622 S510
S0
G1 X223.749 S538
S0
G1 X223.876 S503
S0
G1 X224.003 S472
S0
G1 X224.130 S482
S0
G1 X224.257 S492
S0
G1 X224.384 S495
S0
G1 X224.638 S506
S0
G1 X224.765 S438
S0
G1 X224.892 S372
S0
G1 X225.019 S357
S0
G1 X225.146 S370
S0
G1 X225.273 S377
S0
G1 X225.400 S349
S0
G1 X225.527 S346
S0
G1 X225.654 S355
S0
G1 X225.781 S353
S0
G1 X225.908 S356
S0
G1 X226.035 S361
S0
G1 X226.162 S366
S0
G1 X226.289 S382
S0
G1 X226.416 S386
S0
G1 X226.543 S382
S0
G1 X226.797 S389
S0
G1 X226.924 S396
S0
G1 X227.178 S413
S0
G1 X227.305 S409
S0
G1 X227.432 S417
S0
G1 X227.559 S416
S0
G1 X227.686 S420
S0
G1 X227.813 S429
S0
G1 X227.940 S448
S0
G1 X228.067 S479
S0
G1 X228.194 S499
S0
G1 X228.321 S508
S0
G1 X228.448 S507
S0
G1 X228.575 S495
S0
G1 X228.702 S486
S0
G1 X228.829 S476
S0
G1 X228.956 S480
S0
G1 X229.083 S503
S0
G1 X229.210 S526
S0
G1 X229.337 S546
S0
G1 X229.464 S558
S0
G1 X229.591 S569
S0
G1 X229.718 S621
S0
G1 X229.845 S660
S0
G1 X229.972 S663
S0
G1 X230.099 S653
S0
G1 X230.353 S652
S0
G1 X230.480 S653
S0
G1 X230.607 S651
S0
G1 X230.734 S647
S0
G1 X230.988 S650
S0
G1 X231.242 S647
S0
G1 X231.496 S643
S0
G1 X231.623 S646
S0
G1 X231.877 S649
S0
G1 X232.004 S636
S0
G1 X232.131 S625
S0
G1 X232.258 S610
S0
G1 X232.385 S589
S0
G1 X232.512 S574
S0
G1 X232.766 S569
S0
G1 X233.020 S571
S0
G1 X233.147 S564
S0
G1 X233.274 S557
S0
G1 X233.401 S558
S0
G1 X233.528 S566
S0
G1 X233.655 S578
S0
G1 X233.782 S590
S0
G1 X233.909 S606
S0
G1 X234.036 S609
S0
G1 X234.163 S605
S0
G1 X234.290 S606
S0
G1 X234.417 S618
S0
G1 X234.544 S630
S0
G1 X234.798 S629
S0
G1 X234.925 S632
S0
G1 X235.052 S640
S0
G1 X235.433 S648
S0
G1 X235.560 S653
S0
G1 X235.687 S648
S0
G1 X236.195 S649
S0
G1 X236.322 S648
S0
G1 X236.576 S651
S0
G1 X236.703 S653
S0
G1 X237.338 S657
S0
G1 X237.592 S656
S0
G1 X237.719 S652
S0
G1 X238.100 S657
S0
G1 X238.354 S652
S0
G1 X238.608 S657
S0
G1 X238.735 S653
S0
G1 X238.989 S652
S0
G1 X239.116 S648
S0
G1 X239.370 S646
S0
G1 X239.497 S642
S0
G1 X239.624 S638
S0
G1 X239.751 S637
S0
G1 X240.005 S634
S0
G1 X240.259 S630
S0
G1 X240.386 S634
S0
G1 X240.513 S628
S0
G1 X240.640 S624
S0
G1 X240.767 S613
S0
G1 X240.894 S601
S0
G1 X241.021 S597
S0
G1 X241.148 S589
S0
G1 X241.275 S581
S0
G1 X241.656 S574
S0
G1 X241.783 S573
S0
G1 X241.910 S574
S0
G1 X242.037 S570
S0
G1 X242.164 S559
S0
G1 X242.291 S541
S0
G1 X242.418 S543
S0
G1 X242.545 S546
S0
G1 X242.672 S555
S0
G1 X242.799 S575
S0
G1 X242.926 S585
S0
G1 X243.053 S597
S0
G1 X243.180 S612
S0
G1 X243.307 S617
S0
G1 X243.434 S613
S0
G1 X243.561 S618
S0
G1 X243.688 S620
S0
G1 X243.942 S632
S0
G1 X244.069 S629
S0
G1 X244.196 S637
S0
G1 X244.323 S644
S0
G1 X244.577 S645
S0
G1 X244.704 S641
S0
G1 X244.958 S642
S0
G1 X245.085 S646
S0
G1 X245.212 S640
S0
G1 X245.593 S641
S0
G1 X245.720 S639
S0
G1 X245.974 S645
S0
G1 X246.482 S639
S0
G1 X246.609 S641
S0
G1 X246.736 S642
S0
G1 X246.863 S641
S0
G1 X246.990 S640
S0
G1 X247.117 S641
S0
G1 X247.244 S636
S0
G1 X247.371 S637
S0
G1 X247.498 S638
S0
G1 X247.625 S633
S0
G1 X247.752 S637
S0
G1 X248.387 S633
S0
G1 X248.768 S632
S0
G1 X248.895 S633
S0
G1 X249.022 S637
S0
G1 X249.149 S633
S0
G1 X249.657 S629
S0
G1 X249.784 S625
S0
G1 X250.038 S629
S0
G0 Y36.830
G0 X250.038 S0
G1 X249.530 S625
S0
G1 X249.149 S629
S0
G1 X249.022 S633
S0
G1 X248.895 S637
S0
G1 X248.133 S633
S0
G1 X248.006 S637
S0
G1 X247.752 S638
S0
G1 X247.625 S641
S0
G1 X247.498 S638
S0
G1 X247.117 S641
S0
G1 X246.990 S639
S0
G1 X246.863 S641
S0
G1 X246.736 S635
S0
G1 X246.355 S641
S0
G1 X246.101 S639
S0
G1 X245.720 S644
S0
G1 X245.466 S641
S0
G1 X245.085 S640
S0
G1 X244.831 S641
S0
G1 X244.704 S640
S0
G1 X244.577 S637
S0
G1 X244.450 S640
S0
G1 X244.323 S641
S0
G1 X244.196 S642
S0
G1 X244.069 S646
S0
G1 X243.942 S644
S0
G1 X243.815 S649
S0
G1 X243.688 S645
S0
G1 X243.561 S639
S0
G1 X243.434 S637
S0
G1 X243.307 S634
S0
G1 X243.180 S633
S0
G1 X243.053 S628
S0
G1 X242.926 S617
S0
G1 X242.799 S605
S0
G1 X242.672 S597
S0
G1 X242.545 S582
S0
G1 X242.418 S568
S0
G1 X242.164 S565
S0
G1 X242.037 S561
S0
G1 X241.910 S559
S0
G1 X241.783 S562
S0
G1 X241.529 S570
S0
G1 X241.402 S574
S0
G1 X241.275 S573
S0
G1 X241.148 S577
S0
G1 X241.021 S586
S0
G1 X240.894 S590
S0
G1 X240.767 S594
S0
G1 X240.640 S602
S0
G1 X240.513 S617
S0
G1 X240.386 S628
S0
G1 X240.259 S633
S0
G1 X240.005 S634
S0
G1 X239.624 S638
S0
G1 X239.497 S637
S0
G1 X239.370 S641
S0
G1 X239.243 S642
S0
G1 X239.116 S646
S0
G1 X238.735 S650
S0
G1 X238.608 S653
S0
G1 X238.354 S649
S0
G1 X238.227 S645
S0
G1 X238.100 S649
S0
G1 X236.830 S657
S0
G1 X236.322 S653
S0
G1 X235.687 S650
S0
G1 X235.560 S652
S0
G1 X235.433 S656
S0
G1 X235.052 S652
S0
G1 X234.925 S636
S0
G1 X234.798 S632
S0
G1 X234.671 S629
S0
G1 X234.417 S625
S0
G1 X234.290 S609
S0
G1 X234.036 S605
S0
G1 X233.909 S601
S0
G1 X233.782 S602
S0
G1 X233.655 S597
S0
G1 X233.528 S582
S0
G1 X233.274 S561
S0
G1 X233.147 S566
S0
G1 X232.766 S570
S0
G1 X232.639 S578
S0
G1 X232.512 S582
S0
G1 X232.385 S586
S0
G1 X232.258 S602
S0
G1 X232.131 S617
S0
G1 X232.004 S632
S0
G1 X231.877 S638
S0
G1 X231.750 S645
S0
G1 X231.623 S648
S0
G1 X231.242 S649
S0
G1 X230.734 S647
S0
G1 X230.607 S648
S0
G1 X230.480 S644
S0
G1 X230.353 S643
S0
G1 X230.226 S648
S0
G1 X230.099 S645
S0
G1 X229.972 S652
S0
G1 X229.845 S663
S0
G1 X229.718 S640
S0
G1 X229.591 S601
S0
G1 X229.464 S573
S0
G1 X229.337 S586
S0
G1 X229.210 S573
S0
G1 X229.083 S551
S0
G1 X228.956 S538
S0
G1 X228.829 S522
S0
G1 X228.702 S524
S0
G1 X228.575 S530
S0
G1 X228.448 S531
S0
G1 X228.321 S536
S0
G1 X228.194 S538
S0
G1 X228.067 S523
S0
G1 X227.940 S499
S0
G1 X227.813 S471
S0
G1 X227.686 S444
S0
G1 X227.559 S432
S0
G1 X227.432 S415
S0
G1 X227.305 S412
S0
G1 X227.178 S409
S0
G1 X227.051 S417
S0
G1 X226.924 S413
S0
G1 X226.797 S393
S0
G1 X226.670 S382
S0
G1 X226.543 S377
S0
G1 X226.416 S374
S0
G1 X226.289 S369
S0
G1 X226.162 S374
S0
G1 X226.035 S366
S0
G1 X225.908 S362
S0
G1 X225.781 S361
S0
G1 X225.654 S357
S0
G1 X225.527 S350
S0
G1 X225.400 S358
S0
G1 X225.273 S368
S0
G1 X225.146 S364
S0
G1 X225.019 S377
S0
G1 X224.892 S370
S0
G1 X224.765 S354
S0
G1 X224.638 S405
S0
G1 X224.511 S452
S0
G1 X224.384 S476
S0
G1 X224.257 S499
S0
G1 X224.130 S558
S0
G1 X224.003 S592
S0
G1 X223.876 S640
S0
G1 X223.749 S730
S0
G1 X223.622 S672
S0
G1 X223.495 S518
S0
G1 X223.368 S482
S0
G1 X223.241 S483
S0
G1 X223.114 S476
S0
G1 X222.987 S471
S0
G1 X222.860 S468
S0
G1 X222.733 S457
S0
G1 X222.606 S453
S0
G1 X222.479 S440
S0
G1 X222.352 S417
S0
G1 X222.225 S405
S0
G1 X222.098 S393
S0
G1 X221.971 S389
S0
G1 X221.844 S386
S0
G1 X221.717 S382
S0
G1 X221.590 S374
S0
G1 X221.463 S370
S0
G1 X221.209 S367
S0
G1 X221.082 S357
S0
G1 X220.955 S350
S0
G1 X220.828 S342
S0
G1 X220.574 S339
S0
G1 X220.193 S334
S0
G1 X220.066 S335
S0
G1 X219.939 S350
S0
G1 X219.685 S359
S0
G1 X219.558 S363
S0
G1 X219.431 S367
S0
G1 X219.304 S363
S0
G1 X219.177 S361
S0
G1 X219.050 S362
S0
G1 X218.923 S365
S0
G1 X218.796 S361
S0
G1 X218.542 S358
S0
G1 X218.288 S354
S0
G1 X218.161 S350
S0
G1 X218.034 S342
S0
G1 X217.780 S334
S0
G1 X217.653 S330
S0
G1 X217.526 S331
S0
G1 X217.399 S334
S0
G1 X217.145 S335
S0
G1 X217.018 S331
S0
G1 X216.891 S327
S0
G1 X216.764 S322
S0
G1 X216.637 S318
S0
G1 X216.383 S313
S0
G1 X216.256 S317
S0
G1 X216.002 S319
S0
G1 X215.621 S315
S0
G1 X215.240 S311
S0
G1 X215.113 S309
S0
G1 X214.986 S317
S0
G1 X214.859 S314
S0
G1 X214.605 S305
S0
G1 X214.478 S303
S0
G1 X214.351 S291
S0
G1 X214.097 S282
S0
G1 X213.970 S290
S0
G1 X213.843 S294
S0
G1 X213.716 S303
S0
G1 X213.589 S310
S0
G1 X213.335 S319
S0
G1 X213.208 S315
S0
G1 X213.081 S312
S0
G1 X212.954 S316
S0
G1 X212.827 S317
S0
G1 X212.700 S342
S0
G1 X212.573 S400
S0
G1 X212.446 S418
S0
G1 X212.319 S393
S0
G1 X212.065 S400
S0
G1 X211.938 S384
S0
G1 X211.811 S370
S0
G1 X211.684 S345
S0
G1 X211.303 S338
S0
G1 X211.176 S342
S0
G1 X211.049 S338
S0
G1 X210.922 S329
S0
G1 X210.795 S326
S0
G1 X210.668 S330
S0
G1 X210.414 S342
S0
G1 X210.287 S335
S0
G1 X210.160 S353
S0
G1 X210.033 S379
S0
G1 X209.906 S373
S0
G1 X209.779 S346
S0
G1 X209.652 S335
S0
G1 X209.525 S337
S0
G1 X209.398 S342
S0
G1 X209.271 S343
S0
G1 X209.144 S351
S0
G1 X209.017 S380
S0
G1 X208.890 S441
S0
G1 X208.763 S476
S0
G1 X208.636 S499
S0
G1 X208.509 S557
S0
G1 X208.382 S633
S0
G1 X208.255 S660
S0
G1 X207.239 S657
S0
G1 X207.112 S661
S0
G1 X206.731 S657
S0
G1 X206.350 S655
S0
G1 X206.223 S657
S0
G1 X206.096 S655
S0
G1 X205.969 S652
S0
G1 X205.080 S656
S0
G1 X204.826 S655
S0
G1 X204.572 S656
S0
G1 X204.064 S657
S0
G1 X203.937 S656
S0
G1 X203.429 S657
S0
G1 X203.302 S655
S0
G1 X202.667 S657
S0
G1 X202.413 S652
S0
G1 X201.397 S648
S0
G1 X200.762 S650
S0
G1 X200.000 S647
S0
G0 Y36.703
G0 X200.000 S0
G1 X200.762 S647
S0
G1 X201.270 S650
S0
G1 X202.032 S648
S0
G1 X202.159 S649
S0
G1 X202.286 S648
S0
G1 X202.413 S647
S0
G1 X202.540 S651
S0
G1 X202.667 S653
S0
G1 X202.794 S657
S0
G1 X203.048 S656
S0
G1 X203.175 S657
S0
G1 X203.302 S655
S0
G1 X203.683 S657
S0
G1 X203.810 S655
S0
G1 X203.937 S657
S0
G1 X204.064 S656
S0
G1 X204.191 S655
S0
G1 X204.318 S656
S0
G1 X204.572 S655
S0
G1 X204.826 S657
S0
G1 X206.096 S656
S0
G1 X206.223 S657
S0
G1 X206.350 S656
S0
G1 X206.985 S655
S0
G1 X207.112 S657
S0
G1 X207.366 S656
S0
G1 X208.001 S655
S0
G1 X208.128 S659
S0
G1 X208.255 S664
S0
G1 X208.382 S625
S0
G1 X208.509 S567
S0
G1 X208.636 S487
S0
G1 X208.763 S438
S0
G1 X208.890 S412
S0
G1 X209.017 S393
S0
G1 X209.144 S354
S0
G1 X209.271 S353
S0
G1 X209.398 S357
S0
G1 X209.525 S337
S0
G1 X209.652 S314
S0
G1 X209.779 S321
S0
G1 X209.906 S325
S0
G1 X210.033 S330
S0
G1 X210.160 S337
S0
G1 X210.287 S333
S0
G1 X210.414 S322
S0
G1 X210.541 S326
S0
G1 X210.668 S330
S0
G1 X210.922 S326
S0
G1 X211.049 S329
S0
G1 X211.176 S338
S0
G1 X211.430 S342
S0
G1 X211.557 S346
S0
G1 X211.684 S338
S0
G1 X211.811 S341
S0
G1 X211.938 S365
S0
G1 X212.065 S373
S0
G1 X212.192 S369
S0
G1 X212.319 S374
S0
G1 X212.446 S373
S0
G1 X212.573 S369
S0
G1 X212.700 S354
S0
G1 X212.827 S327
S0
G1 X212.954 S314
S0
G1 X213.081 S323
S0
G1 X213.208 S316
S0
G1 X213.335 S315
S0
G1 X213.462 S316
S0
G1 X213.589 S319
S0
G1 X213.716 S316
S0
G1 X213.843 S310
S0
G1 X213.970 S303
S0
G1 X214.097 S294
S0
G1 X214.351 S299
S0
G1 X214.478 S298
S0
G1 X214.732 S310
S0
G1 X214.859 S306
S0
G1 X214.986 S307
S0
G1 X215.240 S309
S0
G1 X215.494 S306
S0
G1 X215.748 S310
S0
G1 X216.002 S314
S0
G1 X216.129 S322
S0
G1 X216.256 S318
S0
G1 X216.383 S317
S0
G1 X216.891 S318
S0
G1 X217.018 S321
S0
G1 X217.145 S326
S0
G1 X217.272 S330
S0
G1 X217.399 S331
S0
G1 X217.526 S339
S0
G1 X217.653 S335
S0
G1 X217.780 S338
S0
G1 X218.034 S342
S0
G1 X218.161 S346
S0
G1 X218.288 S350
S0
G1 X218.542 S354
S0
G1 X218.796 S358
S0
G1 X218.923 S361
S0
G1 X219.050 S367
S0
G1 X219.431 S363
S0
G1 X219.558 S359
S0
G1 X219.685 S355
S0
G1 X219.812 S354
S0
G1 X219.939 S355
S0
G1 X220.066 S346
S0
G1 X220.320 S338
S0
G1 X220.447 S330
S0
G1 X220.574 S334
S0
G1 X220.701 S335
S0
G1 X220.828 S339
S0
G1 X220.955 S342
S0
G1 X221.082 S349
S0
G1 X221.209 S357
S0
G1 X221.336 S361
S0
G1 X221.590 S367
S0
G1 X221.717 S374
S0
G1 X221.844 S382
S0
G1 X221.971 S386
S0
G1 X222.098 S389
S0
G1 X222.225 S397
S0
G1 X222.352 S405
S0
G1 X222.479 S413
S0
G1 X222.606 S436
S0
G1 X222.733 S449
S0
G1 X222.860 S457
S0
G1 X223.114 S463
S0
G1 X223.241 S469
S0
G1 X223.368 S476
S0
G1 X223.495 S472
S0
G1 X223.622 S479
S0
G1 X223.749 S566
S0
G1 X223.876 S730
S0
G1 X224.003 S874
S0
G1 X224.130 S750
S0
G1 X224.257 S656
S0
G1 X224.384 S707
S0
G1 X224.511 S666
S0
G1 X224.638 S581
S0
G1 X224.765 S467
S0
G1 X224.892 S354
S0
G1 X225.019 S315
S0
G1 X225.146 S321
S0
G1 X225.273 S347
S0
G1 X225.400 S370
S0
G1 X225.527 S373
S0
G1 X225.654 S366
S0
G1 X225.781 S354
S0
G1 X225.908 S357
S0
G1 X226.035 S358
S0
G1 X226.162 S366
S0
G1 X226.289 S365
S0
G1 X226.416 S364
S0
G1 X226.543 S369
S0
G1 X226.670 S374
S0
G1 X226.797 S377
S0
G1 X226.924 S384
S0
G1 X227.051 S401
S0
G1 X227.178 S409
S0
G1 X227.305 S408
S0
G1 X227.432 S416
S0
G1 X227.559 S428
S0
G1 X227.686 S449
S0
G1 X227.813 S465
S0
G1 X227.940 S491
S0
G1 X228.067 S515
S0
G1 X228.194 S534
S0
G1 X228.321 S546
S0
G1 X228.448 S542
S0
G1 X228.575 S541
S0
G1 X228.702 S546
S0
G1 X228.829 S541
S0
G1 X228.956 S538
S0
G1 X229.083 S545
S0
G1 X229.210 S558
S0
G1 X229.337 S582
S0
G1 X229.464 S586
S0
G1 X229.591 S573
S0
G1 X229.718 S578
S0
G1 X229.845 S616
S0
G1 X229.972 S653
S0
G1 X230.099 S648
S0
G1 X230.226 S644
S0
G1 X231.115 S648
S0
G1 X231.369 S650
S0
G1 X231.496 S645
S0
G1 X231.623 S649
S0
G1 X231.750 S648
S0
G1 X231.877 S644
S0
G1 X232.004 S646
S0
G1 X232.131 S640
S0
G1 X232.258 S628
S0
G1 X232.385 S625
S0
G1 X232.512 S613
S0
G1 X232.766 S601
S0
G1 X232.893 S593
S0
G1 X233.020 S585
S0
G1 X233.147 S589
S0
G1 X233.401 S590
S0
G1 X233.528 S591
S0
G1 X233.655 S600
S0
G1 X233.782 S610
S0
G1 X234.036 S613
S0
G1 X234.163 S622
S0
G1 X234.290 S621
S0
G1 X234.417 S625
S0
G1 X234.544 S636
S0
G1 X234.925 S640
S0
G1 X235.052 S644
S0
G1 X235.179 S656
S0
G1 X235.560 S652
S0
G1 X235.687 S657
S0
G1 X236.322 S650
S0
G1 X236.830 S653
S0
G1 X237.719 S657
S0
G1 X238.100 S653
S0
G1 X238.608 S649
S0
G1 X238.862 S650
S0
G1 X239.116 S645
S0
G1 X240.005 S641
S0
G1 X240.132 S645
S0
G1 X240.259 S641
S0
G1 X240.386 S637
S0
G1 X240.513 S628
S0
G1 X240.640 S608
S0
G1 X240.767 S602
S0
G1 X240.894 S594
S0
G1 X241.021 S589
S0
G1 X241.148 S585
S0
G1 X241.275 S578
S0
G1 X241.402 S570
S0
G1 X241.529 S559
S0
G1 X241.656 S555
S0
G1 X241.783 S562
S0
G1 X242.037 S553
S0
G1 X242.164 S565
S0
G1 X242.291 S581
S0
G1 X242.418 S590
S0
G1 X242.545 S598
S0
G1 X242.672 S609
S0
G1 X242.799 S621
S0
G1 X242.926 S625
S0
G1 X243.053 S636
S0
G1 X243.180 S641
S0
G1 X243.307 S633
S0
G1 X243.434 S637
S0
G1 X243.688 S636
S0
G1 X243.815 S639
S0
G1 X243.942 S645
S0
G1 X244.069 S644
S0
G1 X244.196 S639
S0
G1 X244.323 S637
S0
G1 X244.450 S641
S0
G1 X244.577 S640
S0
G1 X244.958 S641
S0
G1 X245.339 S640
S0
G1 X245.466 S642
S0
G1 X245.720 S639
S0
G1 X245.974 S644
S0
G1 X246.228 S640
S0
G1 X246.355 S639
S0
G1 X246.482 S635
S0
G1 X246.609 S639
S0
G1 X246.736 S642
S0
G1 X246.990 S641
S0
G1 X247.117 S639
S0
G1 X247.244 S640
S0
G1 X247.371 S639
S0
G1 X247.498 S641
S0
G1 X247.752 S637
S0
G1 X248.133 S635
S0
G1 X248.514 S633
S0
G1 X248.768 S632
S0
G1 X249.022 S633
S0
G1 X249.403 S629
S0
G1 X250.038 S625
S0
G0 Y36.576
G0 X250.038 S0
G1 X249.784 S625
S0
G1 X249.657 S624
S0
G1 X249.403 S625
S0
G1 X249.022 S629
S0
G1 X248.133 S633
S0
G1 X247.752 S637
S0
G1 X247.498 S635
S0
G1 X247.371 S639
S0
G1 X247.244 S640
S0
G1 X247.117 S639
S0
G1 X246.990 S645
S0
G1 X246.863 S641
S0
G1 X246.736 S639
S0
G1 X246.101 S641
S0
G1 X245.847 S644
S0
G1 X245.720 S648
S0
G1 X245.593 S644
S0
G1 X245.466 S640
S0
G1 X244.831 S641
S0
G1 X244.704 S637
S0
G1 X244.450 S641
S0
G1 X244.196 S640
S0
G1 X244.069 S641
S0
G1 X243.942 S638
S0
G1 X243.815 S637
S0
G1 X243.688 S636
S0
G1 X243.434 S637
S0
G1 X243.180 S633
S0
G1 X243.053 S645
S0
G1 X242.926 S649
S0
G1 X242.799 S638
S0
G1 X242.672 S632
S0
G1 X242.545 S629
S0
G1 X242.418 S621
S0
G1 X242.291 S610
S0
G1 X242.164 S600
S0
G1 X242.037 S590
S0
G1 X241.910 S574
S0
G1 X241.783 S565
S0
G1 X241.656 S567
S0
G1 X241.529 S558
S0
G1 X241.402 S554
S0
G1 X241.275 S561
S0
G1 X241.148 S573
S0
G1 X241.021 S577
S0
G1 X240.894 S581
S0
G1 X240.767 S577
S0
G1 X240.640 S585
S0
G1 X240.513 S601
S0
G1 X240.386 S626
S0
G1 X240.259 S636
S0
G1 X240.132 S640
S0
G1 X240.005 S644
S0
G1 X239.878 S640
S0
G1 X239.751 S645
S0
G1 X239.624 S641
S0
G1 X239.497 S645
S0
G1 X239.243 S641
S0
G1 X238.989 S645
S0
G1 X238.862 S649
S0
G1 X238.735 S653
S0
G1 X238.608 S649
S0
G1 X238.354 S653
S0
G1 X238.100 S649
S0
G1 X237.973 S653
S0
G1 X237.846 S657
S0
G1 X237.719 S653
S0
G1 X236.957 S657
S0
G1 X236.576 S653
S0
G1 X236.449 S648
S0
G1 X236.322 S651
S0
G1 X236.195 S647
S0
G1 X235.941 S650
S0
G1 X235.814 S649
S0
G1 X235.687 S650
S0
G1 X235.560 S656
S0
G1 X235.052 S652
S0
G1 X234.925 S648
S0
G1 X234.544 S644
S0
G1 X234.417 S640
S0
G1 X234.290 S632
S0
G1 X234.163 S625
S0
G1 X234.036 S621
S0
G1 X233.909 S617
S0
G1 X233.782 S614
S0
G1 X233.655 S608
S0
G1 X233.528 S610
S0
G1 X233.401 S604
S0
G1 X233.274 S606
S0
G1 X233.147 S609
S0
G1 X232.893 S612
S0
G1 X232.766 S616
S0
G1 X232.639 S624
S0
G1 X232.512 S628
S0
G1 X232.385 S636
S0
G1 X232.258 S640
S0
G1 X232.131 S636
S0
G1 X232.004 S648
S0
G1 X231.877 S650
S0
G1 X231.496 S649
S0
G1 X231.369 S645
S0
G1 X231.242 S650
S0
G1 X230.988 S648
S0
G1 X230.861 S650
S0
G1 X230.734 S647
S0
G1 X230.607 S648
S0
G1 X230.480 S649
S0
G1 X230.353 S647
S0
G1 X230.226 S643
S0
G1 X230.099 S657
S0
G1 X229.972 S655
S0
G1 X229.845 S652
S0
G1 X229.718 S613
S0
G1 X229.591 S562
S0
G1 X229.464 S563
S0
G1 X229.337 S574
S0
G1 X229.210 S571
S0
G1 X229.083 S559
S0
G1 X228.956 S554
S0
G1 X228.829 S546
S0
G1 X228.702 S538
S0
G1 X228.575 S541
S0
G1 X228.448 S546
S0
G1 X228.321 S539
S0
G1 X228.194 S537
S0
G1 X228.067 S539
S0
G1 X227.940 S527
S0
G1 X227.813 S503
S0
G1 X227.686 S479
S0
G1 X227.559 S456
S0
G1 X227.432 S440
S0
G1 X227.305 S425
S0
G1 X227.178 S412
S0
G1 X227.051 S401
S0
G1 X226.924 S397
S0
G1 X226.797 S389
S0
G1 X226.670 S388
S0
G1 X226.543 S377
S0
G1 X226.416 S373
S0
G1 X226.162 S369
S0
G1 X226.035 S374
S0
G1 X225.908 S365
S0
G1 X225.781 S356
S0
G1 X225.654 S357
S0
G1 X225.527 S373
S0
G1 X225.400 S353
S0
G1 X225.273 S334
S0
G1 X225.146 S373
S0
G1 X225.019 S479
S0
G1 X224.892 S584
S0
G1 X224.765 S623
S0
G1 X224.638 S656
S0
G1 X224.511 S643
S0
G1 X224.384 S605
S0
G1 X224.257 S459
S0
G1 X224.130 S423
S0
G1 X224.003 S722
S0
G1 X223.876 S701
S0
G1 X223.749 S483
S0
G1 X223.622 S475
S0
G1 X223.495 S488
S0
G1 X223.368 S476
S0
G1 X223.241 S469
S0
G1 X223.114 S465
S0
G1 X222.860 S461
S0
G1 X222.733 S453
S0
G1 X222.606 S432
S0
G1 X222.479 S424
S0
G1 X222.352 S409
S0
G1 X222.225 S401
S0
G1 X222.098 S393
S0
G1 X221.971 S389
S0
G1 X221.717 S386
S0
G1 X221.590 S378
S0
G1 X221.336 S370
S0
G1 X221.209 S365
S0
G1 X221.082 S357
S0
G1 X220.955 S350
S0
G1 X220.828 S342
S0
G1 X220.574 S335
S0
G1 X220.193 S334
S0
G1 X220.066 S338
S0
G1 X219.939 S350
S0
G1 X219.812 S355
S0
G1 X219.685 S354
S0
G1 X219.558 S359
S0
G1 X219.304 S363
S0
G1 X219.177 S361
S0
G1 X218.923 S363
S0
G1 X218.542 S361
S0
G1 X218.415 S358
S0
G1 X218.288 S354
S0
G1 X218.034 S350
S0
G1 X217.907 S346
S0
G1 X217.780 S350
S0
G1 X217.653 S342
S0
G1 X217.526 S343
S0
G1 X217.399 S339
S0
G1 X217.272 S331
S0
G1 X217.018 S326
S0
G1 X216.891 S319
S0
G1 X216.764 S313
S0
G1 X216.637 S314
S0
G1 X216.383 S315
S0
G1 X216.256 S313
S0
G1 X216.002 S318
S0
G1 X215.875 S310
S0
G1 X215.621 S314
S0
G1 X215.240 S310
S0
G1 X215.113 S311
S0
G1 X214.986 S307
S0
G1 X214.859 S302
S0
G1 X214.605 S305
S0
G1 X214.351 S309
S0
G1 X214.224 S305
S0
G1 X214.097 S309
S0
G1 X213.970 S313
S0
G1 X213.843 S318
S0
G1 X213.716 S321
S0
G1 X213.589 S327
S0
G1 X213.462 S326
S0
G1 X213.208 S314
S0
G1 X213.081 S326
S0
G1 X212.954 S331
S0
G1 X212.827 S322
S0
G1 X212.700 S328
S0
G1 X212.573 S335
S0
G1 X212.446 S345
S0
G1 X212.319 S342
S0
G1 X212.192 S335
S0
G1 X212.065 S350
S0
G1 X211.938 S358
S0
G1 X211.811 S350
S0
G1 X211.684 S337
S0
G1 X211.557 S334
S0
G1 X211.430 S337
S0
G1 X211.303 S334
S0
G1 X211.176 S338
S0
G1 X211.049 S334
S0
G1 X210.922 S326
S0
G1 X210.795 S322
S0
G1 X210.541 S326
S0
G1 X210.414 S319
S0
G1 X210.160 S314
S0
G1 X210.033 S322
S0
G1 X209.906 S323
S0
G1 X209.779 S326
S0
G1 X209.652 S331
S0
G1 X209.525 S339
S0
G1 X209.398 S353
S0
G1 X209.271 S373
S0
G1 X209.144 S377
S0
G1 X209.017 S389
S0
G1 X208.890 S411
S0
G1 X208.763 S429
S0
G1 X208.636 S447
S0
G1 X208.509 S459
S0
G1 X208.382 S508
S0
G1 X208.255 S586
S0
G1 X208.128 S653
S0
G1 X208.001 S663
S0
G1 X207.747 S655
S0
G1 X207.366 S657
S0
G1 X207.112 S659
S0
G1 X206.985 S656
S0
G1 X206.731 S657
S0
G1 X206.350 S655
S0
G1 X206.223 S657
S0
G1 X206.096 S655
S0
G1 X205.080 S656
S0
G1 X204.826 S655
S0
G1 X204.572 S657
S0
G1 X204.318 S656
S0
G1 X204.191 S657
S0
G1 X203.937 S656
S0
G1 X203.556 S657
S0
G1 X203.429 S656
S0
G1 X202.667 S657
S0
G1 X202.540 S653
S0
G1 X202.413 S655
S0
G1 X202.286 S649
S0
G1 X202.159 S650
S0
G1 X202.032 S647
S0
G1 X201.905 S650
S0
G1 X201.651 S647
S0
G1 X201.143 S648
S0
G1 X200.762 S650
S0
G1 X200.127 S647
S0
G1 X200.000 S651
S0
G0 Y36.449
G0 X200.000 S0
G1 X200.762 S647
S0
G1 X200.889 S650
S0
G1 X201.016 S648
S0
G1 X201.143 S647
S0
G1 X201.397 S650
S0
G1 X202.413 S648
S0
G1 X202.540 S652
S0
G1 X203.556 S657
S0
G1 X204.064 S655
S0
G1 X204.953 S656
S0
G1 X205.334 S658
S0
G1 X206.223 S656
S0
G1 X206.350 S657
S0
G1 X206.604 S659
S0
G1 X206.858 S655
S0
G1 X207.112 S657
S0
G1 X207.239 S652
S0
G1 X207.366 S655
S0
G1 X207.620 S656
S0
G1 X207.874 S655
S0
G1 X208.001 S656
S0
G1 X208.128 S659
S0
G1 X208.255 S656
S0
G1 X208.382 S592
S0
G1 X208.509 S514
S0
G1 X208.636 S460
S0
G1 X208.763 S455
S0
G1 X208.890 S456
S0
G1 X209.017 S436
S0
G1 X209.144 S415
S0
G1 X209.271 S398
S0
G1 X209.398 S381
S0
G1 X209.525 S365
S0
G1 X209.652 S361
S0
G1 X209.779 S347
S0
G1 X209.906 S328
S0
G1 X210.033 S323
S0
G1 X210.287 S322
S0
G1 X210.541 S319
S0
G1 X210.668 S316
S0
G1 X210.795 S315
S0
G1 X210.922 S319
S0
G1 X211.049 S322
S0
G1 X211.176 S330
S0
G1 X211.303 S334
S0
G1 X211.430 S333
S0
G1 X211.557 S331
S0
G1 X211.811 S326
S0
G1 X211.938 S338
S0
G1 X212.065 S337
S0
G1 X212.192 S329
S0
G1 X212.319 S331
S0
G1 X212.446 S323
S0
G1 X212.700 S333
S0
G1 X212.827 S329
S0
G1 X212.954 S330
S0
G1 X213.081 S327
S0
G1 X213.208 S322
S0
G1 X213.335 S321
S0
G1 X213.462 S317
S0
G1 X213.589 S325
S0
G1 X213.843 S333
S0
G1 X214.097 S337
S0
G1 X214.224 S321
S0
G1 X214.351 S312
S0
G1 X214.478 S319
S0
G1 X214.605 S314
S0
G1 X214.732 S302
S0
G1 X214.859 S306
S0
G1 X214.986 S298
S0
G1 X215.113 S303
S0
G1 X215.240 S311
S0
G1 X215.367 S313
S0
G1 X215.621 S309
S0
G1 X215.748 S313
S0
G1 X215.875 S317
S0
G1 X216.129 S313
S0
G1 X216.256 S314
S0
G1 X216.383 S309
S0
G1 X216.764 S310
S0
G1 X216.891 S309
S0
G1 X217.018 S318
S0
G1 X217.272 S322
S0
G1 X217.399 S330
S0
G1 X217.526 S337
S0
G1 X217.653 S347
S0
G1 X217.780 S350
S0
G1 X218.288 S354
S0
G1 X218.415 S357
S0
G1 X218.542 S361
S0
G1 X218.669 S369
S0
G1 X218.796 S361
S0
G1 X218.923 S367
S0
G1 X219.050 S355
S0
G1 X219.304 S362
S0
G1 X219.685 S359
S0
G1 X219.939 S355
S0
G1 X220.066 S346
S0
G1 X220.193 S338
S0
G1 X220.320 S334
S0
G1 X220.574 S330
S0
G1 X220.701 S331
S0
G1 X220.828 S335
S0
G1 X220.955 S334
S0
G1 X221.082 S346
S0
G1 X221.209 S361
S0
G1 X221.336 S363
S0
G1 X221.463 S365
S0
G1 X221.590 S370
S0
G1 X221.717 S377
S0
G1 X221.844 S386
S0
G1 X221.971 S390
S0
G1 X222.098 S388
S0
G1 X222.225 S397
S0
G1 X222.352 S401
S0
G1 X222.479 S396
S0
G1 X222.606 S422
S0
G1 X222.733 S430
S0
G1 X222.860 S449
S0
G1 X222.987 S457
S0
G1 X223.114 S453
S0
G1 X223.241 S443
S0
G1 X223.368 S448
S0
G1 X223.495 S440
S0
G1 X223.622 S456
S0
G1 X223.749 S468
S0
G1 X223.876 S447
S0
G1 X224.003 S507
S0
G1 X224.130 S746
S0
G1 X224.257 S623
S0
G1 X224.384 S268
S0
G1 X224.511 S244
S0
G1 X224.638 S295
S0
G1 X224.765 S378
S0
G1 X224.892 S488
S0
G1 X225.019 S569
S0
G1 X225.146 S658
S0
G1 X225.273 S640
S0
G1 X225.400 S511
S0
G1 X225.527 S358
S0
G1 X225.654 S319
S0
G1 X225.781 S365
S0
G1 X225.908 S366
S0
G1 X226.035 S372
S0
G1 X226.162 S381
S0
G1 X226.289 S378
S0
G1 X226.416 S369
S0
G1 X226.543 S381
S0
G1 X226.670 S389
S0
G1 X226.797 S396
S0
G1 X226.924 S397
S0
G1 X227.051 S392
S0
G1 X227.178 S408
S0
G1 X227.305 S421
S0
G1 X227.432 S435
S0
G1 X227.559 S453
S0
G1 X227.686 S468
S0
G1 X227.813 S490
S0
G1 X227.940 S515
S0
G1 X228.067 S530
S0
G1 X228.194 S538
S0
G1 X228.321 S534
S0
G1 X228.448 S533
S0
G1 X228.575 S534
S0
G1 X228.702 S538
S0
G1 X228.829 S543
S0
G1 X228.956 S541
S0
G1 X229.083 S549
S0
G1 X229.210 S557
S0
G1 X229.337 S558
S0
G1 X229.464 S570
S0
G1 X229.591 S565
S0
G1 X229.718 S573
S0
G1 X229.845 S620
S0
G1 X229.972 S655
S0
G1 X230.099 S652
S0
G1 X230.226 S651
S0
G1 X230.480 S648
S0
G1 X230.607 S649
S0
G1 X230.734 S653
S0
G1 X230.861 S647
S0
G1 X230.988 S649
S0
G1 X231.115 S648
S0
G1 X231.242 S649
S0
G1 X231.496 S648
S0
G1 X231.623 S644
S0
G1 X231.750 S645
S0
G1 X231.877 S650
S0
G1 X232.004 S648
S0
G1 X232.512 S652
S0
G1 X232.639 S640
S0
G1 X232.766 S636
S0
G1 X232.893 S629
S0
G1 X233.020 S621
S0
G1 X233.147 S622
S0
G1 X233.274 S618
S0
G1 X233.401 S610
S0
G1 X233.528 S602
S0
G1 X233.655 S593
S0
G1 X233.782 S597
S0
G1 X234.036 S605
S0
G1 X234.163 S609
S0
G1 X234.290 S617
S0
G1 X234.417 S621
S0
G1 X234.544 S632
S0
G1 X234.671 S637
S0
G1 X234.798 S636
S0
G1 X234.925 S644
S0
G1 X235.179 S652
S0
G1 X235.433 S648
S0
G1 X235.560 S652
S0
G1 X235.687 S651
S0
G1 X235.814 S653
S0
G1 X235.941 S646
S0
G1 X236.068 S650
S0
G1 X236.195 S648
S0
G1 X236.322 S650
S0
G1 X236.449 S651
S0
G1 X236.576 S652
S0
G1 X236.830 S653
S0
G1 X236.957 S657
S0
G1 X237.084 S656
S0
G1 X237.211 S657
S0
G1 X237.338 S653
S0
G1 X237.719 S657
S0
G1 X238.100 S656
S0
G1 X238.227 S654
S0
G1 X238.354 S648
S0
G1 X238.481 S649
S0
G1 X238.608 S645
S0
G1 X238.862 S649
S0
G1 X239.116 S648
S0
G1 X239.243 S646
S0
G1 X239.370 S642
S0
G1 X239.497 S640
S0
G1 X240.005 S644
S0
G1 X240.132 S646
S0
G1 X240.259 S640
S0
G1 X240.386 S632
S0
G1 X240.513 S622
S0
G1 X240.640 S603
S0
G1 X240.767 S585
S0
G1 X240.894 S577
S0
G1 X241.021 S573
S0
G1 X241.148 S569
S0
G1 X241.656 S570
S0
G1 X241.783 S575
S0
G1 X241.910 S589
S0
G1 X242.037 S606
S0
G1 X242.164 S613
S0
G1 X242.291 S612
S0
G1 X242.418 S620
S0
G1 X242.545 S632
S0
G1 X242.672 S642
S0
G1 X243.053 S645
S0
G1 X243.180 S641
S0
G1 X243.561 S637
S0
G1 X243.688 S639
S0
G1 X243.815 S645
S0
G1 X243.942 S639
S0
G1 X244.069 S635
S0
G1 X244.450 S641
S0
G1 X244.577 S637
S0
G1 X244.704 S641
S0
G1 X244.958 S639
S0
G1 X245.085 S641
S0
G1 X245.720 S640
S0
G1 X246.101 S644
S0
G1 X246.482 S639
S0
G1 X246.863 S641
S0
G1 X247.117 S642
S0
G1 X247.371 S640
S0
G1 X247.498 S642
S0
G1 X247.625 S638
S0
G1 X247.752 S637
S0
G1 X248.006 S635
S0
G1 X248.260 S637
S0
G1 X249.022 S633
S0
G1 X249.403 S629
S0
G1 X249.530 S625
S0
G1 X249.657 S629
S0
G1 X250.038 S625
S0
G0 Y36.322
G0 X250.038 S0
G1 X249.784 S624
S0
G1 X249.657 S625
S0
G1 X249.530 S629
S0
G1 X249.403 S625
S0
G1 X249.022 S629
S0
G1 X248.641 S633
S0
G1 X248.260 S632
S0
G1 X248.133 S637
S0
G1 X247.752 S635
S0
G1 X247.625 S637
S0
G1 X247.498 S635
S0
G1 X247.371 S639
S0
G1 X246.990 S640
S0
G1 X246.228 S639
S0
G1 X245.974 S640
S0
G1 X245.720 S644
S0
G1 X245.085 S640
S0
G1 X244.831 S641
S0
G1 X244.704 S639
S0
G1 X243.942 S641
S0
G1 X243.815 S644
S0
G1 X243.561 S639
S0
G1 X243.307 S644
S0
G1 X242.926 S641
S0
G1 X242.799 S645
S0
G1 X242.672 S649
S0
G1 X242.545 S643
S0
G1 X242.418 S641
S0
G1 X242.291 S633
S0
G1 X242.164 S628
S0
G1 X242.037 S629
S0
G1 X241.910 S621
S0
G1 X241.783 S610
S0
G1 X241.656 S602
S0
G1 X241.529 S590
S0
G1 X241.402 S586
S0
G1 X241.275 S590
S0
G1 X241.148 S582
S0
G1 X241.021 S578
S0
G1 X240.894 S582
S0
G1 X240.767 S574
S0
G1 X240.640 S586
S0
G1 X240.513 S613
S0
G1 X240.386 S630
S0
G1 X240.259 S638
S0
G1 X240.005 S640
S0
G1 X239.751 S641
S0
G1 X239.624 S645
S0
G1 X239.370 S644
S0
G1 X239.116 S646
S0
G1 X238.989 S650
S0
G1 X238.481 S648
S0
G1 X238.354 S653
S0
G1 X238.100 S650
S0
G1 X237.973 S652
S0
G1 X237.846 S656
S0
G1 X236.957 S657
S0
G1 X236.703 S653
S0
G1 X236.576 S650
S0
G1 X236.449 S653
S0
G1 X236.322 S657
S0
G1 X236.195 S648
S0
G1 X236.068 S644
S0
G1 X235.687 S650
S0
G1 X235.560 S643
S0
G1 X235.433 S653
S0
G1 X235.306 S650
S0
G1 X235.052 S652
S0
G1 X234.925 S650
S0
G1 X234.798 S644
S0
G1 X234.671 S636
S0
G1 X234.544 S632
S0
G1 X234.417 S625
S0
G1 X234.163 S617
S0
G1 X234.036 S609
S0
G1 X233.909 S601
S0
G1 X233.782 S597
S0
G1 X233.655 S585
S0
G1 X233.528 S581
S0
G1 X233.401 S593
S0
G1 X233.274 S605
S0
G1 X233.147 S613
S0
G1 X233.020 S621
S0
G1 X232.893 S626
S0
G1 X232.766 S634
S0
G1 X232.639 S638
S0
G1 X232.512 S644
S0
G1 X231.877 S648
S0
G1 X231.750 S647
S0
G1 X231.496 S649
S0
G1 X231.369 S647
S0
G1 X231.115 S650
S0
G1 X230.988 S648
S0
G1 X230.861 S653
S0
G1 X230.734 S652
S0
G1 X230.607 S651
S0
G1 X230.480 S645
S0
G1 X230.353 S652
S0
G1 X230.226 S649
S0
G1 X230.099 S644
S0
G1 X229.972 S647
S0
G1 X229.845 S653
S0
G1 X229.718 S645
S0
G1 X229.591 S609
S0
G1 X229.464 S581
S0
G1 X229.337 S562
S0
G1 X229.083 S554
S0
G1 X228.956 S551
S0
G1 X228.829 S526
S0
G1 X228.702 S533
S0
G1 X228.575 S539
S0
G1 X228.448 S538
S0
G1 X228.321 S535
S0
G1 X228.067 S534
S0
G1 X227.940 S527
S0
G1 X227.813 S517
S0
G1 X227.686 S496
S0
G1 X227.559 S476
S0
G1 X227.432 S468
S0
G1 X227.305 S452
S0
G1 X227.178 S438
S0
G1 X227.051 S434
S0
G1 X226.924 S419
S0
G1 X226.797 S404
S0
G1 X226.670 S405
S0
G1 X226.543 S402
S0
G1 X226.416 S390
S0
G1 X226.289 S380
S0
G1 X226.162 S381
S0
G1 X226.035 S378
S0
G1 X225.908 S385
S0
G1 X225.781 S364
S0
G1 X225.654 S343
S0
G1 X225.527 S485
S0
G1 X225.400 S629
S0
G1 X225.273 S601
S0
G1 X225.146 S460
S0
G1 X225.019 S313
S0
G1 X224.892 S267
S0
G1 X224.765 S255
S0
G1 X224.638 S253
S0
G1 X224.511 S275
S0
G1 X224.384 S231
S0
G1 X224.257 S485
S0
G1 X224.130 S811
S0
G1 X224.003 S545
S0
G1 X223.876 S420
S0
G1 X223.749 S450
S0
G1 X223.622 S506
S0
G1 X223.495 S582
S0
G1 X223.368 S623
S0
G1 X223.241 S605
S0
G1 X223.114 S499
S0
G1 X222.987 S429
S0
G1 X222.860 S437
S0
G1 X222.733 S433
S0
G1 X222.606 S417
S0
G1 X222.479 S386
S0
G1 X222.352 S370
S0
G1 X222.225 S361
S0
G1 X221.971 S358
S0
G1 X221.844 S359
S0
G1 X221.717 S356
S0
G1 X221.590 S370
S0
G1 X221.463 S373
S0
G1 X221.336 S372
S0
G1 X221.209 S373
S0
G1 X221.082 S345
S0
G1 X220.955 S349
S0
G1 X220.828 S342
S0
G1 X220.701 S326
S0
G1 X220.574 S338
S0
G1 X220.447 S342
S0
G1 X220.320 S338
S0
G1 X220.193 S339
S0
G1 X220.066 S334
S0
G1 X219.939 S337
S0
G1 X219.685 S341
S0
G1 X219.558 S355
S0
G1 X219.431 S358
S0
G1 X219.304 S363
S0
G1 X219.177 S361
S0
G1 X219.050 S362
S0
G1 X218.923 S370
S0
G1 X218.796 S362
S0
G1 X218.669 S361
S0
G1 X218.542 S365
S0
G1 X218.288 S355
S0
G1 X217.907 S354
S0
G1 X217.780 S355
S0
G1 X217.653 S350
S0
G1 X217.526 S347
S0
G1 X217.399 S333
S0
G1 X217.145 S326
S0
G1 X217.018 S321
S0
G1 X216.891 S314
S0
G1 X216.764 S311
S0
G1 X216.383 S310
S0
G1 X216.256 S309
S0
G1 X215.875 S311
S0
G1 X215.621 S314
S0
G1 X215.367 S311
S0
G1 X215.240 S314
S0
G1 X215.113 S307
S0
G1 X214.859 S310
S0
G1 X214.732 S318
S0
G1 X214.605 S323
S0
G1 X214.478 S331
S0
G1 X214.351 S335
S0
G1 X214.224 S339
S0
G1 X214.097 S337
S0
G1 X213.970 S345
S0
G1 X213.843 S343
S0
G1 X213.462 S331
S0
G1 X213.208 S327
S0
G1 X213.081 S330
S0
G1 X212.954 S338
S0
G1 X212.573 S335
S0
G1 X212.446 S331
S0
G1 X212.192 S327
S0
G1 X212.065 S323
S0
G1 X211.938 S327
S0
G1 X211.811 S326
S0
G1 X211.557 S322
S0
G1 X211.430 S325
S0
G1 X211.303 S329
S0
G1 X211.049 S330
S0
G1 X210.922 S326
S0
G1 X210.795 S322
S0
G1 X210.414 S319
S0
G1 X210.287 S317
S0
G1 X210.160 S321
S0
G1 X210.033 S326
S0
G1 X209.906 S333
S0
G1 X209.779 S346
S0
G1 X209.652 S361
S0
G1 X209.398 S373
S0
G1 X209.271 S378
S0
G1 X209.144 S390
S0
G1 X209.017 S425
S0
G1 X208.890 S453
S0
G1 X208.763 S460
S0
G1 X208.636 S459
S0
G1 X208.509 S475
S0
G1 X208.382 S530
S0
G1 X208.255 S606
S0
G1 X208.001 S657
S0
G1 X207.874 S653
S0
G1 X207.747 S657
S0
G1 X207.620 S651
S0
G1 X207.493 S656
S0
G1 X207.239 S655
S0
G1 X207.112 S656
S0
G1 X206.731 S657
S0
G1 X206.350 S655
S0
G1 X205.207 S657
S0
G1 X204.953 S656
S0
G1 X204.191 S657
S0
G1 X204.064 S656
S0
G1 X203.937 S653
S0
G1 X203.556 S657
S0
G1 X203.175 S656
S0
G1 X203.048 S652
S0
G1 X202.667 S657
S0
G1 X202.540 S652
S0
G1 X202.413 S651
S0
G1 X202.032 S647
S0
G1 X201.905 S644
S0
G1 X201.778 S643
S0
G1 X201.651 S644
S0
G1 X201.397 S648
S0
G1 X201.270 S650
S0
G1 X201.143 S654
S0
G1 X201.016 S651
S0
G1 X200.889 S648
S0
G1 X200.762 S650
S0
G1 X200.000 S647
S0
G0 Y36.195
G0 X200.000 S0
G1 X200.762 S646
S0
G1 X200.889 S650
S0
G1 X201.016 S648
S0
G1 X201.143 S652
S0
G1 X201.270 S651
S0
G1 X201.905 S647
S0
G1 X202.032 S651
S0
G1 X202.286 S652
S0
G1 X202.413 S647
S0
G1 X202.794 S652
S0
G1 X203.048 S655
S0
G1 X203.302 S656
S0
G1 X203.429 S655
S0
G1 X203.810 S656
S0
G1 X205.080 S657
S0
G1 X206.477 S655
S0
G1 X207.239 S657
S0
G1 X207.493 S655
S0
G1 X207.620 S651
S0
G1 X207.747 S648
S0
G1 X208.001 S649
S0
G1 X208.128 S653
S0
G1 X208.255 S656
S0
G1 X208.382 S614
S0
G1 X208.509 S543
S0
G1 X208.636 S491
S0
G1 X208.763 S476
S0
G1 X208.890 S467
S0
G1 X209.017 S452
S0
G1 X209.144 S414
S0
G1 X209.271 S394
S0
G1 X209.398 S378
S0
G1 X209.525 S379
S0
G1 X209.652 S383
S0
G1 X209.779 S370
S0
G1 X209.906 S350
S0
G1 X210.033 S339
S0
G1 X210.160 S326
S0
G1 X210.287 S322
S0
G1 X210.414 S317
S0
G1 X210.668 S318
S0
G1 X210.795 S322
S0
G1 X211.049 S326
S0
G1 X211.176 S322
S0
G1 X211.303 S318
S0
G1 X211.430 S321
S0
G1 X211.557 S317
S0
G1 X211.811 S318
S0
G1 X211.938 S322
S0
G1 X212.065 S317
S0
G1 X212.192 S313
S0
G1 X212.319 S318
S0
G1 X212.573 S321
S0
G1 X212.827 S327
S0
G1 X212.954 S325
S0
G1 X213.081 S330
S0
G1 X213.208 S326
S0
G1 X213.335 S323
S0
G1 X213.716 S327
S0
G1 X213.843 S331
S0
G1 X213.970 S339
S0
G1 X214.097 S351
S0
G1 X214.224 S359
S0
G1 X214.351 S353
S0
G1 X214.478 S345
S0
G1 X214.605 S338
S0
G1 X214.859 S335
S0
G1 X215.113 S322
S0
G1 X215.240 S315
S0
G1 X215.621 S314
S0
G1 X216.383 S311
S0
G1 X216.637 S309
S0
G1 X216.891 S311
S0
G1 X217.018 S318
S0
G1 X217.145 S327
S0
G1 X217.272 S334
S0
G1 X217.399 S341
S0
G1 X217.526 S345
S0
G1 X217.653 S355
S0
G1 X217.780 S353
S0
G1 X218.034 S355
S0
G1 X218.288 S354
S0
G1 X218.415 S351
S0
G1 X218.669 S358
S0
G1 X218.796 S365
S0
G1 X218.923 S361
S0
G1 X219.177 S367
S0
G1 X219.304 S354
S0
G1 X219.431 S358
S0
G1 X219.558 S361
S0
G1 X219.685 S355
S0
G1 X219.812 S349
S0
G1 X219.939 S345
S0
G1 X220.066 S341
S0
G1 X220.193 S343
S0
G1 X220.320 S335
S0
G1 X220.447 S342
S0
G1 X220.701 S338
S0
G1 X220.828 S347
S0
G1 X220.955 S355
S0
G1 X221.082 S341
S0
G1 X221.209 S338
S0
G1 X221.336 S334
S0
G1 X221.463 S314
S0
G1 X221.590 S302
S0
G1 X221.717 S318
S0
G1 X221.844 S364
S0
G1 X221.971 S432
S0
G1 X222.098 S463
S0
G1 X222.352 S459
S0
G1 X222.479 S451
S0
G1 X222.606 S421
S0
G1 X222.733 S390
S0
G1 X222.860 S362
S0
G1 X222.987 S433
S0
G1 X223.114 S617
S0
G1 X223.241 S714
S0
G1 X223.368 S643
S0
G1 X223.495 S603
S0
G1 X223.622 S653
S0
G1 X223.749 S702
S0
G1 X223.876 S696
S0
G1 X224.003 S586
S0
G1 X224.130 S440
S0
G1 X224.257 S613
S0
G1 X224.384 S715
S0
G1 X224.511 S357
S0
G1 X224.638 S254
S0
G1 X224.765 S296
S0
G1 X224.892 S275
S0
G1 X225.019 S278
S0
G1 X225.146 S237
S0
G1 X225.273 S228
S0
G1 X225.400 S272
S0
G1 X225.527 S545
S0
G1 X225.654 S749
S0
G1 X225.781 S497
S0
G1 X225.908 S338
S0
G1 X226.035 S368
S0
G1 X226.162 S404
S0
G1 X226.289 S389
S0
G1 X226.416 S396
S0
G1 X226.543 S402
S0
G1 X226.670 S412
S0
G1 X226.797 S425
S0
G1 X226.924 S436
S0
G1 X227.051 S451
S0
G1 X227.178 S459
S0
G1 X227.305 S467
S0
G1 X227.432 S470
S0
G1 X227.559 S484
S0
G1 X227.686 S487
S0
G1 X227.813 S495
S0
G1 X227.940 S511
S0
G1 X228.067 S523
S0
G1 X228.194 S528
S0
G1 X228.321 S523
S0
G1 X228.575 S530
S0
G1 X228.702 S536
S0
G1 X228.829 S532
S0
G1 X228.956 S539
S0
G1 X229.083 S537
S0
G1 X229.210 S562
S0
G1 X229.337 S561
S0
G1 X229.464 S558
S0
G1 X229.591 S578
S0
G1 X229.718 S625
S0
G1 X229.845 S664
S0
G1 X229.972 S665
S0
G1 X230.099 S653
S0
G1 X230.226 S650
S0
G1 X230.480 S660
S0
G1 X230.607 S653
S0
G1 X230.734 S652
S0
G1 X230.861 S648
S0
G1 X230.988 S649
S0
G1 X231.242 S648
S0
G1 X231.496 S647
S0
G1 X231.623 S649
S0
G1 X231.877 S647
S0
G1 X232.131 S648
S0
G1 X232.258 S653
S0
G1 X232.512 S652
S0
G1 X232.639 S648
S0
G1 X232.766 S646
S0
G1 X232.893 S638
S0
G1 X233.020 S630
S0
G1 X233.147 S626
S0
G1 X233.274 S617
S0
G1 X233.401 S605
S0
G1 X233.528 S593
S0
G1 X233.655 S581
S0
G1 X233.782 S585
S0
G1 X234.036 S597
S0
G1 X234.163 S609
S0
G1 X234.417 S613
S0
G1 X234.544 S617
S0
G1 X234.798 S629
S0
G1 X234.925 S636
S0
G1 X235.052 S638
S0
G1 X235.306 S646
S0
G1 X235.560 S642
S0
G1 X235.687 S650
S0
G1 X235.814 S653
S0
G1 X235.941 S646
S0
G1 X236.068 S641
S0
G1 X236.195 S649
S0
G1 X236.322 S653
S0
G1 X236.449 S649
S0
G1 X236.576 S655
S0
G1 X236.703 S657
S0
G1 X236.957 S653
S0
G1 X237.211 S657
S0
G1 X237.338 S653
S0
G1 X237.465 S652
S0
G1 X237.592 S656
S0
G1 X237.719 S652
S0
G1 X238.100 S653
S0
G1 X238.354 S650
S0
G1 X238.481 S652
S0
G1 X238.608 S650
S0
G1 X238.989 S648
S0
G1 X239.243 S650
S0
G1 X239.497 S648
S0
G1 X239.751 S645
S0
G1 X240.132 S641
S0
G1 X240.386 S646
S0
G1 X240.513 S642
S0
G1 X240.640 S632
S0
G1 X240.767 S606
S0
G1 X240.894 S599
S0
G1 X241.021 S610
S0
G1 X241.148 S597
S0
G1 X241.275 S605
S0
G1 X241.402 S618
S0
G1 X241.529 S614
S0
G1 X241.656 S623
S0
G1 X241.910 S632
S0
G1 X242.037 S636
S0
G1 X242.418 S641
S0
G1 X242.545 S645
S0
G1 X242.672 S649
S0
G1 X242.926 S647
S0
G1 X243.053 S643
S0
G1 X243.180 S644
S0
G1 X243.561 S648
S0
G1 X243.815 S647
S0
G1 X244.069 S649
S0
G1 X244.450 S645
S0
G1 X245.212 S641
S0
G1 X245.593 S640
S0
G1 X245.720 S641
S0
G1 X246.736 S640
S0
G1 X246.863 S639
S0
G1 X247.371 S640
S0
G1 X247.498 S639
S0
G1 X247.625 S635
S0
G1 X247.752 S637
S0
G1 X248.387 S635
S0
G1 X248.641 S632
S0
G1 X249.022 S633
S0
G1 X249.530 S629
S0
G1 X250.038 S624
S0
G0 Y36.068
G0 X250.038 S0
G1 X249.530 S624
S0
G1 X248.895 S629
S0
G1 X248.641 S633
S0
G1 X248.387 S632
S0
G1 X247.498 S635
S0
G1 X247.371 S639
S0
G1 X246.736 S640
S0
G1 X246.609 S641
S0
G1 X244.831 S640
S0
G1 X244.704 S641
S0
G1 X244.450 S640
S0
G1 X243.942 S648
S0
G1 X242.926 S647
S0
G1 X242.799 S650
S0
G1 X242.672 S646
S0
G1 X242.545 S643
S0
G1 X242.418 S640
S0
G1 X241.910 S641
S0
G1 X241.783 S639
S0
G1 X241.656 S643
S0
G1 X241.529 S639
S0
G1 X241.402 S632
S0
G1 X241.275 S628
S0
G1 X241.148 S621
S0
G1 X241.021 S617
S0
G1 X240.767 S626
S0
G1 X240.640 S625
S0
G1 X240.513 S638
S0
G1 X240.259 S642
S0
G1 X240.005 S637
S0
G1 X239.497 S641
S0
G1 X239.370 S648
S0
G1 X239.116 S644
S0
G1 X238.989 S646
S0
G1 X238.862 S640
S0
G1 X238.608 S644
S0
G1 X238.481 S650
S0
G1 X238.100 S648
S0
G1 X237.973 S649
S0
G1 X237.846 S646
S0
G1 X237.719 S645
S0
G1 X236.957 S650
S0
G1 X236.830 S648
S0
G1 X236.576 S652
S0
G1 X236.449 S653
S0
G1 X236.322 S641
S0
G1 X236.195 S648
S0
G1 X236.068 S659
S0
G1 X235.941 S652
S0
G1 X235.687 S646
S0
G1 X235.560 S638
S0
G1 X235.433 S646
S0
G1 X235.179 S650
S0
G1 X235.052 S646
S0
G1 X234.925 S640
S0
G1 X234.798 S636
S0
G1 X234.671 S629
S0
G1 X234.544 S625
S0
G1 X234.417 S621
S0
G1 X234.290 S613
S0
G1 X234.163 S609
S0
G1 X234.036 S605
S0
G1 X233.782 S597
S0
G1 X233.655 S593
S0
G1 X233.528 S589
S0
G1 X233.401 S601
S0
G1 X233.274 S613
S0
G1 X233.147 S621
S0
G1 X232.893 S630
S0
G1 X232.766 S638
S0
G1 X232.639 S644
S0
G1 X231.877 S648
S0
G1 X231.623 S647
S0
G1 X231.369 S649
S0
G1 X231.115 S647
S0
G1 X230.734 S648
S0
G1 X230.607 S651
S0
G1 X230.480 S661
S0
G1 X230.353 S664
S0
G1 X230.226 S652
S0
G1 X230.099 S651
S0
G1 X229.972 S640
S0
G1 X229.845 S644
S0
G1 X229.718 S647
S0
G1 X229.591 S631
S0
G1 X229.464 S577
S0
G1 X229.337 S569
S0
G1 X229.210 S561
S0
G1 X229.083 S557
S0
G1 X228.956 S549
S0
G1 X228.829 S536
S0
G1 X228.702 S534
S0
G1 X228.575 S530
S0
G1 X228.448 S534
S0
G1 X228.321 S527
S0
G1 X228.194 S526
S0
G1 X228.067 S529
S0
G1 X227.940 S527
S0
G1 X227.813 S515
S0
G1 X227.686 S503
S0
G1 X227.432 S490
S0
G1 X227.305 S483
S0
G1 X227.178 S480
S0
G1 X227.051 S473
S0
G1 X226.924 S475
S0
G1 X226.797 S455
S0
G1 X226.670 S433
S0
G1 X226.543 S417
S0
G1 X226.416 S413
S0
G1 X226.289 S407
S0
G1 X226.162 S386
S0
G1 X226.035 S389
S0
G1 X225.908 S361
S0
G1 X225.781 S412
S0
G1 X225.654 S748
S0
G1 X225.527 S560
S0
G1 X225.400 S236
S0
G1 X225.273 S264
S0
G1 X225.146 S280
S0
G1 X225.019 S287
S0
G1 X224.892 S274
S0
G1 X224.765 S271
S0
G1 X224.638 S246
S0
G1 X224.511 S235
S0
G1 X224.384 S581
S0
G1 X224.257 S824
S0
G1 X224.130 S674
S0
G1 X224.003 S691
S0
G1 X223.876 S728
S0
G1 X223.749 S604
S0
G1 X223.622 S408
S0
G1 X223.495 S283
S0
G1 X223.368 S235
S0
G1 X223.241 S232
S0
G1 X223.114 S373
S0
G1 X222.987 S667
S0
G1 X222.860 S745
S0
G1 X222.733 S625
S0
G1 X222.606 S611
S0
G1 X222.479 S671
S0
G1 X222.352 S686
S0
G1 X222.225 S672
S0
G1 X222.098 S656
S0
G1 X221.971 S668
S0
G1 X221.844 S675
S0
G1 X221.717 S643
S0
G1 X221.590 S620
S0
G1 X221.463 S540
S0
G1 X221.336 S415
S0
G1 X221.209 S317
S0
G1 X221.082 S305
S0
G1 X220.955 S314
S0
G1 X220.828 S338
S0
G1 X220.701 S346
S0
G1 X220.320 S334
S0
G1 X220.066 S338
S0
G1 X219.939 S342
S0
G1 X219.812 S349
S0
G1 X219.558 S356
S0
G1 X219.431 S357
S0
G1 X219.304 S358
S0
G1 X219.177 S361
S0
G1 X219.050 S358
S0
G1 X218.923 S312
S0
G1 X218.796 S318
S0
G1 X218.415 S358
S0
G1 X218.034 S354
S0
G1 X217.780 S355
S0
G1 X217.526 S357
S0
G1 X217.399 S355
S0
G1 X217.272 S345
S0
G1 X217.145 S338
S0
G1 X217.018 S331
S0
G1 X216.891 S323
S0
G1 X216.764 S314
S0
G1 X216.637 S311
S0
G1 X216.383 S315
S0
G1 X216.256 S314
S0
G1 X215.748 S307
S0
G1 X215.621 S311
S0
G1 X215.367 S315
S0
G1 X215.240 S319
S0
G1 X215.113 S318
S0
G1 X214.986 S330
S0
G1 X214.732 S338
S0
G1 X214.478 S330
S0
G1 X214.224 S334
S0
G1 X214.097 S339
S0
G1 X213.970 S331
S0
G1 X213.716 S323
S0
G1 X213.462 S319
S0
G1 X213.081 S323
S0
G1 X212.954 S319
S0
G1 X212.827 S323
S0
G1 X212.700 S319
S0
G1 X212.446 S318
S0
G1 X212.319 S314
S0
G1 X212.192 S318
S0
G1 X211.938 S319
S0
G1 X211.303 S323
S0
G1 X211.176 S317
S0
G1 X211.049 S314
S0
G1 X210.922 S322
S0
G1 X210.414 S326
S0
G1 X210.287 S327
S0
G1 X210.160 S326
S0
G1 X210.033 S330
S0
G1 X209.906 S338
S0
G1 X209.779 S354
S0
G1 X209.652 S374
S0
G1 X209.525 S387
S0
G1 X209.398 S381
S0
G1 X209.271 S385
S0
G1 X209.144 S401
S0
G1 X209.017 S421
S0
G1 X208.890 S447
S0
G1 X208.763 S468
S0
G1 X208.636 S481
S0
G1 X208.509 S491
S0
G1 X208.382 S541
S0
G1 X208.255 S618
S0
G1 X208.128 S657
S0
G1 X208.001 S651
S0
G1 X207.874 S648
S0
G1 X207.747 S649
S0
G1 X207.620 S648
S0
G1 X207.493 S652
S0
G1 X207.366 S656
S0
G1 X207.239 S655
S0
G1 X206.858 S657
S0
G1 X206.604 S656
S0
G1 X206.350 S657
S0
G1 X205.080 S655
S0
G1 X204.699 S657
S0
G1 X203.810 S656
S0
G1 X203.683 S652
S0
G1 X203.556 S654
S0
G1 X203.429 S658
S0
G1 X203.175 S655
S0
G1 X203.048 S656
S0
G1 X202.794 S655
S0
G1 X202.413 S652
S0
G1 X202.286 S648
S0
G1 X201.905 S652
S0
G1 X201.651 S648
S0
G1 X201.397 S647
S0
G1 X201.270 S653
S0
G1 X201.143 S651
S0
G1 X201.016 S652
S0
G1 X200.635 S650
S0
G1 X200.381 S646
S0
G1 X200.000 S642
S0
G0 Y35.941
G0 X200.000 S0
G1 X200.254 S645
S0
G1 X200.635 S646
S0
G1 X201.016 S650
S0
G1 X201.143 S652
S0
G1 X201.270 S651
S0
G1 X201.397 S652
S0
G1 X201.905 S648
S0
G1 X202.286 S652
S0
G1 X202.413 S648
S0
G1 X202.794 S652
S0
G1 X203.048 S655
S0
G1 X203.175 S656
S0
G1 X203.302 S655
S0
G1 X203.683 S658
S0
G1 X204.826 S656
S0
G1 X206.096 S657
S0
G1 X206.350 S655
S0
G1 X206.477 S657
S0
G1 X206.858 S652
S0
G1 X207.239 S657
S0
G1 X207.366 S661
S0
G1 X207.493 S656
S0
G1 X207.620 S652
S0
G1 X207.747 S648
S0
G1 X207.874 S649
S0
G1 X208.128 S648
S0
G1 X208.255 S659
S0
G1 X208.382 S622
S0
G1 X208.509 S551
S0
G1 X208.636 S492
S0
G1 X208.763 S463
S0
G1 X208.890 S460
S0
G1 X209.017 S451
S0
G1 X209.144 S432
S0
G1 X209.271 S408
S0
G1 X209.398 S394
S0
G1 X209.525 S383
S0
G1 X209.652 S376
S0
G1 X209.779 S369
S0
G1 X209.906 S357
S0
G1 X210.033 S342
S0
G1 X210.160 S334
S0
G1 X210.287 S329
S0
G1 X210.414 S330
S0
G1 X210.541 S331
S0
G1 X210.668 S327
S0
G1 X210.795 S322
S0
G1 X210.922 S326
S0
G1 X211.176 S325
S0
G1 X211.303 S327
S0
G1 X211.811 S323
S0
G1 X212.192 S319
S0
G1 X212.319 S318
S0
G1 X212.573 S314
S0
G1 X212.827 S316
S0
G1 X212.954 S323
S0
G1 X213.081 S319
S0
G1 X213.208 S323
S0
G1 X213.335 S327
S0
G1 X213.462 S323
S0
G1 X213.589 S319
S0
G1 X213.716 S323
S0
G1 X214.097 S319
S0
G1 X214.224 S323
S0
G1 X214.351 S322
S0
G1 X214.478 S326
S0
G1 X214.605 S318
S0
G1 X214.732 S322
S0
G1 X214.986 S338
S0
G1 X215.113 S330
S0
G1 X215.240 S322
S0
G1 X215.494 S319
S0
G1 X215.621 S315
S0
G1 X215.748 S311
S0
G1 X216.002 S307
S0
G1 X216.256 S311
S0
G1 X216.383 S314
S0
G1 X216.764 S319
S0
G1 X216.891 S322
S0
G1 X217.018 S331
S0
G1 X217.145 S339
S0
G1 X217.272 S341
S0
G1 X217.399 S349
S0
G1 X217.526 S355
S0
G1 X217.780 S353
S0
G1 X218.034 S355
S0
G1 X218.161 S354
S0
G1 X218.288 S358
S0
G1 X218.415 S350
S0
G1 X218.542 S346
S0
G1 X218.669 S354
S0
G1 X218.796 S471
S0
G1 X218.923 S527
S0
G1 X219.050 S322
S0
G1 X219.177 S260
S0
G1 X219.304 S307
S0
G1 X219.431 S331
S0
G1 X219.558 S335
S0
G1 X219.685 S326
S0
G1 X219.812 S323
S0
G1 X219.939 S333
S0
G1 X220.066 S330
S0
G1 X220.320 S315
S0
G1 X220.447 S307
S0
G1 X220.574 S301
S0
G1 X220.701 S298
S0
G1 X220.828 S279
S0
G1 X220.955 S315
S0
G1 X221.082 S439
S0
G1 X221.209 S554
S0
G1 X221.336 S660
S0
G1 X221.463 S668
S0
G1 X221.590 S613
S0
G1 X221.717 S521
S0
G1 X221.844 S428
S0
G1 X221.971 S357
S0
G1 X222.098 S325
S0
G1 X222.352 S329
S0
G1 X222.479 S349
S0
G1 X222.606 S378
S0
G1 X222.733 S483
S0
G1 X222.860 S620
S0
G1 X222.987 S730
S0
G1 X223.114 S623
S0
G1 X223.241 S412
S0
G1 X223.368 S282
S0
G1 X223.495 S228
S0
G1 X223.622 S258
S0
G1 X223.749 S251
S0
G1 X223.876 S259
S0
G1 X224.003 S343
S0
G1 X224.130 S456
S0
G1 X224.257 S586
S0
G1 X224.384 S780
S0
G1 X224.511 S844
S0
G1 X224.638 S518
S0
G1 X224.765 S220
S0
G1 X224.892 S244
S0
G1 X225.019 S287
S0
G1 X225.146 S291
S0
G1 X225.273 S267
S0
G1 X225.400 S282
S0
G1 X225.527 S246
S0
G1 X225.654 S342
S0
G1 X225.781 S709
S0
G1 X225.908 S585
S0
G1 X226.035 S334
S0
G1 X226.162 S349
S0
G1 X226.289 S400
S0
G1 X226.416 S412
S0
G1 X226.543 S425
S0
G1 X226.670 S438
S0
G1 X226.797 S464
S0
G1 X226.924 S468
S0
G1 X227.051 S479
S0
G1 X227.178 S488
S0
G1 X227.305 S492
S0
G1 X227.432 S504
S0
G1 X227.559 S500
S0
G1 X227.686 S494
S0
G1 X227.813 S499
S0
G1 X227.940 S515
S0
G1 X228.067 S529
S0
G1 X228.194 S534
S0
G1 X228.321 S527
S0
G1 X228.448 S531
S0
G1 X228.575 S530
S0
G1 X228.702 S536
S0
G1 X228.829 S535
S0
G1 X228.956 S534
S0
G1 X229.210 S546
S0
G1 X229.337 S561
S0
G1 X229.464 S526
S0
G1 X229.591 S551
S0
G1 X229.718 S652
S0
G1 X229.845 S700
S0
G1 X229.972 S708
S0
G1 X230.099 S706
S0
G1 X230.226 S655
S0
G1 X230.353 S637
S0
G1 X230.607 S660
S0
G1 X230.734 S652
S0
G1 X231.115 S648
S0
G1 X231.242 S649
S0
G1 X231.369 S647
S0
G1 X231.623 S649
S0
G1 X231.877 S647
S0
G1 X232.131 S648
S0
G1 X232.258 S644
S0
G1 X232.639 S648
S0
G1 X232.766 S644
S0
G1 X232.893 S642
S0
G1 X233.147 S634
S0
G1 X233.274 S629
S0
G1 X233.401 S621
S0
G1 X233.528 S609
S0
G1 X233.655 S601
S0
G1 X233.782 S597
S0
G1 X234.036 S601
S0
G1 X234.163 S605
S0
G1 X234.290 S613
S0
G1 X234.417 S617
S0
G1 X234.544 S625
S0
G1 X234.671 S622
S0
G1 X234.798 S625
S0
G1 X234.925 S636
S0
G1 X235.052 S640
S0
G1 X235.179 S642
S0
G1 X235.433 S646
S0
G1 X235.560 S640
S0
G1 X235.687 S645
S0
G1 X235.814 S650
S0
G1 X235.941 S657
S0
G1 X236.068 S665
S0
G1 X236.322 S652
S0
G1 X236.449 S661
S0
G1 X236.576 S649
S0
G1 X236.703 S637
S0
G1 X236.957 S634
S0
G1 X237.084 S632
S0
G1 X237.211 S629
S0
G1 X237.465 S634
S0
G1 X237.592 S633
S0
G1 X237.719 S632
S0
G1 X237.846 S633
S0
G1 X237.973 S637
S0
G1 X238.100 S640
S0
G1 X238.227 S642
S0
G1 X238.354 S640
S0
G1 X238.481 S644
S0
G1 X238.735 S646
S0
G1 X238.862 S642
S0
G1 X239.116 S637
S0
G1 X239.370 S644
S0
G1 X239.497 S645
S0
G1 X239.751 S641
S0
G1 X239.878 S637
S0
G1 X240.005 S641
S0
G1 X240.132 S637
S0
G1 X240.259 S641
S0
G1 X240.513 S642
S0
G1 X240.640 S638
S0
G1 X240.767 S630
S0
G1 X240.894 S634
S0
G1 X241.148 S625
S0
G1 X241.275 S628
S0
G1 X241.402 S641
S0
G1 X241.656 S645
S0
G1 X241.783 S649
S0
G1 X242.037 S645
S0
G1 X242.291 S648
S0
G1 X242.418 S645
S0
G1 X242.672 S644
S0
G1 X242.799 S645
S0
G1 X242.926 S649
S0
G1 X243.434 S647
S0
G1 X243.561 S650
S0
G1 X243.688 S646
S0
G1 X243.815 S645
S0
G1 X243.942 S646
S0
G1 X244.069 S648
S0
G1 X244.323 S652
S0
G1 X244.450 S647
S0
G1 X244.577 S636
S0
G1 X245.720 S640
S0
G1 X245.847 S644
S0
G1 X246.482 S640
S0
G1 X246.736 S641
S0
G1 X247.244 S640
S0
G1 X247.498 S639
S0
G1 X248.387 S635
S0
G1 X248.514 S632
S0
G1 X248.895 S633
S0
G1 X249.530 S629
S0
G1 X249.657 S624
S0
G1 X249.784 S625
S0
G1 X250.038 S624
S0
G0 Y35.814
G0 X250.038 S0
G1 X249.784 S624
S0
G1 X249.657 S625
S0
G1 X249.530 S624
S0
G1 X248.895 S629
S0
G1 X248.514 S633
S0
G1 X247.879 S637
S0
G1 X247.498 S635
S0
G1 X247.371 S639
S0
G1 X246.736 S640
S0
G1 X246.482 S641
S0
G1 X245.847 S640
S0
G1 X245.720 S644
S0
G1 X244.704 S640
S0
G1 X244.450 S636
S0
G1 X244.323 S644
S0
G1 X244.196 S648
S0
G1 X244.069 S652
S0
G1 X243.942 S648
S0
G1 X243.434 S650
S0
G1 X243.053 S647
S0
G1 X242.799 S651
S0
G1 X242.672 S653
S0
G1 X242.545 S648
S0
G1 X242.418 S645
S0
G1 X242.291 S649
S0
G1 X242.037 S648
S0
G1 X241.910 S649
S0
G1 X241.783 S644
S0
G1 X241.656 S646
S0
G1 X241.275 S644
S0
G1 X241.148 S638
S0
G1 X241.021 S633
S0
G1 X240.894 S637
S0
G1 X240.767 S641
S0
G1 X240.640 S637
S0
G1 X240.386 S638
S0
G1 X240.259 S642
S0
G1 X240.132 S641
S0
G1 X240.005 S637
S0
G1 X239.751 S633
S0
G1 X239.116 S637
S0
G1 X238.862 S633
S0
G1 X238.735 S637
S0
G1 X238.608 S638
S0
G1 X238.481 S640
S0
G1 X238.354 S645
S0
G1 X238.227 S642
S0
G1 X238.100 S641
S0
G1 X237.973 S638
S0
G1 X237.846 S633
S0
G1 X237.719 S625
S0
G1 X237.338 S617
S0
G1 X237.211 S613
S0
G1 X237.084 S614
S0
G1 X236.957 S617
S0
G1 X236.830 S614
S0
G1 X236.703 S618
S0
G1 X236.576 S626
S0
G1 X236.449 S635
S0
G1 X236.322 S636
S0
G1 X236.195 S597
S0
G1 X236.068 S581
S0
G1 X235.941 S617
S0
G1 X235.814 S640
S0
G1 X235.687 S651
S0
G1 X235.560 S645
S0
G1 X235.433 S646
S0
G1 X235.306 S638
S0
G1 X235.179 S641
S0
G1 X235.052 S637
S0
G1 X234.925 S634
S0
G1 X234.798 S632
S0
G1 X234.671 S629
S0
G1 X234.544 S621
S0
G1 X234.417 S617
S0
G1 X234.163 S613
S0
G1 X234.036 S609
S0
G1 X233.782 S601
S0
G1 X233.655 S605
S0
G1 X233.528 S613
S0
G1 X233.401 S617
S0
G1 X233.274 S629
S0
G1 X233.147 S638
S0
G1 X232.766 S646
S0
G1 X232.639 S650
S0
G1 X232.512 S648
S0
G1 X232.258 S652
S0
G1 X231.877 S648
S0
G1 X231.623 S650
S0
G1 X231.496 S649
S0
G1 X230.988 S648
S0
G1 X230.861 S644
S0
G1 X230.734 S648
S0
G1 X230.607 S652
S0
G1 X230.480 S660
S0
G1 X230.353 S647
S0
G1 X230.226 S672
S0
G1 X230.099 S734
S0
G1 X229.972 S743
S0
G1 X229.845 S719
S0
G1 X229.718 S729
S0
G1 X229.591 S734
S0
G1 X229.464 S706
S0
G1 X229.337 S632
S0
G1 X229.210 S558
S0
G1 X229.083 S510
S0
G1 X228.956 S508
S0
G1 X228.829 S523
S0
G1 X228.702 S535
S0
G1 X228.575 S531
S0
G1 X228.448 S535
S0
G1 X228.321 S530
S0
G1 X228.194 S523
S0
G1 X228.067 S527
S0
G1 X227.940 S526
S0
G1 X227.813 S520
S0
G1 X227.686 S508
S0
G1 X227.559 S506
S0
G1 X227.432 S511
S0
G1 X227.305 S512
S0
G1 X227.178 S496
S0
G1 X227.051 S499
S0
G1 X226.924 S496
S0
G1 X226.797 S480
S0
G1 X226.670 S448
S0
G1 X226.543 S400
S0
G1 X226.416 S378
S0
G1 X226.289 S388
S0
G1 X226.162 S384
S0
G1 X226.035 S428
S0
G1 X225.908 S514
S0
G1 X225.781 S745
S0
G1 X225.654 S521
S0
G1 X225.527 S255
S0
G1 X225.400 S271
S0
G1 X225.273 S272
S0
G1 X225.146 S255
S0
G1 X225.019 S262
S0
G1 X224.892 S243
S0
G1 X224.765 S271
S0
G1 X224.638 S529
S0
G1 X224.511 S760
S0
G1 X224.384 S608
S0
G1 X224.257 S358
S0
G1 X224.130 S256
S0
G1 X224.003 S236
S0
G1 X223.876 S243
S0
G1 X223.749 S247
S0
G1 X223.622 S243
S0
G1 X223.495 S342
S0
G1 X223.368 S490
S0
G1 X223.241 S619
S0
G1 X223.114 S609
S0
G1 X222.987 S439
S0
G1 X222.860 S290
S0
G1 X222.733 S243
S0
G1 X222.606 S247
S0
G1 X222.479 S251
S0
G1 X222.352 S247
S0
G1 X222.098 S246
S0
G1 X221.844 S254
S0
G1 X221.717 S243
S0
G1 X221.590 S224
S0
G1 X221.463 S255
S0
G1 X221.336 S326
S0
G1 X221.209 S459
S0
G1 X221.082 S576
S0
G1 X220.955 S651
S0
G1 X220.828 S655
S0
G1 X220.701 S588
S0
G1 X220.574 S481
S0
G1 X220.447 S428
S0
G1 X220.320 S396
S0
G1 X220.193 S352
S0
G1 X220.066 S341
S0
G1 X219.939 S350
S0
G1 X219.812 S337
S0
G1 X219.685 S345
S0
G1 X219.558 S358
S0
G1 X219.431 S373
S0
G1 X219.304 S433
S0
G1 X219.177 S475
S0
G1 X219.050 S522
S0
G1 X218.923 S706
S0
G1 X218.796 S704
S0
G1 X218.669 S458
S0
G1 X218.542 S338
S0
G1 X218.415 S346
S0
G1 X218.288 S354
S0
G1 X218.161 S358
S0
G1 X218.034 S354
S0
G1 X217.780 S355
S0
G1 X217.653 S351
S0
G1 X217.526 S357
S0
G1 X217.399 S363
S0
G1 X217.272 S355
S0
G1 X217.145 S345
S0
G1 X217.018 S343
S0
G1 X216.891 S333
S0
G1 X216.764 S322
S0
G1 X216.383 S319
S0
G1 X216.256 S314
S0
G1 X215.621 S307
S0
G1 X215.367 S315
S0
G1 X215.113 S318
S0
G1 X214.986 S322
S0
G1 X214.732 S326
S0
G1 X214.605 S318
S0
G1 X214.478 S315
S0
G1 X214.351 S314
S0
G1 X214.224 S318
S0
G1 X213.843 S319
S0
G1 X213.335 S323
S0
G1 X213.208 S327
S0
G1 X212.827 S323
S0
G1 X212.573 S317
S0
G1 X212.446 S316
S0
G1 X212.319 S319
S0
G1 X212.192 S316
S0
G1 X211.811 S318
S0
G1 X211.684 S322
S0
G1 X211.557 S323
S0
G1 X211.430 S319
S0
G1 X211.303 S323
S0
G1 X211.176 S327
S0
G1 X211.049 S331
S0
G1 X210.922 S335
S0
G1 X210.795 S330
S0
G1 X210.541 S326
S0
G1 X210.414 S330
S0
G1 X210.287 S337
S0
G1 X210.160 S339
S0
G1 X210.033 S342
S0
G1 X209.906 S349
S0
G1 X209.779 S361
S0
G1 X209.525 S370
S0
G1 X209.398 S373
S0
G1 X209.271 S389
S0
G1 X209.144 S401
S0
G1 X209.017 S413
S0
G1 X208.890 S440
S0
G1 X208.763 S451
S0
G1 X208.636 S464
S0
G1 X208.509 S495
S0
G1 X208.382 S571
S0
G1 X208.255 S633
S0
G1 X208.128 S655
S0
G1 X208.001 S648
S0
G1 X207.874 S644
S0
G1 X207.747 S648
S0
G1 X207.620 S644
S0
G1 X207.493 S649
S0
G1 X207.366 S657
S0
G1 X207.239 S660
S0
G1 X207.112 S656
S0
G1 X206.858 S657
S0
G1 X206.477 S656
S0
G1 X206.350 S657
S0
G1 X205.969 S655
S0
G1 X204.572 S657
S0
G1 X204.064 S656
S0
G1 X203.937 S660
S0
G1 X203.683 S656
S0
G1 X203.556 S658
S0
G1 X203.175 S662
S0
G1 X203.048 S656
S0
G1 X202.794 S655
S0
G1 X202.540 S652
S0
G1 X202.413 S655
S0
G1 X201.651 S652
S0
G1 X201.270 S648
S0
G1 X201.143 S651
S0
G1 X201.016 S652
S0
G1 X200.635 S650
S0
G1 X200.381 S646
S0
G1 X200.000 S645
S0
G0 Y35.687
G0 X200.000 S0
G1 X200.508 S645
S0
G1 X200.635 S646
S0
G1 X201.016 S650
S0
G1 X201.143 S652
S0
G1 X201.270 S647
S0
G1 X201.651 S648
S0
G1 X202.413 S652
S0
G1 X202.540 S655
S0
G1 X202.794 S652
S0
G1 X203.302 S655
S0
G1 X203.556 S657
S0
G1 X203.683 S655
S0
G1 X203.937 S656
S0
G1 X204.064 S660
S0
G1 X204.318 S656
S0
G1 X205.842 S657
S0
G1 X206.096 S655
S0
G1 X206.350 S657
S0
G1 X206.858 S656
S0
G1 X207.366 S657
S0
G1 X207.620 S652
S0
G1 X207.747 S648
S0
G1 X207.874 S647
S0
G1 X208.001 S648
S0
G1 X208.128 S652
S0
G1 X208.255 S656
S0
G1 X208.382 S625
S0
G1 X208.509 S559
S0
G1 X208.636 S499
S0
G1 X208.763 S476
S0
G1 X208.890 S453
S0
G1 X209.017 S425
S0
G1 X209.144 S397
S0
G1 X209.271 S382
S0
G1 X209.398 S369
S0
G1 X209.652 S361
S0
G1 X209.779 S366
S0
G1 X209.906 S361
S0
G1 X210.033 S353
S0
G1 X210.160 S357
S0
G1 X210.414 S354
S0
G1 X210.541 S346
S0
G1 X210.795 S342
S0
G1 X211.049 S341
S0
G1 X211.176 S337
S0
G1 X211.303 S331
S0
G1 X211.430 S327
S0
G1 X211.684 S323
S0
G1 X211.811 S326
S0
G1 X211.938 S322
S0
G1 X212.192 S318
S0
G1 X212.319 S312
S0
G1 X212.446 S319
S0
G1 X212.573 S323
S0
G1 X212.700 S325
S0
G1 X212.827 S321
S0
G1 X213.208 S327
S0
G1 X214.351 S323
S0
G1 X214.478 S314
S0
G1 X214.605 S315
S0
G1 X214.732 S318
S0
G1 X215.240 S315
S0
G1 X215.494 S318
S0
G1 X215.621 S315
S0
G1 X216.256 S311
S0
G1 X216.383 S314
S0
G1 X216.637 S319
S0
G1 X216.764 S323
S0
G1 X216.891 S325
S0
G1 X217.018 S335
S0
G1 X217.145 S343
S0
G1 X217.272 S345
S0
G1 X217.399 S355
S0
G1 X217.526 S357
S0
G1 X217.653 S353
S0
G1 X217.907 S350
S0
G1 X218.034 S355
S0
G1 X218.288 S350
S0
G1 X218.415 S341
S0
G1 X218.542 S350
S0
G1 X218.669 S351
S0
G1 X218.796 S300
S0
G1 X218.923 S444
S0
G1 X219.050 S809
S0
G1 X219.177 S791
S0
G1 X219.304 S566
S0
G1 X219.431 S615
S0
G1 X219.558 S666
S0
G1 X219.685 S650
S0
G1 X219.812 S631
S0
G1 X219.939 S627
S0
G1 X220.066 S607
S0
G1 X220.193 S612
S0
G1 X220.320 S617
S0
G1 X220.447 S629
S0
G1 X220.574 S633
S0
G1 X220.701 S616
S0
G1 X220.828 S561
S0
G1 X220.955 S451
S0
G1 X221.082 S322
S0
G1 X221.209 S252
S0
G1 X221.336 S224
S0
G1 X221.463 S232
S0
G1 X221.590 S260
S0
G1 X221.717 S275
S0
G1 X221.844 S271
S0
G1 X221.971 S275
S0
G1 X222.098 S278
S0
G1 X222.225 S270
S0
G1 X222.352 S271
S0
G1 X222.479 S276
S0
G1 X222.733 S267
S0
G1 X222.860 S270
S0
G1 X222.987 S260
S0
G1 X223.114 S231
S0
G1 X223.241 S271
S0
G1 X223.368 S413
S0
G1 X223.495 S568
S0
G1 X223.622 S608
S0
G1 X223.749 S499
S0
G1 X223.876 S347
S0
G1 X224.003 S276
S0
G1 X224.257 S272
S0
G1 X224.384 S236
S0
G1 X224.511 S248
S0
G1 X224.638 S405
S0
G1 X224.765 S632
S0
G1 X224.892 S648
S0
G1 X225.019 S441
S0
G1 X225.146 S299
S0
G1 X225.273 S272
S0
G1 X225.400 S264
S0
G1 X225.527 S272
S0
G1 X225.654 S255
S0
G1 X225.781 S366
S0
G1 X225.908 S754
S0
G1 X226.035 S753
S0
G1 X226.162 S683
S0
G1 X226.289 S699
S0
G1 X226.416 S644
S0
G1 X226.543 S573
S0
G1 X226.670 S534
S0
G1 X226.797 S471
S0
G1 X226.924 S448
S0
G1 X227.051 S455
S0
G1 X227.178 S495
S0
G1 X227.305 S515
S0
G1 X227.432 S511
S0
G1 X227.559 S515
S0
G1 X227.686 S503
S0
G1 X227.813 S510
S0
G1 X227.940 S521
S0
G1 X228.067 S519
S0
G1 X228.194 S523
S0
G1 X228.321 S519
S0
G1 X228.448 S507
S0
G1 X228.575 S502
S0
G1 X228.702 S506
S0
G1 X228.829 S508
S0
G1 X228.956 S541
S0
G1 X229.083 S608
S0
G1 X229.210 S689
S0
G1 X229.337 S735
S0
G1 X229.464 S676
S0
G1 X229.591 S570
S0
G1 X229.718 S560
S0
G1 X229.845 S526
S0
G1 X229.972 S345
S0
G1 X230.099 S448
S0
G1 X230.226 S730
S0
G1 X230.353 S714
S0
G1 X230.480 S637
S0
G1 X230.607 S651
S0
G1 X230.861 S648
S0
G1 X230.988 S645
S0
G1 X231.115 S649
S0
G1 X231.242 S648
S0
G1 X231.496 S649
S0
G1 X231.750 S648
S0
G1 X231.877 S649
S0
G1 X232.385 S645
S0
G1 X232.512 S641
S0
G1 X232.639 S644
S0
G1 X232.766 S646
S0
G1 X232.893 S642
S0
G1 X233.020 S646
S0
G1 X233.147 S642
S0
G1 X233.274 S632
S0
G1 X233.401 S625
S0
G1 X233.528 S617
S0
G1 X233.655 S613
S0
G1 X233.782 S605
S0
G1 X234.036 S601
S0
G1 X234.417 S609
S0
G1 X234.544 S613
S0
G1 X234.671 S621
S0
G1 X234.798 S625
S0
G1 X234.925 S629
S0
G1 X235.052 S634
S0
G1 X235.179 S637
S0
G1 X235.306 S641
S0
G1 X235.433 S638
S0
G1 X235.687 S640
S0
G1 X235.814 S616
S0
G1 X235.941 S545
S0
G1 X236.068 S479
S0
G1 X236.195 S440
S0
G1 X236.322 S455
S0
G1 X236.449 S508
S0
G1 X236.576 S545
S0
G1 X236.703 S592
S0
G1 X236.957 S605
S0
G1 X237.084 S609
S0
G1 X237.465 S605
S0
G1 X237.592 S602
S0
G1 X237.719 S606
S0
G1 X237.846 S618
S0
G1 X237.973 S621
S0
G1 X238.100 S629
S0
G1 X238.227 S633
S0
G1 X238.354 S637
S0
G1 X238.481 S641
S0
G1 X238.608 S637
S0
G1 X239.243 S633
S0
G1 X239.497 S637
S0
G1 X239.751 S640
S0
G1 X239.878 S637
S0
G1 X240.132 S641
S0
G1 X240.259 S645
S0
G1 X240.386 S641
S0
G1 X240.640 S637
S0
G1 X240.767 S640
S0
G1 X241.148 S644
S0
G1 X241.275 S642
S0
G1 X241.656 S644
S0
G1 X241.783 S646
S0
G1 X242.545 S649
S0
G1 X242.672 S652
S0
G1 X243.053 S651
S0
G1 X243.688 S647
S0
G1 X243.815 S650
S0
G1 X243.942 S647
S0
G1 X244.196 S648
S0
G1 X244.323 S652
S0
G1 X244.450 S648
S0
G1 X244.577 S644
S0
G1 X244.704 S640
S0
G1 X245.212 S644
S0
G1 X247.371 S640
S0
G1 X247.498 S639
S0
G1 X247.879 S635
S0
G1 X248.514 S637
S0
G1 X248.895 S633
S0
G1 X249.530 S629
S0
G1 X249.657 S624
S0
G1 X249.784 S625
S0
G1 X250.038 S624
S0
G0 Y35.560
G0 X250.038 S0
G1 X249.784 S624
S0
G1 X249.530 S625
S0
G1 X248.895 S629
S0
G1 X248.514 S633
S0
G1 X248.006 S637
S0
G1 X247.498 S635
S0
G1 X247.371 S639
S0
G1 X246.736 S640
S0
G1 X246.609 S644
S0
G1 X245.339 S640
S0
G1 X245.085 S644
S0
G1 X244.704 S648
S0
G1 X244.450 S643
S0
G1 X244.323 S647
S0
G1 X244.196 S648
S0
G1 X244.069 S652
S0
G1 X243.942 S648
S0
G1 X243.815 S647
S0
G1 X243.688 S649
S0
G1 X243.053 S647
S0
G1 X242.672 S651
S0
G1 X242.545 S652
S0
G1 X241.910 S649
S0
G1 X241.275 S648
S0
G1 X241.148 S644
S0
G1 X241.021 S649
S0
G1 X240.767 S650
S0
G1 X240.640 S649
S0
G1 X240.513 S650
S0
G1 X240.386 S646
S0
G1 X240.259 S650
S0
G1 X240.005 S648
S0
G1 X239.878 S654
S0
G1 X239.624 S646
S0
G1 X239.497 S644
S0
G1 X239.370 S640
S0
G1 X239.243 S637
S0
G1 X239.116 S629
S0
G1 X238.862 S633
S0
G1 X238.735 S625
S0
G1 X238.608 S621
S0
G1 X238.481 S625
S0
G1 X238.354 S634
S0
G1 X238.100 S636
S0
G1 X237.973 S625
S0
G1 X237.846 S613
S0
G1 X237.719 S606
S0
G1 X237.592 S598
S0
G1 X237.465 S594
S0
G1 X237.338 S605
S0
G1 X237.211 S609
S0
G1 X237.084 S602
S0
G1 X236.957 S593
S0
G1 X236.830 S565
S0
G1 X236.703 S537
S0
G1 X236.576 S499
S0
G1 X236.449 S444
S0
G1 X236.322 S418
S0
G1 X236.195 S425
S0
G1 X236.068 S437
S0
G1 X235.941 S436
S0
G1 X235.814 S472
S0
G1 X235.687 S557
S0
G1 X235.560 S608
S0
G1 X235.433 S621
S0
G1 X235.306 S629
S0
G1 X235.179 S630
S0
G1 X235.052 S626
S0
G1 X234.925 S629
S0
G1 X234.798 S625
S0
G1 X234.671 S617
S0
G1 X234.544 S613
S0
G1 X234.036 S605
S0
G1 X233.782 S601
S0
G1 X233.655 S605
S0
G1 X233.528 S613
S0
G1 X233.401 S617
S0
G1 X233.274 S625
S0
G1 X233.147 S629
S0
G1 X232.893 S640
S0
G1 X232.766 S636
S0
G1 X232.258 S632
S0
G1 X232.131 S636
S0
G1 X232.004 S641
S0
G1 X231.750 S644
S0
G1 X231.623 S650
S0
G1 X231.496 S646
S0
G1 X231.242 S648
S0
G1 X231.115 S649
S0
G1 X230.988 S648
S0
G1 X230.861 S647
S0
G1 X230.734 S652
S0
G1 X230.607 S648
S0
G1 X230.480 S645
S0
G1 X230.353 S639
S0
G1 X230.226 S745
S0
G1 X230.099 S675
S0
G1 X229.972 S278
S0
G1 X229.845 S282
S0
G1 X229.718 S519
S0
G1 X229.591 S642
S0
G1 X229.464 S448
S0
G1 X229.337 S280
S0
G1 X229.210 S455
S0
G1 X229.083 S597
S0
G1 X228.956 S656
S0
G1 X228.829 S722
S0
G1 X228.702 S715
S0
G1 X228.575 S663
S0
G1 X228.448 S612
S0
G1 X228.321 S565
S0
G1 X228.194 S526
S0
G1 X228.067 S499
S0
G1 X227.940 S479
S0
G1 X227.813 S475
S0
G1 X227.686 S495
S0
G1 X227.559 S511
S0
G1 X227.432 S503
S0
G1 X227.305 S468
S0
G1 X227.178 S478
S0
G1 X227.051 S518
S0
G1 X226.924 S625
S0
G1 X226.797 S719
S0
G1 X226.670 S733
S0
G1 X226.543 S735
S0
G1 X226.416 S674
S0
G1 X226.289 S605
S0
G1 X226.162 S529
S0
G1 X226.035 S385
S0
G1 X225.908 S533
S0
G1 X225.781 S612
S0
G1 X225.654 S283
S0
G1 X225.527 S271
S0
G1 X225.400 S292
S0
G1 X225.273 S275
S0
G1 X225.146 S256
S0
G1 X225.019 S397
S0
G1 X224.892 S625
S0
G1 X224.765 S513
S0
G1 X224.638 S259
S0
G1 X224.511 S208
S0
G1 X224.384 S248
S0
G1 X224.257 S276
S0
G1 X224.130 S270
S0
G1 X224.003 S264
S0
G1 X223.876 S286
S0
G1 X223.749 S487
S0
G1 X223.622 S596
S0
G1 X223.495 S392
S0
G1 X223.368 S246
S0
G1 X223.241 S227
S0
G1 X223.114 S259
S0
G1 X222.987 S268
S0
G1 X222.860 S276
S0
G1 X222.606 S272
S0
G1 X222.479 S267
S0
G1 X222.225 S271
S0
G1 X222.098 S272
S0
G1 X221.971 S276
S0
G1 X221.844 S271
S0
G1 X221.590 S268
S0
G1 X221.463 S279
S0
G1 X221.082 S268
S0
G1 X220.955 S235
S0
G1 X220.701 S227
S0
G1 X220.574 S271
S0
G1 X220.447 S313
S0
G1 X220.320 S329
S0
G1 X220.193 S353
S0
G1 X220.066 S357
S0
G1 X219.939 S395
S0
G1 X219.812 S415
S0
G1 X219.685 S417
S0
G1 X219.558 S424
S0
G1 X219.431 S373
S0
G1 X219.304 S282
S0
G1 X219.177 S487
S0
G1 X219.050 S734
S0
G1 X218.923 S446
S0
G1 X218.796 S275
S0
G1 X218.669 S326
S0
G1 X218.542 S339
S0
G1 X218.415 S341
S0
G1 X218.288 S333
S0
G1 X218.161 S342
S0
G1 X218.034 S345
S0
G1 X217.907 S351
S0
G1 X217.653 S350
S0
G1 X217.526 S358
S0
G1 X217.399 S357
S0
G1 X217.272 S354
S0
G1 X217.145 S346
S0
G1 X217.018 S342
S0
G1 X216.891 S338
S0
G1 X216.764 S337
S0
G1 X216.637 S338
S0
G1 X216.510 S331
S0
G1 X216.383 S322
S0
G1 X216.256 S318
S0
G1 X216.129 S315
S0
G1 X216.002 S319
S0
G1 X215.748 S318
S0
G1 X215.621 S315
S0
G1 X215.367 S311
S0
G1 X215.240 S307
S0
G1 X215.113 S311
S0
G1 X214.986 S307
S0
G1 X214.478 S311
S0
G1 X214.351 S318
S0
G1 X214.097 S331
S0
G1 X213.970 S327
S0
G1 X213.716 S323
S0
G1 X213.589 S327
S0
G1 X213.335 S323
S0
G1 X213.208 S327
S0
G1 X213.081 S326
S0
G1 X212.954 S323
S0
G1 X212.827 S327
S0
G1 X212.700 S323
S0
G1 X212.446 S327
S0
G1 X212.319 S319
S0
G1 X212.192 S322
S0
G1 X212.065 S316
S0
G1 X211.811 S319
S0
G1 X211.557 S327
S0
G1 X211.430 S330
S0
G1 X211.303 S334
S0
G1 X211.176 S346
S0
G1 X210.922 S354
S0
G1 X210.795 S350
S0
G1 X210.668 S349
S0
G1 X210.541 S358
S0
G1 X210.414 S370
S0
G1 X210.287 S383
S0
G1 X210.033 S385
S0
G1 X209.906 S369
S0
G1 X209.779 S366
S0
G1 X209.525 S370
S0
G1 X209.398 S365
S0
G1 X209.271 S369
S0
G1 X209.144 S377
S0
G1 X209.017 S389
S0
G1 X208.890 S417
S0
G1 X208.763 S441
S0
G1 X208.636 S478
S0
G1 X208.509 S499
S0
G1 X208.382 S530
S0
G1 X208.255 S602
S0
G1 X208.128 S655
S0
G1 X208.001 S652
S0
G1 X207.874 S644
S0
G1 X207.747 S647
S0
G1 X207.493 S652
S0
G1 X206.858 S649
S0
G1 X206.604 S652
S0
G1 X206.477 S656
S0
G1 X206.223 S657
S0
G1 X206.096 S661
S0
G1 X205.715 S655
S0
G1 X204.318 S657
S0
G1 X203.937 S656
S0
G1 X203.683 S652
S0
G1 X203.429 S651
S0
G1 X203.302 S653
S0
G1 X203.048 S651
S0
G1 X202.794 S647
S0
G1 X202.540 S648
S0
G1 X201.778 S652
S0
G1 X201.524 S648
S0
G1 X201.397 S652
S0
G1 X201.270 S647
S0
G1 X201.143 S643
S0
G1 X201.016 S650
S0
G1 X200.762 S646
S0
G1 X200.508 S642
S0
G1 X200.254 S645
S0
G1 X200.000 S646
S0
G0 Y35.433
G0 X200.000 S0
G1 X200.508 S641
S0
G1 X200.635 S640
S0
G1 X200.762 S645
S0
G1 X201.016 S646
S0
G1 X201.143 S648
S0
G1 X201.270 S644
S0
G1 X201.651 S648
S0
G1 X201.778 S652
S0
G1 X201.905 S655
S0
G1 X202.286 S652
S0
G1 X202.413 S655
S0
G1 X202.540 S652
S0
G1 X203.048 S648
S0
G1 X203.175 S647
S0
G1 X203.556 S651
S0
G1 X203.810 S652
S0
G1 X204.445 S656
S0
G1 X205.334 S657
S0
G1 X206.223 S655
S0
G1 X206.350 S657
S0
G1 X206.477 S656
S0
G1 X206.731 S655
S0
G1 X206.858 S656
S0
G1 X206.985 S648
S0
G1 X207.366 S649
S0
G1 X207.493 S646
S0
G1 X207.747 S649
S0
G1 X207.874 S650
S0
G1 X208.128 S648
S0
G1 X208.255 S632
S0
G1 X208.382 S566
S0
G1 X208.509 S494
S0
G1 X208.636 S472
S0
G1 X208.763 S451
S0
G1 X208.890 S419
S0
G1 X209.017 S416
S0
G1 X209.144 S397
S0
G1 X209.271 S382
S0
G1 X209.398 S378
S0
G1 X209.525 S370
S0
G1 X209.652 S373
S0
G1 X209.779 S382
S0
G1 X209.906 S389
S0
G1 X210.033 S398
S0
G1 X210.160 S400
S0
G1 X210.287 S398
S0
G1 X210.414 S389
S0
G1 X210.541 S377
S0
G1 X210.668 S366
S0
G1 X210.795 S359
S0
G1 X211.176 S357
S0
G1 X211.303 S350
S0
G1 X211.430 S341
S0
G1 X211.557 S338
S0
G1 X211.684 S334
S0
G1 X211.811 S323
S0
G1 X211.938 S319
S0
G1 X212.065 S317
S0
G1 X212.192 S325
S0
G1 X212.319 S331
S0
G1 X212.573 S335
S0
G1 X213.208 S331
S0
G1 X213.335 S325
S0
G1 X213.589 S323
S0
G1 X213.843 S326
S0
G1 X213.970 S327
S0
G1 X214.097 S331
S0
G1 X214.351 S330
S0
G1 X214.478 S322
S0
G1 X214.605 S315
S0
G1 X214.986 S311
S0
G1 X215.748 S315
S0
G1 X215.875 S318
S0
G1 X216.002 S315
S0
G1 X216.129 S314
S0
G1 X216.256 S318
S0
G1 X216.510 S323
S0
G1 X216.637 S327
S0
G1 X216.764 S338
S0
G1 X216.891 S334
S0
G1 X217.018 S342
S0
G1 X217.145 S338
S0
G1 X217.272 S346
S0
G1 X217.399 S348
S0
G1 X217.780 S358
S0
G1 X217.907 S354
S0
G1 X218.034 S350
S0
G1 X218.161 S343
S0
G1 X218.288 S338
S0
G1 X218.415 S334
S0
G1 X218.542 S335
S0
G1 X218.669 S327
S0
G1 X218.796 S339
S0
G1 X218.923 S326
S0
G1 X219.050 S271
S0
G1 X219.177 S537
S0
G1 X219.304 S778
S0
G1 X219.431 S431
S0
G1 X219.558 S193
S0
G1 X219.685 S232
S0
G1 X219.812 S243
S0
G1 X219.939 S245
S0
G1 X220.066 S247
S0
G1 X220.193 S244
S0
G1 X220.320 S243
S0
G1 X220.447 S251
S0
G1 X220.574 S247
S0
G1 X220.701 S248
S0
G1 X220.828 S275
S0
G1 X220.955 S271
S0
G1 X221.082 S270
S0
G1 X221.209 S275
S0
G1 X221.336 S267
S0
G1 X221.463 S268
S0
G1 X221.590 S271
S0
G1 X221.717 S270
S0
G1 X221.844 S266
S0
G1 X222.098 S270
S0
G1 X222.225 S271
S0
G1 X222.352 S276
S0
G1 X222.479 S272
S0
G1 X222.606 S275
S0
G1 X222.733 S274
S0
G1 X222.987 S267
S0
G1 X223.114 S271
S0
G1 X223.241 S268
S0
G1 X223.368 S282
S0
G1 X223.495 S255
S0
G1 X223.622 S240
S0
G1 X223.749 S283
S0
G1 X223.876 S322
S0
G1 X224.003 S283
S0
G1 X224.130 S259
S0
G1 X224.257 S291
S0
G1 X224.384 S287
S0
G1 X224.511 S270
S0
G1 X224.638 S272
S0
G1 X224.765 S252
S0
G1 X224.892 S232
S0
G1 X225.019 S299
S0
G1 X225.146 S330
S0
G1 X225.273 S271
S0
G1 X225.400 S272
S0
G1 X225.527 S280
S0
G1 X225.654 S279
S0
G1 X225.781 S252
S0
G1 X225.908 S522
S0
G1 X226.035 S577
S0
G1 X226.162 S240
S0
G1 X226.289 S235
S0
G1 X226.416 S240
S0
G1 X226.543 S266
S0
G1 X226.670 S341
S0
G1 X226.797 S452
S0
G1 X226.924 S613
S0
G1 X227.051 S711
S0
G1 X227.178 S734
S0
G1 X227.305 S691
S0
G1 X227.432 S572
S0
G1 X227.559 S495
S0
G1 X227.686 S484
S0
G1 X227.813 S522
S0
G1 X227.940 S604
S0
G1 X228.067 S664
S0
G1 X228.194 S695
S0
G1 X228.321 S714
S0
G1 X228.448 S707
S0
G1 X228.575 S671
S0
G1 X228.702 S624
S0
G1 X228.829 S537
S0
G1 X228.956 S411
S0
G1 X229.083 S306
S0
G1 X229.210 S242
S0
G1 X229.337 S173
S0
G1 X229.464 S424
S0
G1 X229.591 S670
S0
G1 X229.718 S450
S0
G1 X229.845 S287
S0
G1 X229.972 S278
S0
G1 X230.099 S322
S0
G1 X230.226 S670
S0
G1 X230.353 S742
S0
G1 X230.480 S643
S0
G1 X230.607 S649
S0
G1 X230.734 S644
S0
G1 X230.861 S657
S0
G1 X231.115 S653
S0
G1 X231.242 S648
S0
G1 X231.369 S646
S0
G1 X231.496 S645
S0
G1 X231.623 S647
S0
G1 X231.750 S643
S0
G1 X231.877 S640
S0
G1 X232.004 S644
S0
G1 X232.131 S640
S0
G1 X232.258 S636
S0
G1 X232.512 S629
S0
G1 X232.766 S625
S0
G1 X232.893 S632
S0
G1 X233.147 S629
S0
G1 X233.274 S621
S0
G1 X233.401 S617
S0
G1 X233.655 S616
S0
G1 X233.782 S605
S0
G1 X233.909 S593
S0
G1 X234.036 S601
S0
G1 X234.163 S609
S0
G1 X234.290 S605
S0
G1 X234.417 S601
S0
G1 X234.544 S605
S0
G1 X234.671 S609
S0
G1 X234.798 S610
S0
G1 X234.925 S614
S0
G1 X235.052 S613
S0
G1 X235.306 S612
S0
G1 X235.433 S618
S0
G1 X235.560 S593
S0
G1 X235.687 S559
S0
G1 X235.814 S514
S0
G1 X235.941 S475
S0
G1 X236.068 S464
S0
G1 X236.195 S472
S0
G1 X236.322 S459
S0
G1 X236.449 S445
S0
G1 X236.576 S448
S0
G1 X236.703 S453
S0
G1 X236.830 S456
S0
G1 X236.957 S507
S0
G1 X237.084 S569
S0
G1 X237.211 S588
S0
G1 X237.338 S596
S0
G1 X237.465 S592
S0
G1 X237.592 S591
S0
G1 X237.719 S593
S0
G1 X237.846 S601
S0
G1 X237.973 S613
S0
G1 X238.100 S621
S0
G1 X238.227 S629
S0
G1 X238.354 S630
S0
G1 X238.608 S622
S0
G1 X238.735 S621
S0
G1 X238.862 S624
S0
G1 X238.989 S628
S0
G1 X239.370 S632
S0
G1 X239.497 S638
S0
G1 X239.751 S641
S0
G1 X240.259 S649
S0
G1 X240.386 S651
S0
G1 X240.513 S648
S0
G1 X240.640 S644
S0
G1 X241.148 S647
S0
G1 X241.910 S648
S0
G1 X242.418 S649
S0
G1 X242.672 S648
S0
G1 X243.180 S651
S0
G1 X243.688 S647
S0
G1 X243.815 S649
S0
G1 X243.942 S647
S0
G1 X244.069 S648
S0
G1 X244.196 S649
S0
G1 X244.577 S652
S0
G1 X244.958 S648
S0
G1 X245.212 S644
S0
G1 X245.593 S640
S0
G1 X245.720 S644
S0
G1 X246.736 S640
S0
G1 X247.244 S639
S0
G1 X247.371 S640
S0
G1 X247.498 S639
S0
G1 X247.625 S635
S0
G1 X247.752 S637
S0
G1 X248.133 S635
S0
G1 X248.514 S637
S0
G1 X248.895 S633
S0
G1 X249.403 S629
S0
G1 X249.530 S624
S0
G1 X249.784 S625
S0
G1 X250.038 S624
S0
G0 Y35.306
G0 X250.038 S0
G1 X249.784 S624
S0
G1 X249.657 S621
S0
G1 X249.530 S625
S0
G1 X249.276 S629
S0
G1 X249.149 S630
S0
G1 X248.895 S629
S0
G1 X248.768 S633
S0
G1 X248.641 S637
S0
G1 X248.387 S633
S0
G1 X248.133 S637
S0
G1 X247.879 S635
S0
G1 X247.752 S637
S0
G1 X247.498 S635
S0
G1 X246.990 S640
S0
G1 X246.863 S639
S0
G1 X245.085 S640
S0
G1 X244.831 S644
S0
G1 X244.577 S648
S0
G1 X244.450 S652
S0
G1 X244.323 S651
S0
G1 X244.196 S652
S0
G1 X243.942 S648
S0
G1 X243.053 S647
S0
G1 X242.672 S651
S0
G1 X242.545 S648
S0
G1 X241.783 S649
S0
G1 X241.021 S648
S0
G1 X240.640 S647
S0
G1 X240.513 S644
S0
G1 X240.259 S648
S0
G1 X240.132 S647
S0
G1 X239.751 S644
S0
G1 X239.624 S638
S0
G1 X239.497 S641
S0
G1 X239.370 S638
S0
G1 X239.243 S632
S0
G1 X238.862 S628
S0
G1 X238.735 S620
S0
G1 X238.608 S617
S0
G1 X238.481 S620
S0
G1 X238.354 S622
S0
G1 X238.227 S625
S0
G1 X238.100 S621
S0
G1 X237.973 S613
S0
G1 X237.846 S605
S0
G1 X237.719 S594
S0
G1 X237.592 S583
S0
G1 X237.465 S578
S0
G1 X237.338 S569
S0
G1 X237.211 S567
S0
G1 X237.084 S550
S0
G1 X236.957 S526
S0
G1 X236.830 S495
S0
G1 X236.703 S480
S0
G1 X236.449 S472
S0
G1 X236.322 S473
S0
G1 X236.195 S475
S0
G1 X236.068 S479
S0
G1 X235.941 S485
S0
G1 X235.814 S488
S0
G1 X235.687 S499
S0
G1 X235.560 S527
S0
G1 X235.433 S578
S0
G1 X235.306 S593
S0
G1 X235.179 S590
S0
G1 X235.052 S586
S0
G1 X234.925 S593
S0
G1 X234.798 S598
S0
G1 X234.671 S597
S0
G1 X234.544 S603
S0
G1 X234.417 S602
S0
G1 X234.290 S601
S0
G1 X234.163 S605
S0
G1 X233.909 S601
S0
G1 X233.782 S597
S0
G1 X233.655 S601
S0
G1 X233.528 S609
S0
G1 X233.401 S614
S0
G1 X233.147 S613
S0
G1 X233.020 S618
S0
G1 X232.639 S622
S0
G1 X232.512 S625
S0
G1 X232.385 S629
S0
G1 X232.258 S628
S0
G1 X232.131 S632
S0
G1 X232.004 S640
S0
G1 X231.750 S644
S0
G1 X231.496 S643
S0
G1 X231.242 S646
S0
G1 X231.115 S648
S0
G1 X230.861 S651
S0
G1 X230.734 S656
S0
G1 X230.607 S653
S0
G1 X230.480 S655
S0
G1 X230.353 S643
S0
G1 X230.226 S739
S0
G1 X230.099 S662
S0
G1 X229.972 S329
S0
G1 X229.845 S278
S0
G1 X229.718 S287
S0
G1 X229.591 S250
S0
G1 X229.464 S448
S0
G1 X229.337 S676
S0
G1 X229.210 S343
S0
G1 X229.083 S236
S0
G1 X228.956 S267
S0
G1 X228.829 S240
S0
G1 X228.702 S248
S0
G1 X228.575 S275
S0
G1 X228.448 S311
S0
G1 X228.321 S362
S0
G1 X228.194 S427
S0
G1 X228.067 S503
S0
G1 X227.940 S576
S0
G1 X227.813 S668
S0
G1 X227.686 S701
S0
G1 X227.559 S698
S0
G1 X227.432 S702
S0
G1 X227.305 S696
S0
G1 X227.178 S582
S0
G1 X227.051 S412
S0
G1 X226.924 S302
S0
G1 X226.797 S274
S0
G1 X226.670 S267
S0
G1 X226.543 S275
S0
G1 X226.416 S270
S0
G1 X226.289 S248
S0
G1 X226.162 S211
S0
G1 X226.035 S313
S0
G1 X225.908 S651
S0
G1 X225.781 S407
S0
G1 X225.654 S252
S0
G1 X225.527 S286
S0
G1 X225.400 S279
S0
G1 X225.273 S268
S0
G1 X225.146 S267
S0
G1 X225.019 S260
S0
G1 X224.892 S259
S0
G1 X224.765 S275
S0
G1 X224.638 S283
S0
G1 X224.511 S275
S0
G1 X224.384 S274
S0
G1 X224.130 S275
S0
G1 X224.003 S274
S0
G1 X223.876 S270
S0
G1 X223.749 S256
S0
G1 X223.622 S263
S0
G1 X223.495 S282
S0
G1 X223.368 S286
S0
G1 X223.241 S271
S0
G1 X223.114 S267
S0
G1 X222.733 S271
S0
G1 X222.606 S267
S0
G1 X222.479 S271
S0
G1 X222.352 S275
S0
G1 X222.225 S274
S0
G1 X222.098 S275
S0
G1 X221.971 S271
S0
G1 X221.844 S267
S0
G1 X221.590 S271
S0
G1 X221.336 S267
S0
G1 X221.209 S271
S0
G1 X221.082 S268
S0
G1 X220.955 S274
S0
G1 X220.828 S275
S0
G1 X220.701 S264
S0
G1 X220.574 S271
S0
G1 X220.447 S268
S0
G1 X220.320 S279
S0
G1 X220.193 S262
S0
G1 X220.066 S252
S0
G1 X219.939 S282
S0
G1 X219.812 S295
S0
G1 X219.685 S264
S0
G1 X219.558 S225
S0
G1 X219.431 S483
S0
G1 X219.304 S754
S0
G1 X219.177 S530
S0
G1 X219.050 S239
S0
G1 X218.923 S275
S0
G1 X218.796 S290
S0
G1 X218.669 S301
S0
G1 X218.542 S322
S0
G1 X218.415 S326
S0
G1 X218.288 S346
S0
G1 X218.161 S343
S0
G1 X218.034 S345
S0
G1 X217.907 S350
S0
G1 X217.780 S358
S0
G1 X217.653 S355
S0
G1 X217.526 S366
S0
G1 X217.272 S354
S0
G1 X217.145 S346
S0
G1 X217.018 S342
S0
G1 X216.764 S338
S0
G1 X216.637 S326
S0
G1 X216.510 S327
S0
G1 X216.383 S323
S0
G1 X216.002 S318
S0
G1 X215.621 S315
S0
G1 X215.367 S311
S0
G1 X215.240 S314
S0
G1 X215.113 S311
S0
G1 X214.605 S315
S0
G1 X214.478 S318
S0
G1 X214.351 S322
S0
G1 X214.224 S330
S0
G1 X213.716 S331
S0
G1 X213.589 S327
S0
G1 X213.462 S323
S0
G1 X213.335 S327
S0
G1 X213.208 S325
S0
G1 X212.827 S331
S0
G1 X212.573 S335
S0
G1 X212.319 S343
S0
G1 X212.192 S339
S0
G1 X212.065 S331
S0
G1 X211.938 S327
S0
G1 X211.811 S331
S0
G1 X211.684 S334
S0
G1 X211.557 S342
S0
G1 X211.430 S345
S0
G1 X211.303 S354
S0
G1 X211.176 S350
S0
G1 X211.049 S357
S0
G1 X210.922 S369
S0
G1 X210.668 S379
S0
G1 X210.541 S381
S0
G1 X210.414 S389
S0
G1 X210.287 S394
S0
