; GCODE generated by Laserweb
; Laser Min: 0%
; Laser Max: 100%
; Black Speed: 200mm/min
; White Speed: 800mm/min
; Resolution (mm per pixel): 0.12699999999999187mm
; Laser Spot Size: NaNmm
; Laser Feedrate: 2000mm/min
; X Offset: 200mm
; Y Offset: 0mm 

G1 F1000
; Start GCode
G92
G90
G1Z0
M3S0

G0 Y35.052
G0 X200.000 S0
G1 X209.271 S20
S0
G1 X209.525 S24
S0
G1 X209.652 S23
S0
G1 X209.779 S20
S0
G1 X209.906 S23
S0
G1 X210.033 S21
S0
G1 X210.160 S12
S0
G1 X210.287 S29
S0
G1 X210.414 S128
S0
G1 X210.541 S250
S0
G1 X210.668 S155
S0
G1 X210.795 S27
S0
G1 X210.922 S39
S0
G1 X211.049 S38
S0
G1 X211.176 S39
S0
G1 X211.303 S38
S0
G1 X211.430 S44
S0
G1 X211.557 S38
S0
G1 X211.684 S35
S0
G1 X211.811 S38
S0
G1 X211.938 S40
S0
G1 X212.065 S39
S0
G1 X212.192 S41
S0
G1 X212.319 S50
S0
G1 X212.446 S55
S0
G1 X212.573 S59
S0
G1 X212.700 S62
S0
G1 X212.827 S65
S0
G1 X212.954 S63
S0
G1 X213.081 S59
S0
G1 X213.208 S70
S0
G1 X213.335 S77
S0
G1 X213.462 S89
S0
G1 X213.589 S167
S0
G1 X213.716 S313
S0
G1 X213.843 S395
S0
G1 X213.970 S387
S0
G1 X214.097 S261
S0
G1 X214.224 S153
S0
G1 X214.351 S172
S0
G1 X214.478 S383
S0
G1 X214.605 S273
S0
G1 X214.732 S145
S0
G1 X214.859 S178
S0
G1 X214.986 S174
S0
G1 X215.113 S169
S0
G1 X215.240 S225
S0
G1 X215.367 S211
S0
G1 X215.494 S164
S0
G1 X215.621 S175
S0
G1 X215.748 S174
S0
G1 X215.875 S147
S0
G1 X216.002 S183
S0
G1 X216.129 S387
S0
G1 X216.256 S277
S0
G1 X216.383 S152
S0
G1 X216.510 S159
S0
G1 X216.637 S164
S0
G1 X216.764 S160
S0
G1 X216.891 S168
S0
G1 X217.145 S159
S0
G1 X217.272 S152
S0
G1 X217.399 S160
S0
G1 X217.526 S166
S0
G1 X217.653 S155
S0
G1 X217.780 S184
S0
G1 X217.907 S220
S0
G1 X218.034 S165
S0
G1 X218.161 S145
S0
G1 X218.288 S152
S0
G1 X218.415 S236
S0
G1 X218.542 S258
S0
G1 X218.669 S204
S0
G1 X218.796 S360
S0
G1 X218.923 S247
S0
G1 X219.050 S188
S0
G1 X219.177 S290
S0
G1 X219.304 S242
S0
G1 X219.431 S147
S0
G1 X219.558 S168
S0
G1 X219.685 S164
S0
G1 X219.812 S160
S0
G1 X219.939 S182
S0
G1 X220.066 S239
S0
G1 X220.193 S277
S0
G1 X220.320 S310
S0
G1 X220.447 S337
S0
G1 X220.574 S345
S0
G1 X220.701 S340
S0
G1 X220.828 S339
S0
G1 X220.955 S344
S0
G1 X221.082 S348
S0
G1 X221.209 S321
S0
G1 X221.336 S424
S0
G1 X221.463 S588
S0
G1 X221.590 S431
S0
G1 X221.717 S387
S0
G1 X221.844 S190
S0
G1 X221.971 S164
S0
G1 X222.225 S178
S0
G1 X222.352 S152
S0
G1 X222.479 S164
S0
G1 X222.606 S256
S0
G1 X222.733 S352
S0
G1 X222.860 S403
S0
G1 X222.987 S415
S0
G1 X223.114 S339
S0
G1 X223.241 S218
S0
G1 X223.368 S171
S0
G1 X223.495 S176
S0
G1 X223.622 S178
S0
G1 X223.749 S176
S0
G1 X223.876 S171
S0
G1 X224.003 S167
S0
G1 X224.130 S176
S0
G1 X224.257 S185
S0
G1 X224.384 S175
S0
G1 X224.511 S140
S0
G1 X224.638 S82
S0
G1 X224.765 S59
S0
G1 X224.892 S48
S0
G1 X225.019 S43
S0
G1 X225.146 S40
S0
G1 X225.273 S41
S0
G1 X225.400 S39
S0
G1 X225.527 S62
S0
G1 X225.654 S78
S0
G1 X225.781 S122
S0
G1 X225.908 S224
S0
G1 X226.035 S305
S0
G1 X226.162 S148
S0
G1 X226.289 S14
S0
G1 X226.416 S28
S0
G1 X232.004 S20
S0
G1 X232.131 S19
S0
G1 X232.258 S20
S0
G1 X232.385 S19
S0
G1 X232.766 S20
S0
G1 X232.893 S19
S0
G1 X233.147 S20
S0
G1 X233.274 S21
S0
G1 X233.401 S18
S0
G1 X233.528 S19
S0
G1 X233.655 S23
S0
G1 X233.782 S27
S0
G1 X233.909 S28
S0
G1 X234.036 S24
S0
G1 X234.163 S15
S0
G1 X234.290 S16
S0
G1 X234.417 S21
S0
G1 X234.544 S20
S0
G1 X234.671 S19
S0
G1 X235.052 S21
S0
G1 X235.179 S19
S0
G1 X235.306 S20
S0
G1 X235.433 S24
S0
G1 X235.687 S19
S0
G1 X235.941 S22
S0
G1 X236.195 S21
S0
G1 X236.322 S19
S0
G1 X236.449 S25
S0
G1 X236.576 S21
S0
G1 X237.084 S20
S0
G1 X237.211 S22
S0
G1 X250.038 S20
S0
G0 Y34.925
G0 X250.038 S0
G1 X236.703 S20
S0
G1 X236.576 S22
S0
G1 X236.449 S23
S0
G1 X236.322 S16
S0
G1 X236.068 S20
S0
G1 X235.941 S19
S0
G1 X235.814 S15
S0
G1 X235.687 S19
S0
G1 X235.560 S21
S0
G1 X235.433 S24
S0
G1 X235.306 S25
S0
G1 X235.179 S23
S0
G1 X234.544 S20
S0
G1 X234.417 S21
S0
G1 X234.290 S15
S0
G1 X234.163 S27
S0
G1 X234.036 S32
S0
G1 X233.782 S19
S0
G1 X233.528 S20
S0
G1 X233.401 S29
S0
G1 X233.274 S24
S0
G1 X232.893 S20
S0
G1 X232.766 S22
S0
G1 X232.639 S17
S0
G1 X232.258 S20
S0
G1 X232.131 S19
S0
G1 X232.004 S21
S0
G1 X226.416 S20
S0
G1 X226.289 S23
S0
G1 X226.162 S7
S0
G1 X226.035 S255
S0
G1 X225.908 S216
S0
G1 X225.781 S12
S0
G1 X225.654 S41
S0
G1 X225.527 S27
S0
G1 X225.400 S31
S0
G1 X225.273 S42
S0
G1 X225.146 S46
S0
G1 X225.019 S47
S0
G1 X224.892 S40
S0
G1 X224.765 S50
S0
G1 X224.638 S69
S0
G1 X224.511 S108
S0
G1 X224.384 S161
S0
G1 X224.257 S167
S0
G1 X224.130 S172
S0
G1 X224.003 S176
S0
G1 X223.876 S178
S0
G1 X223.749 S174
S0
G1 X223.622 S162
S0
G1 X223.495 S171
S0
G1 X223.368 S179
S0
G1 X223.241 S182
S0
G1 X223.114 S170
S0
G1 X222.987 S158
S0
G1 X222.860 S169
S0
G1 X222.733 S237
S0
G1 X222.606 S356
S0
G1 X222.479 S394
S0
G1 X222.352 S375
S0
G1 X222.225 S297
S0
G1 X222.098 S168
S0
G1 X221.971 S149
S0
G1 X221.844 S178
S0
G1 X221.717 S141
S0
G1 X221.590 S374
S0
G1 X221.463 S659
S0
G1 X221.336 S584
S0
G1 X221.209 S310
S0
G1 X221.082 S328
S0
G1 X220.955 S340
S0
G1 X220.828 S344
S0
G1 X220.701 S341
S0
G1 X220.574 S345
S0
G1 X220.447 S340
S0
G1 X220.320 S329
S0
G1 X220.193 S301
S0
G1 X220.066 S269
S0
G1 X219.939 S235
S0
G1 X219.812 S173
S0
G1 X219.558 S160
S0
G1 X219.431 S161
S0
G1 X219.304 S182
S0
G1 X219.177 S446
S0
G1 X219.050 S375
S0
G1 X218.923 S180
S0
G1 X218.796 S294
S0
G1 X218.669 S430
S0
G1 X218.542 S228
S0
G1 X218.415 S133
S0
G1 X218.288 S149
S0
G1 X218.161 S172
S0
G1 X218.034 S263
S0
G1 X217.907 S318
S0
G1 X217.780 S341
S0
G1 X217.653 S279
S0
G1 X217.526 S129
S0
G1 X217.399 S165
S0
G1 X217.272 S157
S0
G1 X217.145 S161
S0
G1 X217.018 S157
S0
G1 X216.891 S168
S0
G1 X216.764 S164
S0
G1 X216.637 S163
S0
G1 X216.510 S153
S0
G1 X216.383 S155
S0
G1 X216.256 S156
S0
G1 X216.129 S107
S0
G1 X216.002 S336
S0
G1 X215.875 S437
S0
G1 X215.748 S258
S0
G1 X215.621 S167
S0
G1 X215.494 S170
S0
G1 X215.367 S198
S0
G1 X215.240 S324
S0
G1 X215.113 S217
S0
G1 X214.986 S171
S0
G1 X214.859 S179
S0
G1 X214.732 S164
S0
G1 X214.605 S230
S0
G1 X214.478 S395
S0
G1 X214.351 S183
S0
G1 X214.224 S228
S0
G1 X214.097 S395
S0
G1 X213.970 S427
S0
G1 X213.843 S339
S0
G1 X213.716 S179
S0
G1 X213.589 S105
S0
G1 X213.462 S83
S0
G1 X213.335 S67
S0
G1 X213.208 S77
S0
G1 X213.081 S66
S0
G1 X212.954 S57
S0
G1 X212.827 S69
S0
G1 X212.700 S61
S0
G1 X212.573 S54
S0
G1 X212.446 S55
S0
G1 X212.319 S50
S0
G1 X212.192 S46
S0
G1 X212.065 S39
S0
G1 X211.811 S38
S0
G1 X211.557 S40
S0
G1 X211.430 S39
S0
G1 X211.303 S38
S0
G1 X211.176 S44
S0
G1 X211.049 S41
S0
G1 X210.922 S35
S0
G1 X210.795 S38
S0
G1 X210.668 S40
S0
G1 X210.541 S86
S0
G1 X210.414 S176
S0
G1 X210.287 S236
S0
G1 X210.160 S234
S0
G1 X210.033 S48
S0
G1 X209.906 S16
S0
G1 X209.779 S24
S0
G1 X209.652 S15
S0
G1 X209.525 S19
S0
G1 X209.398 S22
S0
G1 X209.271 S20
S0
G1 X209.144 S23
S0
G1 X200.000 S20
S0
G0 Y34.798
G0 X200.000 S0
G1 X209.271 S20
S0
G1 X209.398 S16
S0
G1 X209.779 S20
S0
G1 X209.906 S15
S0
G1 X210.033 S5
S0
G1 X210.160 S137
S0
G1 X210.287 S224
S0
G1 X210.541 S13
S0
G1 X210.668 S34
S0
G1 X210.795 S43
S0
G1 X210.922 S39
S0
G1 X211.049 S41
S0
G1 X211.176 S36
S0
G1 X211.430 S43
S0
G1 X211.557 S42
S0
G1 X211.811 S38
S0
G1 X211.938 S42
S0
G1 X212.065 S40
S0
G1 X212.192 S42
S0
G1 X212.319 S39
S0
G1 X212.446 S46
S0
G1 X212.573 S51
S0
G1 X212.700 S48
S0
G1 X212.827 S56
S0
G1 X212.954 S63
S0
G1 X213.081 S51
S0
G1 X213.208 S58
S0
G1 X213.462 S74
S0
G1 X213.589 S96
S0
G1 X213.716 S148
S0
G1 X213.843 S144
S0
G1 X213.970 S124
S0
G1 X214.097 S163
S0
G1 X214.224 S316
S0
G1 X214.351 S450
S0
G1 X214.478 S336
S0
G1 X214.605 S276
S0
G1 X214.732 S390
S0
G1 X214.859 S185
S0
G1 X214.986 S166
S0
G1 X215.113 S183
S0
G1 X215.240 S168
S0
G1 X215.367 S278
S0
G1 X215.494 S364
S0
G1 X215.621 S144
S0
G1 X215.748 S252
S0
G1 X215.875 S443
S0
G1 X216.002 S321
S0
G1 X216.129 S180
S0
G1 X216.256 S60
S0
G1 X216.383 S77
S0
G1 X216.510 S159
S0
G1 X216.637 S155
S0
G1 X216.764 S159
S0
G1 X216.891 S165
S0
G1 X217.018 S161
S0
G1 X217.145 S156
S0
G1 X217.272 S160
S0
G1 X217.399 S164
S0
G1 X217.526 S145
S0
G1 X217.653 S160
S0
G1 X217.780 S173
S0
G1 X217.907 S187
S0
G1 X218.034 S372
S0
G1 X218.161 S296
S0
G1 X218.288 S144
S0
G1 X218.415 S168
S0
G1 X218.542 S211
S0
G1 X218.669 S227
S0
G1 X218.796 S230
S0
G1 X218.923 S231
S0
G1 X219.050 S222
S0
G1 X219.177 S264
S0
G1 X219.304 S390
S0
G1 X219.431 S289
S0
G1 X219.558 S141
S0
G1 X219.685 S156
S0
G1 X219.812 S161
S0
G1 X219.939 S162
S0
G1 X220.066 S226
S0
G1 X220.193 S277
S0
G1 X220.320 S293
S0
G1 X220.447 S332
S0
G1 X220.574 S340
S0
G1 X220.701 S341
S0
G1 X220.828 S340
S0
G1 X220.955 S336
S0
G1 X221.082 S340
S0
G1 X221.209 S333
S0
G1 X221.336 S314
S0
G1 X221.463 S386
S0
G1 X221.590 S579
S0
G1 X221.717 S249
S0
G1 X221.844 S138
S0
G1 X221.971 S144
S0
G1 X222.098 S269
S0
G1 X222.225 S407
S0
G1 X222.352 S368
S0
G1 X222.479 S253
S0
G1 X222.606 S172
S0
G1 X222.733 S160
S0
G1 X222.860 S159
S0
G1 X222.987 S171
S0
G1 X223.114 S177
S0
G1 X223.241 S172
S0
G1 X223.368 S174
S0
G1 X223.495 S187
S0
G1 X223.622 S151
S0
G1 X223.749 S118
S0
G1 X223.876 S148
S0
G1 X224.003 S175
S0
G1 X224.130 S172
S0
G1 X224.257 S168
S0
G1 X224.384 S179
S0
G1 X224.511 S170
S0
G1 X224.638 S111
S0
G1 X224.765 S78
S0
G1 X224.892 S49
S0
G1 X225.019 S47
S0
G1 X225.146 S39
S0
G1 X225.273 S48
S0
G1 X225.400 S40
S0
G1 X225.527 S38
S0
G1 X225.654 S34
S0
G1 X225.781 S13
S0
G1 X225.908 S137
S0
G1 X226.035 S310
S0
G1 X226.162 S67
S0
G1 X226.289 S26
S0
G1 X226.416 S21
S0
G1 X232.512 S20
S0
G1 X232.639 S17
S0
G1 X232.766 S24
S0
G1 X232.893 S19
S0
G1 X233.020 S15
S0
G1 X233.147 S25
S0
G1 X233.274 S16
S0
G1 X233.401 S23
S0
G1 X233.528 S28
S0
G1 X233.655 S20
S0
G1 X233.782 S16
S0
G1 X233.909 S20
S0
G1 X234.036 S29
S0
G1 X234.163 S28
S0
G1 X234.417 S19
S0
G1 X234.671 S22
S0
G1 X235.052 S19
S0
G1 X235.179 S22
S0
G1 X235.306 S21
S0
G1 X235.687 S20
S0
G1 X235.814 S19
S0
G1 X235.941 S17
S0
G1 X236.068 S24
S0
G1 X236.322 S20
S0
G1 X236.449 S19
S0
G1 X236.703 S22
S0
G1 X250.038 S20
S0
G0 Y34.671
G0 X250.038 S0
G1 X236.703 S20
S0
G1 X236.449 S23
S0
G1 X236.195 S20
S0
G1 X235.814 S21
S0
G1 X235.687 S20
S0
G1 X235.433 S19
S0
G1 X235.306 S21
S0
G1 X235.179 S20
S0
G1 X235.052 S22
S0
G1 X234.798 S24
S0
G1 X234.671 S20
S0
G1 X234.544 S19
S0
G1 X234.417 S20
S0
G1 X234.290 S17
S0
G1 X234.163 S24
S0
G1 X234.036 S19
S0
G1 X233.909 S26
S0
G1 X233.782 S16
S0
G1 X233.655 S21
S0
G1 X233.528 S23
S0
G1 X233.401 S24
S0
G1 X233.274 S20
S0
G1 X233.147 S15
S0
G1 X233.020 S20
S0
G1 X232.893 S24
S0
G1 X232.766 S15
S0
G1 X232.639 S24
S0
G1 X226.416 S20
S0
G1 X226.289 S23
S0
G1 X226.162 S28
S0
G1 X226.035 S2
S0
G1 X225.908 S132
S0
G1 X225.781 S332
S0
G1 X225.654 S63
S0
G1 X225.527 S15
S0
G1 X225.400 S40
S0
G1 X225.273 S39
S0
G1 X225.146 S50
S0
G1 X225.019 S43
S0
G1 X224.892 S42
S0
G1 X224.765 S47
S0
G1 X224.638 S62
S0
G1 X224.511 S93
S0
G1 X224.384 S109
S0
G1 X224.257 S139
S0
G1 X224.130 S166
S0
G1 X224.003 S175
S0
G1 X223.876 S147
S0
G1 X223.749 S120
S0
G1 X223.622 S102
S0
G1 X223.495 S140
S0
G1 X223.368 S170
S0
G1 X223.114 S174
S0
G1 X222.987 S168
S0
G1 X222.733 S167
S0
G1 X222.606 S179
S0
G1 X222.479 S172
S0
G1 X222.352 S151
S0
G1 X222.225 S146
S0
G1 X222.098 S270
S0
G1 X221.971 S392
S0
G1 X221.844 S347
S0
G1 X221.717 S188
S0
G1 X221.590 S227
S0
G1 X221.463 S533
S0
G1 X221.336 S332
S0
G1 X221.209 S313
S0
G1 X221.082 S338
S0
G1 X220.955 S337
S0
G1 X220.828 S340
S0
G1 X220.701 S341
S0
G1 X220.574 S344
S0
G1 X220.447 S341
S0
G1 X220.320 S332
S0
G1 X220.193 S308
S0
G1 X220.066 S281
S0
G1 X219.939 S246
S0
G1 X219.812 S166
S0
G1 X219.685 S169
S0
G1 X219.558 S178
S0
G1 X219.431 S219
S0
G1 X219.304 S458
S0
G1 X219.177 S311
S0
G1 X219.050 S226
S0
G1 X218.923 S273
S0
G1 X218.796 S259
S0
G1 X218.669 S260
S0
G1 X218.542 S255
S0
G1 X218.415 S216
S0
G1 X218.288 S188
S0
G1 X218.161 S165
S0
G1 X218.034 S159
S0
G1 X217.907 S167
S0
G1 X217.780 S152
S0
G1 X217.653 S143
S0
G1 X217.526 S263
S0
G1 X217.399 S258
S0
G1 X217.272 S152
S0
G1 X217.145 S156
S0
G1 X217.018 S159
S0
G1 X216.891 S161
S0
G1 X216.764 S151
S0
G1 X216.637 S160
S0
G1 X216.510 S164
S0
G1 X216.383 S165
S0
G1 X216.256 S92
S0
G1 X216.129 S112
S0
G1 X216.002 S154
S0
G1 X215.875 S105
S0
G1 X215.748 S305
S0
G1 X215.621 S449
S0
G1 X215.494 S349
S0
G1 X215.367 S319
S0
G1 X215.240 S156
S0
G1 X215.113 S176
S0
G1 X214.986 S166
S0
G1 X214.859 S153
S0
G1 X214.732 S323
S0
G1 X214.605 S366
S0
G1 X214.478 S395
S0
G1 X214.351 S411
S0
G1 X214.224 S224
S0
G1 X214.097 S144
S0
G1 X213.970 S154
S0
G1 X213.843 S167
S0
G1 X213.716 S155
S0
G1 X213.589 S141
S0
G1 X213.462 S113
S0
G1 X213.335 S77
S0
G1 X213.208 S62
S0
G1 X213.081 S51
S0
G1 X212.954 S43
S0
G1 X212.700 S47
S0
G1 X212.573 S43
S0
G1 X212.319 S47
S0
G1 X212.192 S44
S0
G1 X212.065 S41
S0
G1 X211.938 S39
S0
G1 X211.811 S43
S0
G1 X211.684 S39
S0
G1 X211.557 S40
S0
G1 X211.430 S42
S0
G1 X211.303 S44
S0
G1 X211.176 S38
S0
G1 X211.049 S40
S0
G1 X210.922 S35
S0
G1 X210.795 S40
S0
G1 X210.668 S46
S0
G1 X210.541 S53
S0
G1 X210.414 S32
S0
G1 X210.287 S11
S0
G1 X210.160 S187
S0
G1 X210.033 S117
S0
G1 X209.906 S7
S0
G1 X209.779 S16
S0
G1 X209.652 S21
S0
G1 X209.525 S19
S0
G1 X209.398 S21
S0
G1 X209.271 S20
S0
G1 X209.144 S19
S0
G1 X200.000 S20
S0
G0 Y34.544
G0 X200.000 S0
G1 X209.144 S20
S0
G1 X209.271 S15
S0
G1 X209.398 S23
S0
G1 X209.525 S17
S0
G1 X209.652 S20
S0
G1 X209.779 S16
S0
G1 X210.033 S21
S0
G1 X210.160 S31
S0
G1 X210.287 S187
S0
G1 X210.414 S203
S0
G1 X210.541 S25
S0
G1 X210.668 S20
S0
G1 X210.795 S48
S0
G1 X210.922 S38
S0
G1 X211.303 S43
S0
G1 X211.430 S34
S0
G1 X211.557 S39
S0
G1 X211.684 S40
S0
G1 X211.811 S38
S0
G1 X211.938 S40
S0
G1 X212.065 S43
S0
G1 X212.192 S46
S0
G1 X212.319 S48
S0
G1 X212.446 S44
S0
G1 X212.573 S42
S0
G1 X212.700 S43
S0
G1 X212.827 S42
S0
G1 X213.081 S45
S0
G1 X213.208 S59
S0
G1 X213.335 S66
S0
G1 X213.462 S74
S0
G1 X213.589 S125
S0
G1 X213.716 S156
S0
G1 X213.843 S143
S0
G1 X213.970 S160
S0
G1 X214.097 S177
S0
G1 X214.224 S171
S0
G1 X214.351 S156
S0
G1 X214.478 S153
S0
G1 X214.605 S340
S0
G1 X214.732 S438
S0
G1 X214.859 S414
S0
G1 X214.986 S332
S0
G1 X215.113 S160
S0
G1 X215.240 S156
S0
G1 X215.367 S142
S0
G1 X215.494 S249
S0
G1 X215.621 S485
S0
G1 X215.748 S262
S0
G1 X215.875 S151
S0
G1 X216.002 S173
S0
G1 X216.129 S156
S0
G1 X216.256 S160
S0
G1 X216.383 S171
S0
G1 X216.510 S160
S0
G1 X216.637 S156
S0
G1 X216.764 S159
S0
G1 X216.891 S164
S0
G1 X217.018 S160
S0
G1 X217.145 S164
S0
G1 X217.272 S140
S0
G1 X217.399 S173
S0
G1 X217.526 S422
S0
G1 X217.653 S251
S0
G1 X217.780 S139
S0
G1 X217.907 S160
S0
G1 X218.034 S165
S0
G1 X218.161 S160
S0
G1 X218.288 S164
S0
G1 X218.415 S200
S0
G1 X218.542 S219
S0
G1 X218.669 S265
S0
G1 X218.796 S297
S0
G1 X218.923 S300
S0
G1 X219.050 S298
S0
G1 X219.177 S277
S0
G1 X219.304 S305
S0
G1 X219.431 S419
S0
G1 X219.558 S308
S0
G1 X219.685 S281
S0
G1 X219.812 S391
S0
G1 X219.939 S247
S0
G1 X220.066 S227
S0
G1 X220.193 S301
S0
G1 X220.320 S310
S0
G1 X220.447 S333
S0
G1 X220.701 S341
S0
G1 X220.828 S340
S0
G1 X220.955 S336
S0
G1 X221.209 S333
S0
G1 X221.336 S314
S0
G1 X221.463 S353
S0
G1 X221.590 S434
S0
G1 X221.717 S337
S0
G1 X221.844 S410
S0
G1 X221.971 S332
S0
G1 X222.098 S178
S0
G1 X222.225 S145
S0
G1 X222.352 S172
S0
G1 X222.479 S175
S0
G1 X222.606 S159
S0
G1 X222.733 S150
S0
G1 X222.860 S175
S0
G1 X222.987 S211
S0
G1 X223.114 S207
S0
G1 X223.241 S183
S0
G1 X223.368 S175
S0
G1 X223.495 S155
S0
G1 X223.622 S115
S0
G1 X223.749 S104
S0
G1 X223.876 S135
S0
G1 X224.003 S141
S0
G1 X224.130 S133
S0
G1 X224.257 S111
S0
G1 X224.384 S80
S0
G1 X224.511 S69
S0
G1 X224.638 S70
S0
G1 X224.765 S55
S0
G1 X224.892 S42
S0
G1 X225.019 S38
S0
G1 X225.146 S39
S0
G1 X225.273 S43
S0
G1 X225.400 S52
S0
G1 X225.527 S11
S0
G1 X225.654 S35
S0
G1 X225.781 S289
S0
G1 X225.908 S156
S0
G1 X226.035 S10
S0
G1 X226.162 S28
S0
G1 X226.416 S23
S0
G1 X232.893 S20
S0
G1 X233.020 S17
S0
G1 X233.147 S15
S0
G1 X233.274 S28
S0
G1 X233.401 S24
S0
G1 X233.528 S12
S0
G1 X233.655 S2
S0
G1 X233.909 S12
S0
G0 X234.036 S0
G1 X234.163 S20
S0
G1 X234.290 S30
S0
G1 X234.417 S25
S0
G1 X234.544 S21
S0
G1 X235.433 S20
S0
G1 X235.560 S22
S0
G1 X235.687 S18
S0
G1 X235.814 S23
S0
G1 X235.941 S24
S0
G1 X236.068 S20
S0
G1 X236.195 S15
S0
G1 X236.322 S27
S0
G1 X236.449 S17
S0
G1 X250.038 S20
S0
G0 Y34.417
G0 X250.038 S0
G1 X237.211 S20
S0
G1 X237.084 S22
S0
G1 X236.957 S20
S0
G1 X236.830 S15
S0
G1 X236.576 S20
S0
G1 X236.322 S21
S0
G1 X236.195 S23
S0
G1 X236.068 S24
S0
G1 X235.941 S15
S0
G1 X235.814 S25
S0
G1 X235.687 S7
S0
G1 X235.560 S29
S0
G1 X235.433 S24
S0
G1 X235.306 S20
S0
G1 X234.925 S19
S0
G1 X234.798 S23
S0
G1 X234.671 S20
S0
G1 X234.417 S23
S0
G1 X234.290 S28
S0
G1 X234.036 S9
S0
G1 X233.909 S161
S0
G1 X233.782 S242
S0
G1 X233.655 S238
S0
G1 X233.528 S200
S0
G1 X233.401 S58
S0
G0 X233.274 S0
G1 X233.147 S27
S0
G1 X233.020 S25
S0
G1 X232.893 S15
S0
G1 X232.766 S23
S0
G1 X232.639 S20
S0
G1 X232.512 S21
S0
G1 X226.416 S20
S0
G1 X226.289 S25
S0
G1 X226.162 S23
S0
G1 X226.035 S22
S0
G1 X225.908 S16
S0
G1 X225.781 S2
S0
G1 X225.654 S247
S0
G1 X225.527 S266
S0
G1 X225.400 S32
S0
G1 X225.273 S16
S0
G1 X225.146 S44
S0
G1 X225.019 S41
S0
G1 X224.892 S42
S0
G1 X224.765 S34
S0
G1 X224.638 S48
S0
G1 X224.511 S54
S0
G1 X224.384 S61
S0
G1 X224.257 S70
S0
G1 X224.130 S85
S0
G1 X224.003 S93
S0
G1 X223.876 S100
S0
G1 X223.749 S116
S0
G1 X223.622 S117
S0
G1 X223.495 S121
S0
G1 X223.368 S147
S0
G1 X223.241 S175
S0
G1 X223.114 S183
S0
G1 X222.987 S268
S0
G1 X222.860 S325
S0
G1 X222.733 S320
S0
G1 X222.606 S283
S0
G1 X222.479 S223
S0
G1 X222.352 S159
S0
G1 X222.225 S155
S0
G1 X222.098 S182
S0
G1 X221.971 S178
S0
G1 X221.844 S154
S0
G1 X221.717 S253
S0
G1 X221.590 S453
S0
G1 X221.463 S443
S0
G1 X221.336 S310
S0
G1 X221.209 S318
S0
G1 X220.955 S336
S0
G1 X220.828 S332
S0
G1 X220.701 S337
S0
G1 X220.574 S341
S0
G1 X220.447 S344
S0
G1 X220.320 S336
S0
G1 X220.066 S321
S0
G1 X219.939 S234
S0
G1 X219.812 S298
S0
G1 X219.685 S553
S0
G1 X219.558 S367
S0
G1 X219.431 S243
S0
G1 X219.304 S247
S0
G1 X219.177 S282
S0
G1 X219.050 S309
S0
G1 X218.923 S310
S0
G1 X218.796 S314
S0
G1 X218.669 S310
S0
G1 X218.542 S292
S0
G1 X218.415 S237
S0
G1 X218.288 S179
S0
G1 X218.161 S167
S0
G1 X218.034 S173
S0
G1 X217.907 S187
S0
G1 X217.780 S176
S0
G1 X217.653 S136
S0
G1 X217.526 S231
S0
G1 X217.399 S318
S0
G1 X217.272 S208
S0
G1 X217.145 S197
S0
G1 X217.018 S155
S0
G1 X216.891 S163
S0
G1 X216.764 S160
S0
G1 X216.637 S155
S0
G1 X216.510 S167
S0
G1 X216.383 S151
S0
G1 X216.256 S159
S0
G1 X216.129 S156
S0
G1 X216.002 S160
S0
G1 X215.875 S161
S0
G1 X215.748 S164
S0
G1 X215.621 S113
S0
G1 X215.494 S360
S0
G1 X215.367 S305
S0
G1 X215.240 S125
S0
G1 X215.113 S190
S0
G1 X214.986 S339
S0
G1 X214.859 S393
S0
G1 X214.732 S438
S0
G1 X214.605 S293
S0
G1 X214.478 S134
S0
G1 X214.351 S168
S0
G1 X214.224 S180
S0
G1 X214.097 S174
S0
G1 X213.843 S167
S0
G1 X213.716 S139
S0
G1 X213.589 S130
S0
G1 X213.462 S103
S0
G1 X213.208 S62
S0
G1 X213.081 S59
S0
G1 X212.954 S50
S0
G1 X212.827 S54
S0
G1 X212.700 S47
S0
G1 X212.573 S46
S0
G1 X212.446 S44
S0
G1 X212.192 S41
S0
G1 X211.938 S42
S0
G1 X211.430 S39
S0
G1 X211.303 S44
S0
G1 X211.176 S39
S0
G1 X210.922 S50
S0
G1 X210.795 S44
S0
G1 X210.668 S11
S0
G1 X210.541 S38
S0
G1 X210.414 S231
S0
G1 X210.287 S211
S0
G1 X210.160 S18
S0
G1 X210.033 S20
S0
G1 X209.906 S24
S0
G1 X209.779 S15
S0
G1 X209.652 S21
S0
G1 X209.525 S25
S0
G1 X209.398 S20
S0
G1 X209.271 S23
S0
G1 X200.000 S20
S0
G0 Y34.290
G0 X200.000 S0
G1 X209.144 S20
S0
G1 X209.271 S23
S0
G1 X209.398 S16
S0
G1 X209.525 S24
S0
G1 X209.652 S19
S0
G1 X209.906 S16
S0
G1 X210.033 S20
S0
G1 X210.160 S27
S0
G1 X210.287 S13
S0
G1 X210.414 S6
S0
G1 X210.541 S161
S0
G1 X210.668 S279
S0
G1 X210.795 S97
S0
G1 X210.922 S13
S0
G1 X211.049 S32
S0
G1 X211.176 S34
S0
G1 X211.303 S42
S0
G1 X211.430 S51
S0
G1 X211.557 S42
S0
G1 X211.684 S35
S0
G1 X211.811 S40
S0
G1 X211.938 S39
S0
G1 X212.065 S41
S0
G1 X212.446 S43
S0
G1 X212.573 S44
S0
G1 X212.700 S46
S0
G1 X212.827 S48
S0
G1 X212.954 S42
S0
G1 X213.081 S43
S0
G1 X213.208 S48
S0
G1 X213.335 S109
S0
G1 X213.462 S199
S0
G1 X213.589 S214
S0
G1 X213.716 S191
S0
G1 X213.843 S185
S0
G1 X213.970 S152
S0
G1 X214.097 S148
S0
G1 X214.224 S155
S0
G1 X214.351 S166
S0
G1 X214.478 S183
S0
G1 X214.605 S184
S0
G1 X214.732 S145
S0
G1 X214.859 S300
S0
G1 X214.986 S453
S0
G1 X215.113 S373
S0
G1 X215.240 S366
S0
G1 X215.367 S343
S0
G1 X215.494 S440
S0
G1 X215.621 S222
S0
G1 X215.748 S140
S0
G1 X215.875 S160
S0
G1 X216.002 S165
S0
G1 X216.129 S168
S0
G1 X216.256 S160
S0
G1 X216.383 S159
S0
G1 X216.510 S163
S0
G1 X216.637 S155
S0
G1 X216.764 S160
S0
G1 X216.891 S168
S0
G1 X217.018 S156
S0
G1 X217.145 S132
S0
G1 X217.272 S302
S0
G1 X217.399 S388
S0
G1 X217.526 S183
S0
G1 X217.653 S157
S0
G1 X217.780 S173
S0
G1 X217.907 S190
S0
G1 X218.034 S187
S0
G1 X218.161 S174
S0
G1 X218.288 S160
S0
G1 X218.415 S149
S0
G1 X218.542 S242
S0
G1 X218.796 S321
S0
G1 X218.923 S314
S0
G1 X219.050 S313
S0
G1 X219.177 S312
S0
G1 X219.304 S298
S0
G1 X219.431 S259
S0
G1 X219.558 S270
S0
G1 X219.685 S289
S0
G1 X219.812 S325
S0
G1 X219.939 S262
S0
G1 X220.066 S310
S0
G1 X220.193 S325
S0
G1 X220.320 S328
S0
G1 X220.447 S333
S0
G1 X220.574 S336
S0
G1 X220.701 S337
S0
G1 X220.828 S332
S0
G1 X220.955 S333
S0
G1 X221.082 S327
S0
G1 X221.209 S326
S0
G1 X221.336 S297
S0
G1 X221.463 S449
S0
G1 X221.590 S451
S0
G1 X221.717 S195
S0
G1 X221.844 S143
S0
G1 X221.971 S179
S0
G1 X222.098 S145
S0
G1 X222.225 S155
S0
G1 X222.352 S279
S0
G1 X222.479 S368
S0
G1 X222.606 S344
S0
G1 X222.733 S300
S0
G1 X222.860 S234
S0
G1 X222.987 S187
S0
G1 X223.114 S181
S0
G1 X223.241 S174
S0
G1 X223.368 S167
S0
G1 X223.495 S134
S0
G1 X223.622 S132
S0
G1 X223.749 S135
S0
G1 X223.876 S101
S0
G1 X224.003 S88
S0
G1 X224.130 S97
S0
G1 X224.257 S90
S0
G1 X224.384 S70
S0
G1 X224.511 S52
S0
G1 X224.638 S39
S0
G1 X224.765 S47
S0
G1 X224.892 S40
S0
G1 X225.019 S45
S0
G1 X225.146 S44
S0
G1 X225.273 S8
S0
G1 X225.400 S59
S0
G1 X225.527 S303
S0
G1 X225.654 S243
S0
G1 X225.781 S15
S0
G1 X225.908 S18
S0
G1 X226.035 S25
S0
G1 X226.162 S19
S0
G1 X226.289 S17
S0
G1 X226.416 S21
S0
G1 X232.385 S20
S0
G1 X232.512 S21
S0
G1 X232.639 S16
S0
G1 X232.766 S15
S0
G1 X232.893 S23
S0
G1 X233.020 S24
S0
G1 X233.147 S17
S0
G1 X233.274 S8
S0
G1 X233.401 S157
S0
G1 X233.528 S303
S0
G1 X233.655 S211
S0
G1 X233.782 S166
S0
G1 X233.909 S165
S0
G1 X234.036 S278
S0
G1 X234.163 S281
S0
G1 X234.290 S27
S0
G1 X234.417 S4
S0
G1 X234.544 S28
S0
G1 X234.671 S20
S0
G1 X234.798 S16
S0
G1 X235.179 S19
S0
G1 X235.306 S21
S0
G1 X235.433 S15
S0
G1 X235.560 S20
S0
G1 X235.687 S21
S0
G1 X235.814 S20
S0
G1 X235.941 S24
S0
G1 X236.068 S20
S0
G1 X236.195 S12
S0
G1 X236.322 S25
S0
G1 X236.449 S9
S0
G1 X236.576 S1
S0
G1 X236.703 S25
S0
G1 X236.830 S28
S0
G1 X237.084 S20
S0
G1 X237.211 S24
S0
G1 X250.038 S20
S0
G0 Y34.163
G0 X250.038 S0
G1 X236.830 S20
S0
G1 X236.703 S22
S0
G1 X236.576 S6
S0
G1 X236.449 S60
S0
G1 X236.322 S194
S0
G1 X236.195 S236
S0
G1 X236.068 S172
S0
G1 X235.941 S13
S0
G1 X235.814 S14
S0
G1 X235.687 S24
S0
G1 X235.560 S31
S0
G1 X235.433 S24
S0
G1 X235.179 S19
S0
G1 X235.052 S17
S0
G1 X234.925 S19
S0
G1 X234.798 S20
S0
G1 X234.671 S24
S0
G1 X234.544 S28
S0
G1 X234.417 S3
S0
G1 X234.290 S43
S0
G1 X234.163 S298
S0
G1 X234.036 S251
S0
G1 X233.909 S61
S0
G1 X233.782 S50
S0
G1 X233.655 S52
S0
G1 X233.528 S49
S0
G1 X233.401 S143
S0
G1 X233.274 S289
S0
G1 X233.147 S223
S0
G1 X233.020 S35
S0
G1 X232.893 S18
S0
G1 X232.766 S20
S0
G1 X232.639 S21
S0
G1 X232.512 S29
S0
G1 X232.258 S21
S0
G1 X226.162 S20
S0
G1 X226.035 S19
S0
G1 X225.908 S24
S0
G1 X225.781 S19
S0
G1 X225.654 S7
S0
G1 X225.527 S6
S0
G1 X225.400 S208
S0
G1 X225.273 S300
S0
G1 X225.146 S155
S0
G1 X225.019 S37
S0
G1 X224.892 S23
S0
G1 X224.765 S39
S0
G1 X224.638 S43
S0
G1 X224.511 S38
S0
G1 X224.384 S50
S0
G1 X224.257 S70
S0
G1 X224.130 S102
S0
G1 X224.003 S113
S0
G1 X223.876 S108
S0
G1 X223.749 S121
S0
G1 X223.622 S152
S0
G1 X223.495 S131
S0
G1 X223.368 S133
S0
G1 X223.241 S168
S0
G1 X223.114 S172
S0
G1 X222.987 S168
S0
G1 X222.860 S169
S0
G1 X222.733 S164
S0
G1 X222.606 S151
S0
G1 X222.479 S186
S0
G1 X222.352 S283
S0
G1 X222.225 S347
S0
G1 X222.098 S353
S0
G1 X221.971 S261
S0
G1 X221.844 S148
S0
G1 X221.717 S163
S0
G1 X221.590 S144
S0
G1 X221.463 S194
S0
G1 X221.336 S493
S0
G1 X221.209 S379
S0
G1 X221.082 S297
S0
G1 X220.828 S328
S0
G1 X220.701 S336
S0
G1 X220.447 S333
S0
G1 X220.320 S332
S0
G1 X220.193 S324
S0
G1 X220.066 S328
S0
G1 X219.939 S321
S0
G1 X219.812 S282
S0
G1 X219.685 S242
S0
G1 X219.558 S257
S0
G1 X219.431 S353
S0
G1 X219.304 S414
S0
G1 X219.177 S375
S0
G1 X219.050 S297
S0
G1 X218.923 S308
S0
G1 X218.669 S325
S0
G1 X218.542 S332
S0
G1 X218.415 S265
S0
G1 X218.288 S203
S0
G1 X218.161 S182
S0
G1 X218.034 S177
S0
G1 X217.907 S186
S0
G1 X217.780 S198
S0
G1 X217.653 S195
S0
G1 X217.526 S193
S0
G1 X217.399 S246
S0
G1 X217.272 S323
S0
G1 X217.145 S212
S0
G1 X217.018 S184
S0
G1 X216.891 S164
S0
G1 X216.637 S183
S0
G1 X216.510 S164
S0
G1 X216.383 S156
S0
G1 X216.256 S152
S0
G1 X216.129 S163
S0
G1 X216.002 S171
S0
G1 X215.875 S172
S0
G1 X215.748 S164
S0
G1 X215.621 S156
S0
G1 X215.494 S117
S0
G1 X215.367 S320
S0
G1 X215.240 S564
S0
G1 X215.113 S373
S0
G1 X214.986 S401
S0
G1 X214.859 S308
S0
G1 X214.732 S143
S0
G1 X214.605 S175
S0
G1 X214.478 S192
S0
G1 X214.351 S152
S0
G1 X214.224 S165
S0
G1 X214.097 S238
S0
G1 X213.970 S289
S0
G1 X213.843 S285
S0
G1 X213.716 S261
S0
G1 X213.589 S226
S0
G1 X213.462 S187
S0
G1 X213.335 S153
S0
G1 X213.208 S81
S0
G1 X213.081 S51
S0
G1 X212.954 S43
S0
G1 X212.827 S42
S0
G1 X212.700 S45
S0
G1 X212.573 S46
S0
G1 X212.446 S41
S0
G1 X212.319 S43
S0
G1 X212.192 S46
S0
G1 X212.065 S44
S0
G1 X211.938 S41
S0
G1 X211.811 S40
S0
G1 X211.684 S43
S0
G1 X211.557 S35
S0
G1 X211.430 S36
S0
G1 X211.303 S43
S0
G1 X211.176 S51
S0
G1 X210.922 S15
S0
G1 X210.795 S175
S0
G1 X210.668 S252
S0
G1 X210.541 S142
S0
G1 X210.414 S6
S0
G1 X210.287 S14
S0
G1 X210.160 S28
S0
G1 X210.033 S22
S0
G1 X209.906 S15
S0
G1 X209.779 S16
S0
G1 X209.652 S23
S0
G1 X209.398 S20
S0
G1 X209.271 S23
S0
G1 X209.144 S21
S0
G1 X200.000 S20
S0
G0 Y34.036
G0 X200.000 S0
G1 X209.144 S20
S0
G1 X209.271 S17
S0
G1 X209.525 S20
S0
G1 X209.652 S15
S0
G1 X209.779 S22
S0
G1 X209.906 S26
S0
G1 X210.033 S27
S0
G1 X210.160 S25
S0
G1 X210.414 S19
S0
G1 X210.541 S28
S0
G1 X210.668 S2
S0
G1 X210.795 S28
S0
G1 X210.922 S187
S0
G1 X211.049 S232
S0
G1 X211.176 S75
S0
G1 X211.303 S14
S0
G1 X211.430 S32
S0
G1 X211.557 S38
S0
G1 X211.684 S40
S0
G1 X211.811 S39
S0
G1 X211.938 S38
S0
G1 X212.065 S42
S0
G1 X212.319 S39
S0
G1 X212.446 S42
S0
G1 X212.573 S37
S0
G1 X212.700 S43
S0
G1 X212.827 S53
S0
G1 X212.954 S52
S0
G1 X213.081 S50
S0
G1 X213.208 S53
S0
G1 X213.335 S47
S0
G1 X213.462 S46
S0
G1 X213.589 S57
S0
G1 X213.716 S82
S0
G1 X213.843 S128
S0
G1 X213.970 S184
S0
G1 X214.097 S254
S0
G1 X214.224 S301
S0
G1 X214.351 S335
S0
G1 X214.478 S269
S0
G1 X214.605 S151
S0
G1 X214.732 S163
S0
G1 X214.859 S199
S0
G1 X214.986 S140
S0
G1 X215.113 S234
S0
G1 X215.240 S505
S0
G1 X215.367 S414
S0
G1 X215.494 S132
S0
G1 X215.621 S156
S0
G1 X215.748 S173
S0
G1 X215.875 S156
S0
G1 X216.002 S105
S0
G1 X216.129 S85
S0
G1 X216.256 S157
S0
G1 X216.383 S173
S0
G1 X216.510 S156
S0
G1 X216.637 S167
S0
G1 X216.764 S212
S0
G1 X216.891 S211
S0
G1 X217.018 S234
S0
G1 X217.145 S344
S0
G1 X217.272 S183
S0
G1 X217.399 S219
S0
G1 X217.526 S258
S0
G1 X217.653 S238
S0
G1 X217.780 S210
S0
G1 X217.907 S211
S0
G1 X218.161 S233
S0
G1 X218.288 S227
S0
G1 X218.415 S268
S0
G1 X218.542 S310
S0
G1 X218.669 S321
S0
G1 X218.796 S324
S0
G1 X218.923 S314
S0
G1 X219.050 S321
S0
G1 X219.177 S302
S0
G1 X219.304 S436
S0
G1 X219.431 S592
S0
G1 X219.558 S380
S0
G1 X219.685 S257
S0
G1 X219.812 S285
S0
G1 X219.939 S289
S0
G1 X220.066 S316
S0
G1 X220.193 S314
S0
G1 X220.320 S316
S0
G1 X220.447 S329
S0
G1 X220.574 S333
S0
G1 X220.828 S332
S0
G1 X220.955 S330
S0
G1 X221.082 S329
S0
G1 X221.209 S312
S0
G1 X221.336 S478
S0
G1 X221.463 S290
S0
G1 X221.717 S148
S0
G1 X221.844 S227
S0
G1 X221.971 S367
S0
G1 X222.098 S346
S0
G1 X222.225 S258
S0
G1 X222.352 S168
S0
G1 X222.479 S153
S0
G1 X222.606 S167
S0
G1 X222.733 S179
S0
G1 X222.987 S175
S0
G1 X223.114 S172
S0
G1 X223.241 S179
S0
G1 X223.368 S147
S0
G1 X223.495 S106
S0
G1 X223.622 S117
S0
G1 X223.749 S132
S0
G1 X223.876 S106
S0
G1 X224.003 S100
S0
G1 X224.130 S102
S0
G1 X224.257 S131
S0
G1 X224.384 S87
S0
G1 X224.511 S39
S0
G1 X224.638 S21
S0
G1 X224.765 S13
S0
G1 X224.892 S29
S0
G1 X225.019 S136
S0
G1 X225.146 S273
S0
G1 X225.273 S282
S0
G1 X225.400 S97
S0
G1 X225.527 S5
S0
G1 X225.654 S23
S0
G1 X225.908 S24
S0
G1 X226.035 S25
S0
G1 X226.162 S27
S0
G1 X226.289 S19
S0
G1 X226.416 S21
S0
G1 X226.543 S20
S0
G1 X226.670 S19
S0
G1 X226.797 S22
S0
G1 X227.305 S20
S0
G1 X227.432 S17
S0
G1 X227.559 S21
S0
G1 X227.686 S20
S0
G1 X227.940 S21
S0
G1 X228.067 S20
S0
G1 X228.194 S23
S0
G1 X228.321 S22
S0
G1 X228.448 S20
S0
G1 X228.575 S21
S0
G1 X230.607 S20
S0
G1 X230.734 S21
S0
G1 X231.115 S20
S0
G1 X231.242 S22
S0
G1 X231.623 S20
S0
G1 X231.750 S24
S0
G1 X231.877 S15
S0
G1 X232.131 S20
S0
G1 X232.258 S21
S0
G1 X232.385 S15
S0
G1 X232.512 S21
S0
G1 X232.766 S24
S0
G1 X232.893 S21
S0
G1 X233.020 S7
S0
G1 X233.147 S121
S0
G1 X233.274 S316
S0
G1 X233.401 S83
S0
G1 X233.528 S51
S0
G1 X233.782 S81
S0
G1 X233.909 S69
S0
G1 X234.036 S73
S0
G1 X234.163 S47
S0
G1 X234.290 S200
S0
G1 X234.417 S333
S0
G1 X234.544 S70
S0
G1 X234.671 S4
S0
G1 X234.798 S27
S0
G1 X235.179 S23
S0
G1 X235.306 S4
S0
G1 X235.433 S13
S0
G1 X235.560 S22
S0
G1 X235.814 S23
S0
G1 X235.941 S2
S0
G1 X236.068 S132
S0
G1 X236.195 S266
S0
G1 X236.322 S121
S0
G1 X236.449 S198
S0
G1 X236.576 S286
S0
G1 X236.703 S50
S0
G1 X236.830 S5
S0
G1 X236.957 S20
S0
G1 X237.084 S22
S0
G1 X237.211 S17
S0
G1 X237.338 S19
S0
G1 X237.465 S20
S0
G1 X237.592 S16
S0
G1 X237.973 S20
S0
G1 X238.100 S19
S0
G1 X238.354 S20
S0
G1 X238.481 S25
S0
G1 X238.608 S21
S0
G1 X238.989 S20
S0
G1 X239.116 S23
S0
G1 X239.370 S21
S0
G1 X239.497 S24
S0
G1 X239.624 S21
S0
G1 X250.038 S20
S0
G0 Y33.909
G0 X250.038 S0
G1 X239.497 S20
S0
G1 X239.370 S12
S0
G1 X239.243 S24
S0
G1 X239.116 S21
S0
G1 X238.989 S22
S0
G1 X238.862 S24
S0
G1 X238.735 S20
S0
G1 X238.608 S19
S0
G1 X238.481 S22
S0
G1 X238.354 S23
S0
G1 X238.227 S32
S0
G1 X238.100 S19
S0
G1 X237.973 S21
S0
G1 X237.846 S20
S0
G1 X237.719 S27
S0
G1 X237.592 S15
S0
G1 X237.465 S20
S0
G1 X237.338 S21
S0
G1 X237.211 S19
S0
G1 X237.084 S24
S0
G1 X236.957 S26
S0
G1 X236.830 S21
S0
G1 X236.703 S9
S0
G1 X236.576 S200
S0
G1 X236.449 S190
S0
G1 X236.322 S57
S0
G1 X236.195 S55
S0
G1 X236.068 S131
S0
G1 X235.941 S230
S0
G1 X235.814 S31
S0
G1 X235.687 S25
S0
G1 X235.560 S27
S0
G1 X235.433 S40
S0
G1 X235.306 S108
S0
G1 X235.179 S100
S0
G1 X235.052 S25
S0
G1 X234.925 S24
S0
G1 X234.798 S22
S0
G1 X234.671 S9
S0
G1 X234.544 S62
S0
G1 X234.417 S325
S0
G1 X234.290 S206
S0
G1 X234.163 S44
S0
G1 X234.036 S73
S0
G1 X233.909 S74
S0
G1 X233.782 S78
S0
G1 X233.655 S77
S0
G1 X233.528 S69
S0
G1 X233.401 S78
S0
G1 X233.274 S83
S0
G1 X233.147 S203
S0
G1 X233.020 S102
S0
G1 X232.893 S14
S0
G1 X232.766 S27
S0
G1 X232.639 S21
S0
G1 X232.512 S15
S0
G1 X232.385 S19
S0
G1 X232.258 S31
S0
G1 X232.131 S19
S0
G1 X232.004 S17
S0
G1 X231.877 S19
S0
G1 X231.750 S21
S0
G1 X231.623 S20
S0
G1 X231.496 S23
S0
G1 X231.369 S16
S0
G1 X231.242 S20
S0
G1 X231.115 S25
S0
G1 X230.988 S22
S0
G1 X230.734 S20
S0
G1 X230.607 S21
S0
G1 X229.083 S20
S0
G1 X228.956 S21
S0
G1 X228.575 S20
S0
G1 X228.448 S22
S0
G1 X228.321 S23
S0
G1 X228.194 S21
S0
G1 X228.067 S18
S0
G1 X227.940 S17
S0
G1 X227.686 S20
S0
G1 X227.559 S19
S0
G1 X227.432 S20
S0
G1 X227.305 S21
S0
G1 X227.178 S20
S0
G1 X227.051 S21
S0
G1 X226.797 S20
S0
G1 X226.670 S22
S0
G1 X226.543 S25
S0
G1 X226.416 S30
S0
G1 X226.289 S25
S0
G1 X226.162 S28
S0
G1 X226.035 S22
S0
G1 X225.908 S17
S0
G1 X225.781 S21
S0
G1 X225.654 S25
S0
G1 X225.400 S23
S0
G0 X225.273 S0
G1 X225.146 S12
S0
G1 X225.019 S144
S0
G1 X224.892 S243
S0
G1 X224.765 S227
S0
G1 X224.638 S179
S0
G1 X224.511 S105
S0
G1 X224.384 S48
S0
G1 X224.257 S52
S0
G1 X224.130 S83
S0
G1 X224.003 S98
S0
G1 X223.876 S81
S0
G1 X223.749 S92
S0
G1 X223.622 S117
S0
G1 X223.495 S90
S0
G1 X223.368 S79
S0
G1 X223.241 S105
S0
G1 X223.114 S163
S0
G1 X222.987 S184
S0
G1 X222.860 S179
S0
G1 X222.606 S178
S0
G1 X222.479 S174
S0
G1 X222.352 S171
S0
G1 X222.225 S172
S0
G1 X222.098 S151
S0
G1 X221.971 S160
S0
G1 X221.844 S304
S0
G1 X221.717 S366
S0
G1 X221.590 S261
S0
G1 X221.463 S159
S0
G1 X221.336 S161
S0
G1 X221.209 S437
S0
G1 X221.082 S386
S0
G1 X220.955 S294
S0
G1 X220.828 S324
S0
G1 X220.701 S325
S0
G1 X220.574 S324
S0
G1 X220.447 S312
S0
G1 X220.320 S314
S0
G1 X220.193 S308
S0
G1 X220.066 S298
S0
G1 X219.939 S293
S0
G1 X219.812 S265
S0
G1 X219.685 S286
S0
G1 X219.558 S298
S0
G1 X219.431 S304
S0
G1 X219.304 S399
S0
G1 X219.177 S349
S0
G1 X219.050 S318
S0
G1 X218.923 S325
S0
G1 X218.796 S321
S0
G1 X218.669 S320
S0
G1 X218.542 S309
S0
G1 X218.415 S304
S0
G1 X218.288 S286
S0
G1 X218.161 S294
S0
G1 X218.034 S301
S0
G1 X217.907 S284
S0
G1 X217.780 S266
S0
G1 X217.526 S262
S0
G1 X217.399 S277
S0
G1 X217.272 S236
S0
G1 X217.145 S238
S0
G1 X217.018 S438
S0
G1 X216.891 S258
S0
G1 X216.764 S140
S0
G1 X216.637 S182
S0
G1 X216.510 S160
S0
G1 X216.383 S159
S0
G1 X216.256 S172
S0
G1 X216.129 S160
S0
G1 X216.002 S59
S0
G1 X215.875 S12
S0
G1 X215.748 S109
S0
G1 X215.621 S185
S0
G1 X215.494 S161
S0
G1 X215.367 S140
S0
G1 X215.240 S239
S0
G1 X215.113 S414
S0
G1 X214.986 S265
S0
G1 X214.859 S304
S0
G1 X214.732 S210
S0
G1 X214.605 S219
S0
G1 X214.478 S325
S0
G1 X214.351 S355
S0
G1 X214.224 S232
S0
G1 X214.097 S146
S0
G1 X213.970 S136
S0
G1 X213.843 S148
S0
G1 X213.716 S143
S0
G1 X213.589 S106
S0
G1 X213.462 S76
S0
G1 X213.335 S65
S0
G1 X213.208 S59
S0
G1 X213.081 S53
S0
G1 X212.954 S51
S0
G1 X212.827 S46
S0
G1 X212.700 S42
S0
G1 X212.573 S41
S0
G1 X212.446 S38
S0
G1 X212.319 S39
S0
G1 X212.192 S38
S0
G1 X212.065 S36
S0
G1 X211.811 S43
S0
G1 X211.684 S39
S0
G1 X211.557 S38
S0
G1 X211.430 S34
S0
G1 X211.303 S16
S0
G1 X211.176 S154
S0
G1 X211.049 S318
S0
G1 X210.922 S290
S0
G1 X210.795 S133
S0
G1 X210.668 S71
S0
G1 X210.541 S9
S0
G1 X210.414 S5
S0
G1 X210.287 S30
S0
G1 X210.160 S25
S0
G1 X210.033 S23
S0
G1 X209.906 S20
S0
G1 X209.779 S21
S0
G1 X209.652 S19
S0
G1 X209.398 S20
S0
G1 X209.271 S16
S0
G1 X209.144 S19
S0
G1 X200.000 S20
S0
G0 Y33.782
G0 X200.000 S0
G1 X209.144 S20
S0
G1 X209.271 S25
S0
G1 X209.398 S19
S0
G1 X209.525 S26
S0
G1 X209.652 S22
S0
G1 X209.779 S20
S0
G1 X209.906 S22
S0
G1 X210.033 S23
S0
G1 X210.160 S29
S0
G1 X210.287 S14
S0
G1 X210.414 S8
S0
G1 X210.541 S90
S0
G1 X210.668 S228
S0
G1 X210.795 S219
S0
G1 X210.922 S153
S0
G1 X211.049 S119
S0
G1 X211.176 S122
S0
G1 X211.303 S249
S0
G1 X211.430 S242
S0
G1 X211.557 S44
S0
G1 X211.684 S13
S0
G1 X211.811 S44
S0
G1 X212.192 S39
S0
G1 X212.319 S43
S0
G1 X212.446 S44
S0
G1 X212.700 S40
S0
G1 X212.827 S42
S0
G1 X212.954 S50
S0
G1 X213.081 S51
S0
G1 X213.208 S61
S0
G1 X213.335 S75
S0
G1 X213.462 S64
S0
G1 X213.589 S90
S0
G1 X213.716 S140
S0
G1 X213.843 S156
S0
G1 X213.970 S162
S0
G1 X214.097 S167
S0
G1 X214.224 S158
S0
G1 X214.351 S156
S0
G1 X214.478 S167
S0
G1 X214.605 S285
S0
G1 X214.732 S363
S0
G1 X214.859 S306
S0
G1 X214.986 S242
S0
G1 X215.113 S399
S0
G1 X215.240 S435
S0
G1 X215.367 S152
S0
G1 X215.494 S164
S0
G1 X215.621 S168
S0
G1 X215.748 S159
S0
G1 X215.875 S69
S0
G1 X216.002 S12
S0
G1 X216.129 S129
S0
G1 X216.256 S171
S0
G1 X216.383 S157
S0
G1 X216.510 S161
S0
G1 X216.637 S160
S0
G1 X216.764 S143
S0
G1 X216.891 S148
S0
G1 X217.018 S208
S0
G1 X217.145 S275
S0
G1 X217.272 S274
S0
G1 X217.399 S281
S0
G1 X217.526 S304
S0
G1 X217.653 S305
S0
G1 X217.780 S313
S0
G1 X217.907 S321
S0
G1 X218.034 S337
S0
G1 X218.161 S328
S0
G1 X218.288 S336
S0
G1 X218.415 S329
S0
G1 X218.542 S316
S0
G1 X218.669 S302
S0
G1 X218.796 S310
S0
G1 X218.923 S325
S0
G1 X219.050 S323
S0
G1 X219.177 S349
S0
G1 X219.304 S403
S0
G1 X219.431 S336
S0
G1 X219.558 S309
S0
G1 X219.685 S318
S0
G1 X219.812 S277
S0
G1 X219.939 S226
S0
G1 X220.066 S233
S0
G1 X220.193 S273
S0
G1 X220.320 S294
S0
G1 X220.447 S296
S0
G1 X220.574 S310
S0
G1 X220.701 S312
S0
G1 X220.828 S314
S0
G1 X220.955 S316
S0
G1 X221.082 S273
S0
G1 X221.209 S465
S0
G1 X221.336 S325
S0
G1 X221.463 S127
S0
G1 X221.590 S325
S0
G1 X221.717 S374
S0
G1 X221.844 S203
S0
G1 X221.971 S133
S0
G1 X222.098 S175
S0
G1 X222.352 S176
S0
G1 X222.479 S175
S0
G1 X222.606 S178
S0
G1 X222.733 S172
S0
G1 X222.860 S171
S0
G1 X222.987 S160
S0
G1 X223.114 S164
S0
G1 X223.241 S121
S0
G1 X223.368 S86
S0
G1 X223.495 S96
S0
G1 X223.622 S116
S0
G1 X223.749 S95
S0
G1 X223.876 S59
S0
G1 X224.003 S93
S0
G1 X224.130 S169
S0
G1 X224.257 S211
S0
G1 X224.384 S305
S0
G1 X224.511 S348
S0
G1 X224.638 S303
S0
G1 X224.765 S275
S0
G1 X224.892 S192
S0
G1 X225.019 S82
S0
G1 X225.146 S53
S0
G1 X225.273 S39
S0
G1 X225.400 S16
S0
G1 X225.527 S7
S0
G1 X225.654 S10
S0
G1 X225.781 S25
S0
G1 X226.035 S23
S0
G1 X226.162 S20
S0
G1 X226.289 S16
S0
G1 X226.416 S27
S0
G1 X226.543 S19
S0
G1 X226.670 S23
S0
G1 X227.051 S20
S0
G1 X227.178 S24
S0
G1 X227.305 S23
S0
G1 X227.432 S21
S0
G1 X227.559 S15
S0
G1 X227.686 S24
S0
G1 X227.813 S19
S0
G1 X227.940 S28
S0
G1 X228.067 S33
S0
G1 X228.194 S26
S0
G1 X228.321 S22
S0
G1 X228.448 S15
S0
G1 X228.575 S20
S0
G1 X228.702 S19
S0
G1 X228.829 S20
S0
G1 X228.956 S24
S0
G1 X229.210 S20
S0
G1 X229.337 S23
S0
G1 X231.242 S20
S0
G1 X231.496 S19
S0
G1 X231.623 S24
S0
G1 X231.750 S17
S0
G1 X231.877 S23
S0
G1 X232.004 S24
S0
G1 X232.258 S21
S0
G1 X232.385 S12
S0
G1 X232.512 S20
S0
G1 X232.639 S23
S0
G1 X232.766 S19
S0
G1 X233.020 S16
S0
G1 X233.147 S90
S0
G1 X233.274 S214
S0
G1 X233.401 S84
S0
G1 X233.528 S77
S0
G1 X233.655 S75
S0
G1 X233.782 S76
S0
G1 X233.909 S78
S0
G1 X234.036 S69
S0
G1 X234.163 S73
S0
G1 X234.290 S72
S0
G1 X234.417 S38
S0
G1 X234.544 S196
S0
G1 X234.671 S331
S0
G1 X234.798 S49
S0
G1 X234.925 S3
S0
G1 X235.052 S12
S0
G1 X235.179 S94
S0
G1 X235.306 S234
S0
G1 X235.433 S239
S0
G1 X235.560 S215
S0
G1 X235.687 S5
S0
G1 X235.814 S4
S0
G1 X235.941 S129
S0
G1 X236.068 S219
S0
G1 X236.195 S66
S0
G1 X236.322 S77
S0
G1 X236.449 S76
S0
G1 X236.576 S77
S0
G1 X236.703 S274
S0
G1 X236.830 S70
S0
G1 X236.957 S5
S0
G1 X237.084 S25
S0
G1 X237.211 S23
S0
G1 X237.465 S19
S0
G1 X237.719 S20
S0
G1 X237.846 S24
S0
G1 X238.100 S23
S0
G1 X238.227 S28
S0
G1 X238.354 S22
S0
G1 X238.481 S28
S0
G1 X238.608 S25
S0
G1 X238.735 S20
S0
G1 X238.862 S28
S0
G1 X238.989 S19
S0
G1 X239.370 S20
S0
G1 X239.497 S24
S0
G1 X239.624 S19
S0
G1 X250.038 S20
S0
G0 Y33.655
G0 X250.038 S0
G1 X239.497 S20
S0
G1 X239.370 S23
S0
G1 X239.243 S22
S0
G1 X238.862 S20
S0
G1 X238.735 S26
S0
G1 X238.608 S32
S0
G1 X238.481 S28
S0
G1 X238.354 S15
S0
G1 X238.100 S23
S0
G1 X237.973 S14
S0
G1 X237.846 S27
S0
G1 X237.719 S17
S0
G1 X237.465 S20
S0
G1 X237.338 S24
S0
G1 X237.084 S20
S0
G1 X236.957 S28
S0
G1 X236.830 S2
S0
G1 X236.703 S164
S0
G1 X236.576 S223
S0
G1 X236.449 S50
S0
G1 X236.322 S70
S0
G1 X236.195 S81
S0
G1 X236.068 S38
S0
G1 X235.941 S179
S0
G1 X235.814 S232
S0
G1 X235.687 S1
S0
G1 X235.560 S180
S0
G1 X235.433 S258
S0
G1 X235.306 S51
S0
G1 X235.179 S176
S0
G1 X235.052 S153
S0
G1 X234.925 S9
S0
G1 X234.798 S5
S0
G1 X234.671 S261
S0
G1 X234.544 S259
S0
G1 X234.417 S36
S0
G1 X234.290 S70
S0
G1 X234.163 S73
S0
G1 X234.036 S74
S0
G1 X233.909 S76
S0
G1 X233.782 S78
S0
G1 X233.655 S76
S0
G1 X233.528 S73
S0
G1 X233.401 S69
S0
G1 X233.274 S97
S0
G1 X233.147 S226
S0
G1 X233.020 S74
S0
G1 X232.893 S12
S0
G1 X232.766 S27
S0
G1 X232.639 S24
S0
G1 X232.385 S29
S0
G1 X232.131 S8
S0
G1 X232.004 S20
S0
G1 X231.877 S19
S0
G1 X231.750 S28
S0
G1 X231.623 S24
S0
G1 X231.496 S16
S0
G1 X231.242 S19
S0
G1 X228.702 S20
S0
G1 X228.448 S19
S0
G1 X228.321 S21
S0
G1 X228.194 S20
S0
G1 X228.067 S15
S0
G1 X227.940 S19
S0
G1 X227.813 S28
S0
G1 X227.686 S26
S0
G1 X227.559 S27
S0
G1 X227.432 S32
S0
G1 X227.178 S19
S0
G1 X227.051 S20
S0
G1 X226.670 S24
S0
G1 X226.543 S25
S0
G1 X226.416 S19
S0
G1 X226.289 S20
S0
G1 X226.162 S23
S0
G1 X226.035 S24
S0
G1 X225.908 S22
S0
G1 X225.781 S15
S0
G1 X225.654 S16
S0
G1 X225.527 S52
S0
G1 X225.400 S173
S0
G1 X225.273 S246
S0
G1 X225.146 S231
S0
G1 X225.019 S228
S0
G1 X224.892 S205
S0
G1 X224.765 S173
S0
G1 X224.638 S161
S0
G1 X224.511 S200
S0
G1 X224.384 S254
S0
G1 X224.257 S215
S0
G1 X224.130 S247
S0
G1 X224.003 S301
S0
G1 X223.876 S307
S0
G1 X223.749 S265
S0
G1 X223.622 S188
S0
G1 X223.495 S139
S0
G1 X223.368 S94
S0
G1 X223.241 S75
S0
G1 X223.114 S64
S0
G1 X222.987 S121
S0
G1 X222.860 S171
S0
G1 X222.733 S168
S0
G1 X222.479 S178
S0
G1 X222.225 S175
S0
G1 X222.098 S167
S0
G1 X221.971 S182
S0
G1 X221.844 S183
S0
G1 X221.717 S158
S0
G1 X221.590 S192
S0
G1 X221.463 S338
S0
G1 X221.336 S316
S0
G1 X221.209 S197
S0
G1 X221.082 S466
S0
G1 X220.955 S341
S0
G1 X220.828 S277
S0
G1 X220.701 S309
S0
G1 X220.574 S298
S0
G1 X220.447 S299
S0
G1 X220.320 S293
S0
G1 X220.193 S266
S0
G1 X220.066 S239
S0
G1 X219.939 S180
S0
G1 X219.812 S203
S0
G1 X219.685 S278
S0
G1 X219.558 S309
S0
G1 X219.431 S305
S0
G1 X219.304 S404
S0
G1 X219.177 S603
S0
G1 X219.050 S418
S0
G1 X218.923 S301
S0
G1 X218.796 S312
S0
G1 X218.669 S308
S0
G1 X218.542 S317
S0
G1 X218.415 S328
S0
G1 X218.288 S345
S0
G1 X218.161 S316
S0
G1 X218.034 S352
S0
G1 X217.907 S396
S0
G1 X217.780 S316
S0
G1 X217.653 S308
S0
G1 X217.526 S337
S0
G1 X217.399 S332
S0
G1 X217.272 S323
S0
G1 X217.145 S301
S0
G1 X217.018 S258
S0
G1 X216.891 S238
S0
G1 X216.764 S222
S0
G1 X216.637 S186
S0
G1 X216.510 S159
S0
G1 X216.383 S165
S0
G1 X216.256 S152
S0
G1 X216.129 S167
S0
G1 X216.002 S155
S0
G1 X215.875 S31
S0
G1 X215.748 S42
S0
G1 X215.621 S160
S0
G1 X215.494 S176
S0
G1 X215.367 S152
S0
G1 X215.240 S171
S0
G1 X215.113 S424
S0
G1 X214.986 S433
S0
G1 X214.859 S324
S0
G1 X214.732 S325
S0
G1 X214.605 S190
S0
G1 X214.478 S143
S0
G1 X214.351 S171
S0
G1 X214.224 S175
S0
G1 X214.097 S177
S0
G1 X213.843 S171
S0
G1 X213.716 S150
S0
G1 X213.589 S116
S0
G1 X213.462 S86
S0
G1 X213.335 S78
S0
G1 X213.208 S71
S0
G1 X213.081 S65
S0
G1 X212.954 S47
S0
G1 X212.700 S49
S0
G1 X212.573 S45
S0
G1 X212.446 S53
S0
G1 X212.319 S44
S0
G1 X212.192 S35
S0
G1 X212.065 S39
S0
G1 X211.938 S36
S0
G1 X211.811 S33
S0
G1 X211.684 S13
S0
G1 X211.557 S113
S0
G1 X211.430 S279
S0
G1 X211.303 S221
S0
G1 X211.176 S49
S0
G1 X211.049 S7
S0
G1 X210.922 S22
S0
G1 X210.795 S12
S0
G1 X210.668 S38
S0
G1 X210.541 S154
S0
G1 X210.414 S232
S0
G1 X210.287 S206
S0
G1 X210.160 S114
S0
G1 X210.033 S32
S0
G1 X209.906 S2
S0
G1 X209.779 S5
S0
G1 X209.398 S20
S0
G1 X209.271 S29
S0
G1 X200.000 S20
S0
G0 Y33.528
G0 X200.000 S0
G1 X209.144 S20
S0
G1 X209.271 S27
S0
G1 X209.398 S26
S0
G1 X209.525 S27
S0
G1 X209.652 S15
S0
G1 X209.779 S20
S0
G1 X209.906 S106
S0
G1 X210.033 S199
S0
G1 X210.160 S222
S0
G1 X210.287 S197
S0
G1 X210.414 S121
S0
G1 X210.541 S44
S0
G1 X210.668 S24
S0
G1 X210.795 S39
S0
G1 X210.922 S43
S0
G1 X211.049 S35
S0
G1 X211.176 S48
S0
G1 X211.303 S36
S0
G1 X211.430 S24
S0
G1 X211.557 S127
S0
G1 X211.684 S302
S0
G1 X211.811 S215
S0
G1 X211.938 S44
S0
G1 X212.065 S13
S0
G1 X212.192 S22
S0
G1 X212.319 S35
S0
G1 X212.446 S27
S0
G1 X212.700 S31
S0
G1 X212.827 S36
S0
G1 X212.954 S47
S0
G1 X213.081 S46
S0
G1 X213.208 S57
S0
G1 X213.335 S70
S0
G1 X213.462 S74
S0
G1 X213.589 S73
S0
G1 X213.716 S89
S0
G1 X213.843 S132
S0
G1 X214.097 S163
S0
G1 X214.224 S176
S0
G1 X214.351 S171
S0
G1 X214.478 S170
S0
G1 X214.605 S174
S0
G1 X214.732 S163
S0
G1 X214.859 S141
S0
G1 X214.986 S319
S0
G1 X215.113 S426
S0
G1 X215.240 S177
S0
G1 X215.367 S155
S0
G1 X215.494 S163
S0
G1 X215.621 S161
S0
G1 X215.748 S168
S0
G1 X215.875 S81
S0
G1 X216.002 S70
S0
G1 X216.129 S159
S0
G1 X216.256 S167
S0
G1 X216.383 S160
S0
G1 X216.510 S149
S0
G1 X216.637 S187
S0
G1 X216.764 S379
S0
G1 X216.891 S274
S0
G1 X217.018 S271
S0
G1 X217.145 S286
S0
G1 X217.272 S294
S0
G1 X217.399 S321
S0
G1 X217.526 S345
S0
G1 X217.653 S325
S0
G1 X217.780 S410
S0
G1 X217.907 S400
S0
G1 X218.034 S336
S0
G1 X218.161 S396
S0
G1 X218.288 S415
S0
G1 X218.415 S316
S0
G1 X218.669 S337
S0
G1 X218.796 S312
S0
G1 X218.923 S308
S0
G1 X219.050 S281
S0
G1 X219.177 S367
S0
G1 X219.304 S462
S0
G1 X219.431 S353
S0
G1 X219.558 S324
S0
G1 X219.685 S328
S0
G1 X219.812 S262
S0
G1 X219.939 S220
S0
G1 X220.066 S140
S0
G1 X220.193 S137
S0
G1 X220.320 S214
S0
G1 X220.447 S257
S0
G1 X220.574 S281
S0
G1 X220.701 S277
S0
G1 X220.828 S281
S0
G1 X220.955 S243
S0
G1 X221.082 S391
S0
G1 X221.209 S355
S0
G1 X221.336 S277
S0
G1 X221.463 S301
S0
G1 X221.590 S152
S0
G1 X221.844 S166
S0
G1 X221.971 S167
S0
G1 X222.098 S151
S0
G1 X222.225 S145
S0
G1 X222.352 S137
S0
G1 X222.479 S141
S0
G1 X222.606 S152
S0
G1 X222.733 S145
S0
G1 X222.860 S156
S0
G1 X222.987 S177
S0
G1 X223.114 S189
S0
G1 X223.241 S178
S0
G1 X223.368 S266
S0
G1 X223.495 S335
S0
G1 X223.622 S352
S0
G1 X223.749 S298
S0
G1 X223.876 S227
S0
G1 X224.003 S152
S0
G1 X224.130 S62
S0
G1 X224.257 S21
S0
G1 X224.384 S17
S0
G1 X224.511 S22
S0
G1 X224.638 S39
S0
G1 X224.765 S42
S0
G1 X224.892 S51
S0
G1 X225.019 S47
S0
G1 X225.146 S58
S0
G1 X225.273 S101
S0
G1 X225.400 S102
S0
G1 X225.527 S283
S0
G1 X225.654 S146
S0
G1 X225.781 S13
S0
G1 X225.908 S23
S0
G1 X226.035 S16
S0
G1 X226.162 S14
S0
G1 X226.289 S11
S0
G1 X226.416 S9
S0
G1 X226.670 S5
S0
G1 X226.924 S2
S0
G1 X227.051 S15
S0
G1 X227.178 S14
S0
G1 X227.305 S13
S0
G1 X227.559 S23
S0
G1 X227.686 S28
S0
G1 X227.813 S20
S0
G1 X227.940 S17
S0
G1 X228.194 S20
S0
G1 X228.321 S21
S0
G1 X228.448 S22
S0
G1 X228.575 S26
S0
G1 X228.702 S24
S0
G1 X228.829 S16
S0
G1 X229.083 S20
S0
G1 X229.337 S21
S0
G1 X231.115 S20
S0
G1 X231.369 S21
S0
G1 X231.496 S20
S0
G1 X231.623 S24
S0
G1 X231.750 S28
S0
G1 X231.877 S17
S0
G1 X232.004 S9
S0
G1 X232.131 S25
S0
G1 X232.258 S59
S0
G1 X232.385 S40
S0
G1 X232.512 S7
S0
G1 X232.639 S20
S0
G1 X232.766 S23
S0
G1 X232.893 S27
S0
G1 X233.020 S21
S0
G1 X233.147 S50
S0
G1 X233.274 S223
S0
G1 X233.401 S106
S0
G1 X233.528 S70
S0
G1 X233.655 S74
S0
G1 X233.909 S79
S0
G1 X234.036 S73
S0
G1 X234.163 S77
S0
G1 X234.290 S75
S0
G1 X234.417 S74
S0
G1 X234.544 S65
S0
G1 X234.671 S49
S0
G1 X234.798 S293
S0
G1 X234.925 S185
S0
G1 X235.052 S2
S0
G1 X235.179 S140
S0
G1 X235.306 S172
S0
G1 X235.433 S54
S0
G1 X235.560 S74
S0
G1 X235.687 S266
S0
G1 X235.814 S169
S0
G1 X235.941 S215
S0
G1 X236.068 S113
S0
G1 X236.195 S62
S0
G1 X236.322 S76
S0
G1 X236.449 S77
S0
G1 X236.576 S55
S0
G1 X236.703 S136
S0
G1 X236.830 S210
S0
G1 X236.957 S23
S0
G1 X237.084 S24
S0
G1 X237.211 S30
S0
G1 X237.338 S23
S0
G1 X237.465 S24
S0
G1 X237.592 S21
S0
G1 X237.719 S19
S0
G1 X237.846 S20
S0
G1 X237.973 S16
S0
G1 X238.227 S19
S0
G1 X238.354 S12
S0
G1 X238.481 S13
S0
G1 X238.608 S11
S0
G1 X238.862 S24
S0
G1 X238.989 S22
S0
G1 X239.116 S20
S0
G1 X239.243 S24
S0
G1 X239.370 S21
S0
G1 X239.497 S20
S0
G1 X239.624 S23
S0
G1 X250.038 S20
S0
G0 Y33.401
G0 X250.038 S0
G1 X239.497 S20
S0
G1 X239.370 S22
S0
G1 X238.989 S20
S0
G1 X238.862 S24
S0
G1 X238.735 S27
S0
G1 X238.608 S7
S0
G1 X238.481 S16
S0
G1 X238.354 S103
S0
G1 X238.227 S72
S0
G1 X238.100 S5
S0
G1 X237.973 S19
S0
G1 X237.846 S20
S0
G1 X237.719 S19
S0
G1 X237.592 S21
S0
G1 X237.465 S24
S0
G1 X237.338 S19
S0
G1 X237.211 S20
S0
G1 X237.084 S30
S0
G1 X236.957 S14
S0
G1 X236.830 S82
S0
G1 X236.703 S231
S0
G1 X236.576 S63
S0
G1 X236.449 S66
S0
G1 X236.322 S74
S0
G1 X236.195 S73
S0
G1 X236.068 S69
S0
G1 X235.941 S50
S0
G1 X235.814 S215
S0
G1 X235.687 S336
S0
G1 X235.560 S104
S0
G1 X235.433 S50
S0
G1 X235.306 S60
S0
G1 X235.179 S194
S0
G1 X235.052 S125
S0
G1 X234.925 S89
S0
G1 X234.798 S329
S0
G1 X234.671 S110
S0
G1 X234.544 S44
S0
G1 X234.417 S70
S0
G1 X234.290 S83
S0
G1 X234.163 S76
S0
G1 X234.036 S73
S0
G1 X233.909 S77
S0
G1 X233.782 S73
S0
G1 X233.655 S78
S0
G1 X233.528 S74
S0
G1 X233.401 S66
S0
G1 X233.274 S111
S0
G1 X233.147 S235
S0
G1 X233.020 S38
S0
G1 X232.893 S23
S0
G1 X232.766 S37
S0
G1 X232.639 S28
S0
G1 X232.512 S7
S0
G1 X232.385 S120
S0
G1 X232.258 S234
S0
G1 X232.131 S216
S0
G1 X232.004 S204
S0
G1 X231.877 S173
S0
G1 X231.750 S41
S0
G1 X231.623 S14
S0
G1 X231.496 S12
S0
G1 X231.242 S21
S0
G1 X230.988 S20
S0
G1 X230.861 S21
S0
G1 X229.337 S20
S0
G1 X229.210 S19
S0
G1 X229.083 S20
S0
G1 X228.956 S23
S0
G1 X228.829 S21
S0
G1 X228.702 S16
S0
G1 X228.575 S20
S0
G1 X228.448 S19
S0
G1 X228.321 S26
S0
G1 X228.194 S20
S0
G1 X228.067 S22
S0
G1 X227.686 S21
S0
G1 X227.559 S12
S0
G1 X227.432 S4
S0
G1 X227.305 S12
S0
G1 X227.178 S11
S0
G1 X227.051 S21
S0
G1 X226.924 S49
S0
G1 X226.670 S112
S0
G1 X226.543 S94
S0
G1 X226.416 S97
S0
G1 X226.289 S89
S0
G1 X226.162 S79
S0
G1 X226.035 S56
S0
G1 X225.908 S21
S0
G1 X225.781 S2
S0
G0 X225.654 S0
G1 X225.527 S63
S0
G1 X225.400 S243
S0
G1 X225.273 S75
S0
G1 X225.146 S20
S0
G1 X225.019 S38
S0
G1 X224.892 S44
S0
G1 X224.765 S27
S0
G1 X224.638 S14
S0
G1 X224.511 S11
S0
G1 X224.384 S8
S0
G1 X224.257 S17
S0
G1 X224.130 S12
S0
G1 X223.876 S13
S0
G1 X223.749 S22
S0
G1 X223.622 S101
S0
G1 X223.495 S186
S0
G1 X223.368 S261
S0
G1 X223.241 S296
S0
G1 X223.114 S332
S0
G1 X222.987 S379
S0
G1 X222.860 S359
S0
G1 X222.733 S343
S0
G1 X222.606 S300
S0
G1 X222.479 S273
S0
G1 X222.352 S282
S0
G1 X222.225 S331
S0
G1 X222.098 S386
S0
G1 X221.971 S356
S0
G1 X221.844 S258
S0
G1 X221.717 S210
S0
G1 X221.590 S214
S0
G1 X221.463 S250
S0
G1 X221.336 S238
S0
G1 X221.209 S323
S0
G1 X221.082 S410
S0
G1 X220.955 S431
S0
G1 X220.828 S220
S0
G1 X220.701 S233
S0
G1 X220.574 S257
S0
G1 X220.447 S259
S0
G1 X220.320 S216
S0
G1 X220.193 S149
S0
G1 X220.066 S40
S0
G1 X219.939 S86
S0
G1 X219.812 S266
S0
G1 X219.685 S293
S0
G1 X219.558 S356
S0
G1 X219.431 S401
S0
G1 X219.304 S344
S0
G1 X219.177 S376
S0
G1 X219.050 S367
S0
G1 X218.923 S376
S0
G1 X218.796 S306
S0
G1 X218.669 S328
S0
G1 X218.542 S341
S0
G1 X218.415 S349
S0
G1 X218.288 S314
S0
G1 X218.161 S463
S0
G1 X218.034 S548
S0
G1 X217.907 S391
S0
G1 X217.780 S427
S0
G1 X217.653 S466
S0
G1 X217.526 S325
S0
G1 X217.399 S324
S0
G1 X217.272 S313
S0
G1 X217.145 S317
S0
G1 X217.018 S304
S0
G1 X216.891 S264
S0
G1 X216.764 S368
S0
G1 X216.637 S451
S0
G1 X216.510 S207
S0
G1 X216.383 S153
S0
G1 X216.256 S159
S0
G1 X216.129 S164
S0
G1 X216.002 S160
S0
G1 X215.875 S149
S0
G1 X215.748 S151
S0
G1 X215.621 S164
S0
G1 X215.494 S157
S0
G1 X215.240 S168
S0
G1 X215.113 S124
S0
G1 X214.986 S289
S0
G1 X214.859 S347
S0
G1 X214.732 S146
S0
G1 X214.605 S167
S0
G1 X214.478 S172
S0
G1 X214.351 S156
S0
G1 X214.224 S136
S0
G1 X214.097 S116
S0
G1 X213.970 S89
S0
G1 X213.843 S93
S0
G1 X213.716 S80
S0
G1 X213.589 S48
S0
G1 X213.462 S47
S0
G1 X213.335 S40
S0
G1 X213.208 S37
S0
G1 X213.081 S26
S0
G1 X212.954 S19
S0
G1 X212.827 S21
S0
G1 X212.700 S27
S0
G1 X212.573 S43
S0
G1 X212.446 S55
S0
G1 X212.319 S61
S0
G1 X212.192 S77
S0
G1 X212.065 S117
S0
G1 X211.938 S179
S0
G1 X211.811 S261
S0
G1 X211.684 S231
S0
G1 X211.557 S66
S0
G1 X211.430 S22
S0
G1 X211.303 S36
S0
G1 X211.176 S39
S0
G1 X211.049 S35
S0
G1 X210.922 S46
S0
G1 X210.795 S39
S0
G1 X210.668 S44
S0
G1 X210.541 S43
S0
G1 X210.414 S42
S0
G1 X210.287 S22
S0
G1 X210.160 S27
S0
G1 X210.033 S75
S0
G1 X209.906 S143
S0
G1 X209.779 S282
S0
G1 X209.652 S228
S0
G1 X209.525 S27
S0
G1 X209.398 S12
S0
G1 X209.144 S27
S0
G1 X200.000 S20
S0
G0 Y33.274
G0 X200.000 S0
G1 X209.144 S20
S0
G1 X209.271 S34
S0
G1 X209.398 S11
S0
G1 X209.525 S20
S0
G1 X209.652 S23
S0
G1 X209.779 S141
S0
G1 X209.906 S219
S0
G1 X210.033 S214
S0
G1 X210.160 S106
S0
G1 X210.287 S22
S0
G1 X210.414 S19
S0
G1 X210.541 S36
S0
G1 X210.668 S39
S0
G1 X210.795 S42
S0
G1 X210.922 S41
S0
G1 X211.049 S39
S0
G1 X211.176 S41
S0
G1 X211.303 S39
S0
G1 X211.430 S35
S0
G1 X211.557 S37
S0
G1 X211.684 S24
S0
G1 X211.811 S12
S0
G1 X211.938 S108
S0
G1 X212.065 S205
S0
G1 X212.192 S255
S0
G1 X212.319 S282
S0
G1 X212.446 S285
S0
G1 X212.573 S289
S0
G1 X212.700 S285
S0
G1 X212.827 S275
S0
G1 X212.954 S265
S0
G1 X213.208 S258
S0
G1 X213.335 S277
S0
G1 X213.462 S273
S0
G1 X213.589 S262
S0
G1 X213.716 S243
S0
G1 X213.843 S242
S0
G1 X213.970 S247
S0
G1 X214.097 S242
S0
G1 X214.224 S265
S0
G1 X214.351 S235
S0
G1 X214.478 S200
S0
G1 X214.605 S184
S0
G1 X214.732 S166
S0
G1 X214.859 S155
S0
G1 X214.986 S344
S0
G1 X215.113 S246
S0
G1 X215.240 S140
S0
G1 X215.367 S167
S0
G1 X215.494 S157
S0
G1 X215.621 S160
S0
G1 X215.748 S159
S0
G1 X216.129 S163
S0
G1 X216.256 S145
S0
G1 X216.383 S160
S0
G1 X216.510 S155
S0
G1 X216.637 S179
S0
G1 X216.764 S294
S0
G1 X216.891 S324
S0
G1 X217.018 S302
S0
G1 X217.653 S337
S0
G1 X217.780 S357
S0
G1 X217.907 S486
S0
G1 X218.034 S442
S0
G1 X218.161 S419
S0
G1 X218.288 S337
S0
G1 X218.415 S348
S0
G1 X218.542 S344
S0
G1 X218.669 S340
S0
G1 X218.796 S336
S0
G1 X218.923 S309
S0
G1 X219.050 S447
S0
G1 X219.177 S567
S0
G1 X219.304 S477
S0
G1 X219.431 S369
S0
G1 X219.558 S478
S0
G1 X219.685 S338
S0
G1 X219.812 S330
S0
G1 X219.939 S274
S0
G1 X220.193 S46
S0
G1 X220.320 S159
S0
G1 X220.447 S200
S0
G1 X220.574 S236
S0
G1 X220.701 S207
S0
G1 X220.828 S282
S0
G1 X220.955 S450
S0
G1 X221.082 S575
S0
G1 X221.209 S410
S0
G1 X221.336 S312
S0
G1 X221.463 S336
S0
G1 X221.590 S354
S0
G1 X221.717 S379
S0
G1 X221.844 S389
S0
G1 X221.971 S402
S0
G1 X222.098 S438
S0
G1 X222.225 S482
S0
G1 X222.352 S516
S0
G1 X222.479 S564
S0
G1 X222.606 S543
S0
G1 X222.733 S441
S0
G1 X222.860 S320
S0
G1 X222.987 S223
S0
G1 X223.114 S187
S0
G1 X223.241 S150
S0
G1 X223.368 S126
S0
G1 X223.495 S88
S0
G1 X223.622 S74
S0
G1 X223.749 S136
S0
G1 X223.876 S148
S0
G1 X224.003 S132
S0
G1 X224.130 S143
S0
G1 X224.257 S172
S0
G1 X224.384 S188
S0
G1 X224.511 S212
S0
G1 X224.638 S250
S0
G1 X224.765 S220
S0
G1 X224.892 S56
S0
G1 X225.019 S15
S0
G1 X225.146 S34
S0
G1 X225.273 S161
S0
G1 X225.400 S271
S0
G1 X225.527 S122
S0
G1 X225.654 S64
S0
G1 X225.781 S168
S0
G1 X225.908 S255
S0
G1 X226.035 S286
S0
G1 X226.162 S287
S0
G1 X226.289 S281
S0
G1 X226.416 S293
S0
G1 X226.543 S341
S0
G1 X226.670 S387
S0
G1 X226.797 S439
S0
G1 X226.924 S470
S0
G1 X227.051 S431
S0
G1 X227.178 S356
S0
G1 X227.305 S296
S0
G1 X227.432 S267
S0
G1 X227.559 S168
S0
G1 X227.686 S71
S0
G1 X227.813 S32
S0
G1 X227.940 S5
S0
G1 X228.067 S3
S0
G1 X228.194 S20
S0
G1 X228.448 S24
S0
G1 X228.702 S19
S0
G1 X228.956 S20
S0
G1 X229.083 S23
S0
G1 X229.210 S24
S0
G1 X230.988 S20
S0
G1 X231.115 S16
S0
G1 X231.369 S19
S0
G1 X231.496 S24
S0
G1 X231.623 S21
S0
G1 X231.750 S14
S0
G1 X231.877 S56
S0
G1 X232.004 S274
S0
G1 X232.131 S169
S0
G1 X232.258 S79
S0
G1 X232.385 S132
S0
G1 X232.512 S275
S0
G1 X232.639 S143
S0
G1 X232.766 S4
S0
G1 X232.893 S25
S0
G1 X233.020 S21
S0
G1 X233.147 S39
S0
G1 X233.274 S242
S0
G1 X233.401 S119
S0
G1 X233.528 S66
S0
G1 X233.655 S74
S0
G1 X233.782 S73
S0
G1 X234.163 S74
S0
G1 X234.290 S73
S0
G1 X234.417 S78
S0
G1 X234.544 S73
S0
G1 X234.671 S81
S0
G1 X234.798 S39
S0
G1 X234.925 S172
S0
G1 X235.052 S265
S0
G1 X235.179 S232
S0
G1 X235.306 S266
S0
G1 X235.433 S40
S0
G1 X235.560 S70
S0
G1 X235.687 S46
S0
G1 X235.814 S312
S0
G1 X235.941 S215
S0
G1 X236.068 S36
S0
G1 X236.195 S74
S0
G1 X236.322 S77
S0
G1 X236.449 S75
S0
G1 X236.576 S69
S0
G1 X236.703 S45
S0
G1 X236.830 S207
S0
G1 X236.957 S143
S0
G1 X237.084 S2
S0
G1 X237.211 S23
S0
G1 X237.338 S26
S0
G1 X237.465 S20
S0
G1 X237.592 S15
S0
G1 X237.719 S16
S0
G1 X237.846 S27
S0
G1 X237.973 S12
S0
G1 X238.100 S19
S0
G1 X238.227 S184
S0
G1 X238.354 S242
S0
G1 X238.481 S246
S0
G1 X238.608 S247
S0
G1 X238.735 S58
S0
G1 X238.862 S10
S0
G1 X238.989 S20
S0
G1 X239.116 S21
S0
G1 X239.243 S20
S0
G1 X239.370 S22
S0
G1 X250.038 S20
S0
G0 Y33.147
G0 X250.038 S0
G1 X239.497 S20
S0
G1 X239.370 S25
S0
G1 X239.243 S20
S0
G1 X238.989 S24
S0
G1 X238.862 S4
S0
G1 X238.735 S78
S0
G1 X238.608 S290
S0
G1 X238.481 S194
S0
G1 X238.354 S44
S0
G1 X238.227 S93
S0
G1 X238.100 S251
S0
G1 X237.973 S219
S0
G1 X237.846 S25
S0
G1 X237.719 S9
S0
G1 X237.592 S24
S0
G1 X237.465 S20
S0
G1 X237.211 S23
S0
G1 X237.084 S21
S0
G1 X236.957 S11
S0
G1 X236.830 S202
S0
G1 X236.703 S155
S0
G1 X236.576 S46
S0
G1 X236.449 S70
S0
G1 X236.322 S74
S0
G1 X236.195 S73
S0
G1 X236.068 S78
S0
G1 X235.941 S67
S0
G1 X235.814 S118
S0
G1 X235.687 S256
S0
G1 X235.560 S94
S0
G1 X235.433 S61
S0
G1 X235.306 S45
S0
G1 X235.179 S234
S0
G1 X235.052 S341
S0
G1 X234.925 S234
S0
G1 X234.798 S38
S0
G1 X234.671 S69
S0
G1 X234.544 S75
S0
G1 X234.417 S79
S0
G1 X234.290 S66
S0
G1 X234.163 S75
S0
G1 X234.036 S74
S0
G1 X233.909 S72
S0
G1 X233.782 S74
S0
G1 X233.655 S75
S0
G1 X233.528 S73
S0
G1 X233.401 S65
S0
G1 X233.274 S122
S0
G1 X233.147 S246
S0
G1 X233.020 S38
S0
G1 X232.893 S15
S0
G1 X232.766 S4
S0
G1 X232.639 S144
S0
G1 X232.512 S283
S0
G1 X232.385 S93
S0
G1 X232.258 S45
S0
G1 X232.131 S70
S0
G1 X232.004 S87
S0
G1 X231.877 S179
S0
G1 X231.750 S62
S0
G1 X231.623 S16
S0
G1 X231.242 S19
S0
G1 X230.861 S21
S0
G1 X229.210 S20
S0
G1 X229.083 S21
S0
G1 X228.956 S16
S0
G1 X228.829 S20
S0
G1 X228.702 S23
S0
G1 X228.575 S21
S0
G1 X228.448 S20
S0
G1 X228.321 S17
S0
G1 X228.194 S5
S0
G1 X228.067 S10
S0
G1 X227.940 S80
S0
G1 X227.813 S153
S0
G1 X227.686 S203
S0
G1 X227.559 S242
S0
G1 X227.432 S251
S0
G1 X227.305 S321
S0
G1 X227.178 S351
S0
G1 X227.051 S317
S0
G1 X226.924 S274
S0
G1 X226.797 S207
S0
G1 X226.670 S175
S0
G1 X226.543 S146
S0
G1 X226.416 S117
S0
G1 X226.162 S78
S0
G1 X226.035 S121
S0
G1 X225.908 S164
S0
G1 X225.781 S208
S0
G1 X225.654 S238
S0
G1 X225.527 S259
S0
G1 X225.400 S261
S0
G1 X225.273 S294
S0
G1 X225.146 S257
S0
G1 X225.019 S246
S0
G1 X224.892 S298
S0
G1 X224.765 S332
S0
G1 X224.638 S345
S0
G1 X224.511 S294
S0
G1 X224.384 S224
S0
G1 X224.257 S179
S0
G1 X224.130 S196
S0
G1 X224.003 S215
S0
G1 X223.876 S228
S0
G1 X223.749 S235
S0
G1 X223.622 S236
S0
G1 X223.495 S230
S0
G1 X223.368 S270
S0
G1 X223.241 S285
S0
G1 X223.114 S236
S0
G1 X222.987 S230
S0
G1 X222.860 S332
S0
G1 X222.733 S364
S0
G1 X222.606 S340
S0
G1 X222.479 S292
S0
G1 X222.352 S246
S0
G1 X222.225 S199
S0
G1 X222.098 S175
S0
G1 X221.971 S178
S0
G1 X221.844 S198
S0
G1 X221.717 S210
S0
G1 X221.590 S201
S0
G1 X221.463 S174
S0
G1 X221.336 S170
S0
G1 X221.209 S172
S0
G1 X221.082 S195
S0
G1 X220.955 S337
S0
G1 X220.828 S364
S0
G1 X220.701 S422
S0
G1 X220.574 S266
S0
G1 X220.447 S195
S0
G1 X220.320 S171
S0
G1 X220.193 S163
S0
G1 X220.066 S156
S0
G1 X219.939 S91
S0
G1 X219.812 S144
S0
G1 X219.685 S317
S0
G1 X219.558 S340
S0
G1 X219.431 S406
S0
G1 X219.304 S340
S0
G1 X219.177 S478
S0
G1 X219.050 S545
S0
G1 X218.923 S367
S0
G1 X218.796 S320
S0
G1 X218.669 S337
S0
G1 X218.542 S336
S0
G1 X218.415 S344
S0
G1 X218.288 S345
S0
G1 X218.161 S341
S0
G1 X218.034 S316
S0
G1 X217.907 S356
S0
G1 X217.780 S418
S0
G1 X217.653 S340
S0
G1 X217.526 S337
S0
G1 X217.399 S349
S0
G1 X217.272 S345
S0
G1 X217.145 S341
S0
G1 X217.018 S333
S0
G1 X216.891 S329
S0
G1 X216.764 S290
S0
G1 X216.637 S210
S0
G1 X216.510 S180
S0
G1 X216.383 S152
S0
G1 X216.256 S196
S0
G1 X216.129 S191
S0
G1 X216.002 S153
S0
G1 X215.875 S159
S0
G1 X215.748 S160
S0
G1 X215.621 S156
S0
G1 X215.494 S160
S0
G1 X215.367 S157
S0
G1 X215.240 S163
S0
G1 X215.113 S137
S0
G1 X214.986 S290
S0
G1 X214.859 S509
S0
G1 X214.732 S368
S0
G1 X214.605 S355
S0
G1 X214.478 S324
S0
G1 X214.351 S340
S0
G1 X214.224 S333
S0
G1 X214.097 S269
S0
G1 X213.843 S255
S0
G1 X213.716 S261
S0
G1 X213.589 S267
S0
G1 X213.462 S253
S0
G1 X213.335 S254
S0
G1 X213.208 S238
S0
G1 X213.081 S226
S0
G1 X212.954 S208
S0
G1 X212.827 S195
S0
G1 X212.700 S175
S0
G1 X212.573 S149
S0
G1 X212.446 S132
S0
G1 X212.319 S116
S0
G1 X212.192 S98
S0
G1 X212.065 S48
S0
G1 X211.811 S19
S0
G1 X211.557 S52
S0
G1 X211.430 S49
S0
G1 X211.303 S36
S0
G1 X211.176 S35
S0
G1 X211.049 S42
S0
G1 X210.922 S43
S0
G1 X210.795 S40
S0
G1 X210.668 S31
S0
G1 X210.541 S24
S0
G1 X210.414 S19
S0
G1 X210.287 S102
S0
G1 X210.160 S232
S0
G1 X210.033 S237
S0
G1 X209.906 S148
S0
G1 X209.779 S19
S0
G1 X209.652 S3
S0
G1 X209.525 S25
S0
G1 X209.398 S29
S0
G1 X200.000 S20
S0
G0 Y33.020
G0 X200.000 S0
G1 X209.144 S20
S0
G1 X209.271 S25
S0
G1 X209.398 S24
S0
G1 X209.525 S20
S0
G1 X209.652 S21
S0
G1 X209.779 S31
S0
G1 X209.906 S20
S0
G1 X210.033 S3
S0
G1 X210.160 S16
S0
G1 X210.287 S140
S0
G1 X210.414 S250
S0
G1 X210.541 S235
S0
G1 X210.668 S62
S0
G1 X210.795 S9
S0
G1 X210.922 S35
S0
G1 X211.049 S53
S0
G1 X211.176 S50
S0
G1 X211.303 S38
S0
G1 X211.430 S40
S0
G1 X211.557 S43
S0
G1 X211.684 S42
S0
G1 X211.811 S38
S0
G1 X211.938 S45
S0
G1 X212.065 S52
S0
G1 X212.192 S37
S0
G1 X212.319 S16
S0
G1 X212.446 S19
S0
G1 X212.573 S12
S0
G1 X212.827 S9
S0
G1 X212.954 S7
S0
G1 X213.081 S12
S0
G1 X213.208 S11
S0
G1 X213.462 S13
S0
G1 X213.589 S22
S0
G1 X213.716 S20
S0
G1 X213.843 S18
S0
G1 X213.970 S22
S0
G1 X214.224 S19
S0
G1 X214.351 S42
S0
G1 X214.478 S88
S0
G1 X214.605 S132
S0
G1 X214.732 S155
S0
G1 X214.859 S277
S0
G1 X214.986 S486
S0
G1 X215.113 S219
S0
G1 X215.240 S144
S0
G1 X215.367 S164
S0
G1 X215.494 S161
S0
G1 X215.621 S159
S0
G1 X215.748 S161
S0
G1 X215.875 S159
S0
G1 X216.002 S160
S0
G1 X216.129 S132
S0
G1 X216.256 S254
S0
G1 X216.383 S317
S0
G1 X216.510 S157
S0
G1 X216.637 S136
S0
G1 X216.764 S199
S0
G1 X216.891 S310
S0
G1 X217.018 S332
S0
G1 X217.145 S336
S0
G1 X217.272 S341
S0
G1 X217.399 S343
S0
G1 X217.526 S341
S0
G1 X217.653 S343
S0
G1 X217.780 S345
S0
G1 X217.907 S312
S0
G1 X218.034 S336
S0
G1 X218.161 S344
S0
G1 X218.288 S349
S0
G1 X218.415 S340
S0
G1 X218.542 S352
S0
G1 X218.669 S332
S0
G1 X218.796 S349
S0
G1 X218.923 S328
S0
G1 X219.050 S344
S0
G1 X219.177 S525
S0
G1 X219.304 S411
S0
G1 X219.431 S309
S0
G1 X219.558 S330
S0
G1 X219.685 S349
S0
G1 X219.812 S273
S0
G1 X219.939 S231
S0
G1 X220.066 S278
S0
G1 X220.193 S240
S0
G1 X220.320 S182
S0
G1 X220.447 S145
S0
G1 X220.574 S161
S0
G1 X220.701 S396
S0
G1 X220.828 S268
S0
G1 X220.955 S155
S0
G1 X221.082 S165
S0
G1 X221.209 S164
S0
G1 X221.336 S148
S0
G1 X221.463 S152
S0
G1 X221.717 S171
S0
G1 X221.844 S160
S0
G1 X221.971 S168
S0
G1 X222.098 S159
S0
G1 X222.225 S167
S0
G1 X222.352 S154
S0
G1 X222.479 S135
S0
G1 X222.606 S136
S0
G1 X222.733 S169
S0
G1 X222.860 S289
S0
G1 X222.987 S475
S0
G1 X223.114 S419
S0
G1 X223.241 S218
S0
G1 X223.368 S177
S0
G1 X223.495 S128
S0
G1 X223.622 S82
S0
G1 X223.749 S48
S0
G1 X223.876 S41
S0
G1 X224.003 S42
S0
G1 X224.130 S36
S0
G1 X224.257 S20
S0
G1 X224.511 S22
S0
G1 X224.638 S23
S0
G1 X224.765 S35
S0
G1 X224.892 S140
S0
G1 X225.019 S251
S0
G1 X225.146 S246
S0
G1 X225.273 S316
S0
G1 X225.400 S279
S0
G1 X225.527 S189
S0
G1 X225.654 S87
S0
G1 X225.781 S36
S0
G1 X225.908 S23
S0
G1 X226.035 S20
S0
G1 X226.162 S24
S0
G1 X226.289 S32
S0
G1 X226.416 S60
S0
G1 X226.543 S85
S0
G1 X226.670 S83
S0
G1 X226.797 S74
S0
G1 X226.924 S70
S0
G1 X227.051 S60
S0
G1 X227.178 S68
S0
G1 X227.305 S69
S0
G1 X227.432 S73
S0
G1 X227.559 S86
S0
G1 X227.686 S109
S0
G1 X227.813 S146
S0
G1 X227.940 S181
S0
G1 X228.194 S219
S0
G1 X228.321 S133
S0
G1 X228.448 S28
S0
G1 X228.575 S1
S0
G1 X228.702 S7
S0
G1 X228.829 S16
S0
G1 X228.956 S24
S0
G1 X229.083 S19
S0
G1 X229.210 S15
S0
G1 X229.337 S20
S0
G1 X229.718 S21
S0
G1 X229.845 S19
S0
G1 X230.353 S20
S0
G1 X230.480 S24
S0
G1 X230.607 S25
S0
G1 X230.734 S27
S0
G1 X230.861 S19
S0
G1 X230.988 S27
S0
G1 X231.115 S21
S0
G1 X231.242 S25
S0
G1 X231.369 S21
S0
G1 X231.496 S19
S0
G1 X231.623 S24
S0
G1 X231.750 S16
S0
G1 X231.877 S77
S0
G1 X232.004 S211
S0
G1 X232.131 S83
S0
G1 X232.258 S62
S0
G1 X232.385 S70
S0
G1 X232.512 S50
S0
G1 X232.639 S105
S0
G1 X232.766 S290
S0
G1 X232.893 S106
S0
G1 X233.020 S2
S0
G1 X233.147 S38
S0
G1 X233.274 S252
S0
G1 X233.401 S125
S0
G1 X233.528 S61
S0
G1 X233.655 S73
S0
G1 X233.782 S70
S0
G1 X233.909 S78
S0
G1 X234.036 S72
S0
G1 X234.163 S74
S0
G1 X234.290 S75
S0
G1 X234.417 S74
S0
G1 X234.544 S73
S0
G1 X234.671 S78
S0
G1 X234.798 S70
S0
G1 X234.925 S45
S0
G1 X235.052 S104
S0
G1 X235.179 S410
S0
G1 X235.306 S309
S0
G1 X235.433 S50
S0
G1 X235.560 S51
S0
G1 X235.687 S159
S0
G1 X235.814 S233
S0
G1 X235.941 S54
S0
G1 X236.068 S76
S0
G1 X236.195 S77
S0
G1 X236.449 S74
S0
G1 X236.576 S75
S0
G1 X236.703 S59
S0
G1 X236.830 S97
S0
G1 X236.957 S247
S0
G1 X237.084 S59
S0
G1 X237.211 S13
S0
G1 X237.338 S19
S0
G1 X237.465 S25
S0
G1 X237.592 S22
S0
G1 X237.719 S1
S0
G1 X237.846 S26
S0
G1 X237.973 S262
S0
G1 X238.100 S230
S0
G1 X238.227 S48
S0
G1 X238.354 S41
S0
G1 X238.481 S51
S0
G1 X238.608 S36
S0
G1 X238.735 S167
S0
G1 X238.862 S306
S0
G1 X238.989 S51
S0
G1 X239.116 S11
S0
G1 X239.243 S21
S0
G1 X239.751 S20
S0
G1 X239.878 S21
S0
G1 X250.038 S20
S0
G0 Y32.893
G0 X250.038 S0
G1 X240.005 S20
S0
G1 X239.878 S22
S0
G1 X239.751 S20
S0
G1 X239.624 S21
S0
G1 X239.243 S20
S0
G1 X239.116 S22
S0
G1 X238.989 S5
S0
G1 X238.862 S97
S0
G1 X238.735 S281
S0
G1 X238.608 S74
S0
G1 X238.481 S50
S0
G1 X238.354 S59
S0
G1 X238.227 S66
S0
G1 X238.100 S64
S0
G1 X237.973 S52
S0
G1 X237.846 S218
S0
G1 X237.719 S234
S0
G1 X237.592 S32
S0
G1 X237.465 S8
S0
G1 X237.338 S28
S0
G1 X237.211 S20
S0
G1 X237.084 S4
S0
G1 X236.957 S97
S0
G1 X236.830 S226
S0
G1 X236.703 S56
S0
G1 X236.576 S64
S0
G1 X236.449 S70
S0
G1 X236.322 S67
S0
G1 X236.195 S65
S0
G1 X236.068 S74
S0
G1 X235.941 S75
S0
G1 X235.814 S53
S0
G1 X235.687 S203
S0
G1 X235.560 S239
S0
G1 X235.433 S54
S0
G1 X235.306 S61
S0
G1 X235.179 S336
S0
G1 X235.052 S317
S0
G1 X234.925 S45
S0
G1 X234.671 S77
S0
G1 X234.544 S73
S0
G1 X234.417 S82
S0
G1 X234.290 S85
S0
G1 X234.036 S78
S0
G1 X233.909 S74
S0
G1 X233.782 S73
S0
G1 X233.655 S78
S0
G1 X233.528 S77
S0
G1 X233.401 S57
S0
G1 X233.274 S127
S0
G1 X233.147 S244
S0
G1 X233.020 S12
S0
G1 X232.893 S133
S0
G1 X232.766 S275
S0
G1 X232.639 S116
S0
G1 X232.512 S54
S0
G1 X232.385 S78
S0
G1 X232.258 S99
S0
G1 X232.131 S81
S0
G1 X232.004 S85
S0
G1 X231.877 S235
S0
G1 X231.750 S78
S0
G1 X231.623 S16
S0
G1 X231.496 S20
S0
G1 X231.369 S15
S0
G1 X231.115 S23
S0
G1 X230.988 S28
S0
G1 X230.861 S20
S0
G1 X230.734 S27
S0
G1 X230.607 S20
S0
G1 X230.480 S11
S0
G1 X230.353 S2
S0
G1 X230.226 S4
S0
G1 X230.099 S13
S0
G1 X229.972 S28
S0
G1 X229.845 S21
S0
G1 X229.718 S20
S0
G1 X229.591 S15
S0
G1 X229.464 S24
S0
G1 X229.337 S20
S0
G1 X229.210 S15
S0
G1 X229.083 S23
S0
G1 X228.956 S25
S0
G1 X228.829 S7
S0
G1 X228.702 S2
S0
G1 X228.575 S62
S0
G1 X228.448 S172
S0
G1 X228.321 S204
S0
G1 X228.194 S191
S0
G1 X228.067 S152
S0
G1 X227.940 S89
S0
G1 X227.813 S78
S0
G1 X227.686 S76
S0
G1 X227.559 S83
S0
G1 X227.305 S93
S0
G1 X227.051 S108
S0
G1 X226.924 S96
S0
G1 X226.797 S102
S0
G1 X226.670 S105
S0
G1 X226.543 S101
S0
G1 X226.416 S97
S0
G1 X226.289 S68
S0
G1 X226.162 S50
S0
G1 X226.035 S48
S0
G1 X225.908 S47
S0
G1 X225.781 S51
S0
G1 X225.654 S58
S0
G1 X225.527 S41
S0
G1 X225.400 S32
S0
G1 X225.273 S24
S0
G1 X225.146 S142
S0
G1 X225.019 S98
S0
G1 X224.892 S16
S0
G1 X224.765 S35
S0
G1 X224.511 S59
S0
G1 X224.384 S51
S0
G1 X224.257 S63
S0
G1 X224.003 S49
S0
G1 X223.876 S58
S0
G1 X223.749 S51
S0
G1 X223.622 S43
S0
G1 X223.495 S24
S0
G1 X223.368 S7
S0
G1 X223.241 S2
S0
G1 X223.114 S12
S0
G1 X222.987 S51
S0
G1 X222.860 S140
S0
G1 X222.733 S216
S0
G1 X222.606 S274
S0
G1 X222.479 S270
S0
G1 X222.352 S194
S0
G1 X222.225 S155
S0
G1 X222.098 S166
S0
G1 X221.971 S175
S0
G1 X221.844 S179
S0
G1 X221.717 S171
S0
G1 X221.590 S148
S0
G1 X221.463 S172
S0
G1 X221.336 S265
S0
G1 X221.209 S319
S0
G1 X221.082 S343
S0
G1 X220.955 S339
S0
G1 X220.828 S331
S0
G1 X220.701 S312
S0
G1 X220.574 S356
S0
G1 X220.447 S273
S0
G1 X220.320 S179
S0
G1 X220.193 S215
S0
G1 X220.066 S253
S0
G1 X219.939 S309
S0
G1 X219.812 S341
S0
G1 X219.685 S334
S0
G1 X219.558 S345
S0
G1 X219.431 S332
S0
G1 X219.304 S357
S0
G1 X219.177 S379
S0
G1 X219.050 S371
S0
G1 X218.923 S408
S0
G1 X218.796 S501
S0
G1 X218.669 S404
S0
G1 X218.542 S328
S0
G1 X218.415 S347
S0
G1 X218.288 S348
S0
G1 X218.161 S340
S0
G1 X218.034 S341
S0
G1 X217.907 S345
S0
G1 X217.780 S348
S0
G1 X217.653 S337
S0
G1 X217.526 S351
S0
G1 X217.399 S345
S0
G1 X217.272 S339
S0
G1 X217.145 S344
S0
G1 X217.018 S341
S0
G1 X216.891 S328
S0
G1 X216.764 S280
S0
G1 X216.637 S282
S0
G1 X216.510 S239
S0
G1 X216.383 S148
S0
G1 X216.256 S208
S0
G1 X216.129 S183
S0
G1 X216.002 S149
S0
G1 X215.875 S156
S0
G1 X215.748 S161
S0
G1 X215.494 S160
S0
G1 X215.367 S155
S0
G1 X215.240 S163
S0
G1 X215.113 S168
S0
G1 X214.986 S133
S0
G1 X214.859 S343
S0
G1 X214.732 S238
S0
G1 X214.605 S25
S0
G1 X214.478 S30
S0
G1 X214.351 S35
S0
G1 X214.224 S54
S0
G1 X214.097 S93
S0
G1 X213.970 S121
S0
G1 X213.843 S133
S0
G1 X213.716 S129
S0
G1 X213.589 S132
S0
G1 X213.335 S129
S0
G1 X213.208 S121
S0
G1 X213.081 S122
S0
G1 X212.954 S117
S0
G1 X212.827 S106
S0
G1 X212.700 S74
S0
G1 X212.573 S36
S0
G1 X212.446 S13
S0
G1 X212.319 S14
S0
G1 X212.192 S32
S0
G1 X212.065 S47
S0
G1 X211.938 S38
S0
G1 X211.811 S40
S0
G1 X211.684 S42
S0
G1 X211.557 S46
S0
G1 X211.430 S40
S0
G1 X211.303 S46
S0
G1 X211.176 S38
S0
G1 X211.049 S40
S0
G1 X210.922 S12
S0
G1 X210.795 S28
S0
G1 X210.668 S184
S0
G1 X210.541 S255
S0
G1 X210.414 S188
S0
G1 X210.287 S36
S0
G0 X210.160 S0
G1 X210.033 S21
S0
G1 X209.906 S23
S0
G1 X209.779 S22
S0
G1 X209.525 S20
S0
G1 X209.398 S24
S0
G1 X209.271 S19
S0
G1 X209.144 S21
S0
G1 X200.000 S20
S0
G0 Y32.766
G0 X200.000 S0
G1 X209.525 S20
S0
G1 X209.652 S21
S0
G1 X209.779 S15
S0
G1 X209.906 S20
S0
G1 X210.033 S19
S0
G1 X210.160 S24
S0
G1 X210.287 S22
S0
G1 X210.414 S11
S0
G1 X210.541 S4
S0
G1 X210.668 S59
S0
G1 X210.795 S242
S0
G1 X210.922 S254
S0
G1 X211.049 S82
S0
G1 X211.176 S5
S0
G1 X211.303 S20
S0
G1 X211.430 S42
S0
G1 X211.684 S43
S0
G1 X211.811 S46
S0
G1 X211.938 S40
S0
G1 X212.065 S7
S0
G1 X212.192 S12
S0
G1 X212.319 S79
S0
G1 X212.446 S175
S0
G1 X212.573 S246
S0
G1 X212.700 S274
S0
G1 X212.827 S270
S0
G1 X212.954 S243
S0
G1 X213.081 S231
S0
G1 X213.208 S235
S0
G1 X213.335 S239
S0
G1 X213.462 S231
S0
G1 X213.589 S230
S0
G1 X213.716 S241
S0
G1 X213.843 S242
S0
G1 X213.970 S243
S0
G1 X214.097 S239
S0
G1 X214.224 S282
S0
G1 X214.351 S301
S0
G1 X214.478 S282
S0
G1 X214.605 S257
S0
G1 X214.732 S222
S0
G1 X214.859 S430
S0
G1 X214.986 S438
S0
G1 X215.113 S157
S0
G1 X215.240 S156
S0
G1 X215.367 S163
S0
G1 X215.494 S156
S0
G1 X215.621 S155
S0
G1 X215.748 S161
S0
G1 X215.875 S164
S0
G1 X216.002 S169
S0
G1 X216.129 S172
S0
G1 X216.256 S143
S0
G1 X216.383 S129
S0
G1 X216.510 S140
S0
G1 X216.637 S372
S0
G1 X216.764 S486
S0
G1 X216.891 S348
S0
G1 X217.018 S308
S0
G1 X217.145 S332
S0
G1 X217.272 S344
S0
G1 X217.399 S345
S0
G1 X217.526 S340
S0
G1 X217.653 S348
S0
G1 X217.780 S351
S0
G1 X218.034 S348
S0
G1 X218.161 S344
S0
G1 X218.288 S346
S0
G1 X218.415 S339
S0
G1 X218.542 S325
S0
G1 X218.669 S302
S0
G1 X218.796 S445
S0
G1 X218.923 S567
S0
G1 X219.050 S360
S0
G1 X219.177 S446
S0
G1 X219.304 S579
S0
G1 X219.431 S398
S0
G1 X219.558 S329
S0
G1 X219.685 S345
S0
G1 X219.812 S336
S0
G1 X219.939 S329
S0
G1 X220.066 S312
S0
G1 X220.193 S253
S0
G1 X220.320 S234
S0
G1 X220.447 S372
S0
G1 X220.574 S473
S0
G1 X220.701 S265
S0
G1 X220.828 S184
S0
G1 X220.955 S206
S0
G1 X221.082 S213
S0
G1 X221.209 S253
S0
G1 X221.336 S304
S0
G1 X221.463 S371
S0
G1 X221.590 S382
S0
G1 X221.717 S269
S0
G1 X221.844 S176
S0
G1 X221.971 S168
S0
G1 X222.098 S147
S0
G1 X222.225 S190
S0
G1 X222.352 S343
S0
G1 X222.479 S384
S0
G1 X222.606 S184
S0
G1 X222.733 S68
S0
G1 X222.860 S3
S0
G0 X222.987 S0
G1 X223.114 S8
S0
G1 X223.241 S23
S0
G1 X223.368 S36
S0
G1 X223.495 S47
S0
G1 X223.622 S50
S0
G1 X223.749 S55
S0
G1 X223.876 S50
S0
G1 X224.003 S47
S0
G1 X224.130 S50
S0
G1 X224.257 S46
S0
G1 X224.511 S45
S0
G1 X224.638 S43
S0
G1 X224.765 S50
S0
G1 X224.892 S53
S0
G1 X225.019 S51
S0
G1 X225.146 S39
S0
G1 X225.273 S29
S0
G1 X225.400 S51
S0
G1 X225.527 S46
S0
G1 X225.654 S51
S0
G1 X225.781 S50
S0
G1 X226.035 S43
S0
G1 X226.162 S48
S0
G1 X226.289 S44
S0
G1 X226.416 S61
S0
G1 X226.543 S90
S0
G1 X226.670 S98
S0
G1 X226.924 S100
S0
G1 X227.051 S106
S0
G1 X227.178 S99
S0
G1 X227.305 S72
S0
G1 X227.432 S78
S0
G1 X227.559 S102
S0
G1 X227.686 S203
S0
G1 X227.813 S250
S0
G1 X227.940 S149
S0
G1 X228.067 S95
S0
G1 X228.194 S94
S0
G1 X228.321 S66
S0
G1 X228.448 S126
S0
G1 X228.575 S197
S0
G1 X228.702 S242
S0
G1 X228.829 S224
S0
G1 X228.956 S93
S0
G1 X229.083 S3
S0
G1 X229.210 S2
S0
G1 X229.337 S28
S0
G1 X229.464 S39
S0
G1 X229.591 S20
S0
G1 X229.718 S23
S0
G1 X229.845 S29
S0
G1 X229.972 S28
S0
G1 X230.099 S12
S0
G1 X230.226 S8
S0
G1 X230.353 S106
S0
G1 X230.480 S150
S0
G1 X230.607 S97
S0
G1 X230.734 S44
S0
G1 X230.861 S23
S0
G1 X230.988 S7
S0
G1 X231.115 S1
S0
G1 X231.242 S25
S0
G1 X231.369 S27
S0
G1 X231.623 S24
S0
G1 X231.750 S8
S0
G1 X231.877 S47
S0
G1 X232.004 S241
S0
G1 X232.131 S152
S0
G1 X232.258 S132
S0
G1 X232.385 S97
S0
G1 X232.512 S86
S0
G1 X232.639 S106
S0
G1 X232.766 S62
S0
G1 X232.893 S94
S0
G1 X233.020 S265
S0
G1 X233.147 S176
S0
G1 X233.274 S210
S0
G1 X233.401 S117
S0
G1 X233.528 S67
S0
G1 X233.782 S74
S0
G1 X234.036 S78
S0
G1 X234.163 S73
S0
G1 X234.290 S69
S0
G1 X234.417 S78
S0
G1 X234.544 S74
S0
G1 X234.671 S73
S0
G1 X234.798 S69
S0
G1 X234.925 S78
S0
G1 X235.052 S57
S0
G1 X235.179 S96
S0
G1 X235.306 S290
S0
G1 X235.433 S124
S0
G1 X235.560 S55
S0
G1 X235.687 S292
S0
G1 X235.814 S148
S0
G1 X235.941 S53
S0
G1 X236.068 S74
S0
G1 X236.195 S70
S0
G1 X236.322 S61
S0
G1 X236.449 S55
S0
G1 X236.576 S58
S0
G1 X236.703 S68
S0
G1 X236.830 S41
S0
G1 X236.957 S204
S0
G1 X237.084 S140
S0
G1 X237.211 S4
S0
G1 X237.338 S12
S0
G1 X237.465 S9
S0
G1 X237.592 S63
S0
G1 X237.719 S267
S0
G1 X237.846 S169
S0
G1 X237.973 S28
S0
G1 X238.100 S58
S0
G1 X238.354 S67
S0
G1 X238.608 S61
S0
G1 X238.735 S54
S0
G1 X238.862 S176
S0
G1 X238.989 S63
S0
G1 X239.116 S9
S0
G1 X239.243 S19
S0
G1 X239.370 S13
S0
G1 X239.497 S28
S0
G1 X239.624 S16
S0
G1 X239.751 S19
S0
G1 X239.878 S20
S0
G1 X240.005 S21
S0
G1 X240.259 S19
S0
G1 X250.038 S20
S0
G0 Y32.639
G0 X250.038 S0
G1 X240.513 S20
S0
G1 X240.386 S17
S0
G1 X240.005 S20
S0
G1 X239.878 S24
S0
G1 X239.751 S19
S0
G1 X239.624 S20
S0
G1 X239.497 S19
S0
G1 X239.370 S16
S0
G1 X239.243 S20
S0
G1 X239.116 S23
S0
G1 X238.989 S5
S0
G1 X238.862 S95
S0
G1 X238.735 S179
S0
G1 X238.608 S40
S0
G1 X238.481 S66
S0
G1 X238.354 S62
S0
G1 X238.227 S56
S0
G1 X238.100 S55
S0
G1 X237.973 S50
S0
G1 X237.846 S45
S0
G1 X237.719 S25
S0
G1 X237.592 S161
S0
G1 X237.465 S236
S0
G1 X237.338 S148
S0
G1 X237.211 S160
S0
G1 X237.084 S6
S0
G1 X236.957 S138
S0
G1 X236.830 S184
S0
G1 X236.703 S20
S0
G1 X236.576 S66
S0
G1 X236.449 S53
S0
G1 X236.322 S57
S0
G1 X236.195 S65
S0
G1 X236.068 S70
S0
G1 X235.941 S78
S0
G1 X235.814 S66
S0
G1 X235.687 S93
S0
G1 X235.560 S265
S0
G1 X235.433 S105
S0
G1 X235.306 S209
S0
G1 X235.179 S262
S0
G1 X235.052 S42
S0
G1 X234.925 S79
S0
G1 X234.798 S67
S0
G1 X234.671 S77
S0
G1 X234.544 S76
S0
G1 X234.417 S79
S0
G1 X234.290 S71
S0
G1 X234.163 S74
S0
G1 X234.036 S73
S0
G1 X233.909 S78
S0
G1 X233.782 S77
S0
G1 X233.655 S74
S0
G1 X233.528 S70
S0
G1 X233.401 S66
S0
G1 X233.274 S82
S0
G1 X233.147 S341
S0
G1 X233.020 S317
S0
G1 X232.893 S98
S0
G1 X232.766 S65
S0
G1 X232.639 S119
S0
G1 X232.512 S134
S0
G1 X232.385 S116
S0
G1 X232.258 S131
S0
G1 X232.131 S137
S0
G1 X232.004 S200
S0
G1 X231.877 S238
S0
G1 X231.750 S23
S0
G1 X231.623 S18
S0
G1 X231.496 S40
S0
G1 X231.369 S38
S0
G1 X231.242 S3
S0
G1 X231.115 S16
S0
G1 X230.988 S109
S0
G1 X230.861 S199
S0
G1 X230.734 S223
S0
G1 X230.607 S215
S0
G1 X230.480 S223
S0
G1 X230.353 S212
S0
G1 X230.226 S221
S0
G1 X230.099 S224
S0
G1 X229.972 S42
S0
G1 X229.845 S17
S0
G1 X229.718 S31
S0
G1 X229.591 S28
S0
G1 X229.464 S20
S0
G0 X229.337 S0
G1 X229.210 S8
S0
G1 X229.083 S154
S0
G1 X228.956 S294
S0
G1 X228.829 S297
S0
G1 X228.702 S202
S0
G1 X228.575 S106
S0
G1 X228.448 S69
S0
G1 X228.321 S85
S0
G1 X228.194 S134
S0
G1 X228.067 S172
S0
G1 X227.940 S207
S0
G1 X227.813 S169
S0
G1 X227.686 S171
S0
G1 X227.559 S238
S0
G1 X227.432 S270
S0
G1 X227.305 S246
S0
G1 X227.178 S192
S0
G1 X227.051 S85
S0
G1 X226.924 S78
S0
G1 X226.797 S108
S0
G1 X226.670 S106
S0
G1 X226.543 S96
S0
G1 X226.416 S74
S0
G1 X226.289 S50
S0
G1 X226.162 S43
S0
G1 X226.035 S47
S0
G1 X225.781 S46
S0
G1 X225.527 S39
S0
G1 X225.273 S47
S0
G1 X225.146 S50
S0
G1 X225.019 S44
S0
G1 X224.892 S41
S0
G1 X224.765 S40
S0
G1 X224.638 S49
S0
G1 X224.511 S43
S0
G1 X224.384 S46
S0
G1 X224.257 S47
S0
G1 X224.130 S46
S0
G1 X224.003 S43
S0
G1 X223.876 S55
S0
G1 X223.622 S58
S0
G1 X223.495 S51
S0
G1 X223.368 S48
S0
G1 X223.241 S28
S0
G1 X223.114 S20
S0
G1 X222.987 S43
S0
G1 X222.860 S99
S0
G1 X222.733 S122
S0
G1 X222.606 S23
S0
G1 X222.479 S5
S0
G1 X222.352 S101
S0
G1 X222.225 S285
S0
G1 X222.098 S310
S0
G1 X221.971 S277
S0
G1 X221.844 S167
S0
G1 X221.717 S242
S0
G1 X221.590 S363
S0
G1 X221.463 S264
S0
G1 X221.336 S163
S0
G1 X221.209 S156
S0
G1 X221.082 S152
S0
G1 X220.955 S163
S0
G1 X220.828 S167
S0
G1 X220.701 S142
S0
G1 X220.574 S399
S0
G1 X220.447 S442
S0
G1 X220.320 S347
S0
G1 X220.193 S382
S0
G1 X220.066 S247
S0
G1 X219.939 S324
S0
G1 X219.812 S336
S0
G1 X219.685 S341
S0
G1 X219.558 S339
S0
G1 X219.431 S332
S0
G1 X219.304 S361
S0
G1 X219.177 S513
S0
G1 X219.050 S423
S0
G1 X218.923 S278
S0
G1 X218.796 S439
S0
G1 X218.669 S418
S0
G1 X218.542 S363
S0
G1 X218.415 S481
S0
G1 X218.288 S373
S0
G1 X218.161 S333
S0
G1 X218.034 S344
S0
G1 X217.907 S348
S0
G1 X217.780 S337
S0
G1 X217.653 S353
S0
G1 X217.399 S341
S0
G1 X217.272 S340
S0
G1 X217.145 S331
S0
G1 X217.018 S336
S0
G1 X216.891 S306
S0
G1 X216.764 S349
S0
G1 X216.637 S498
S0
G1 X216.510 S298
S0
G1 X216.383 S135
S0
G1 X216.256 S192
S0
G1 X216.129 S172
S0
G1 X216.002 S168
S0
G1 X215.875 S103
S0
G1 X215.748 S126
S0
G1 X215.621 S168
S0
G1 X215.494 S159
S0
G1 X215.367 S153
S0
G1 X215.240 S165
S0
G1 X215.113 S144
S0
G1 X214.986 S184
S0
G1 X214.859 S497
S0
G1 X214.732 S313
S0
G1 X214.605 S178
S0
G1 X214.478 S214
S0
G1 X214.351 S174
S0
G1 X214.224 S126
S0
G1 X214.097 S78
S0
G1 X213.970 S36
S0
G1 X213.843 S38
S0
G1 X213.716 S39
S0
G1 X213.589 S42
S0
G1 X213.462 S44
S0
G1 X213.335 S40
S0
G1 X213.208 S35
S0
G1 X213.081 S36
S0
G1 X212.954 S40
S0
G1 X212.827 S49
S0
G1 X212.700 S70
S0
G1 X212.573 S113
S0
G1 X212.446 S171
S0
G1 X212.319 S235
S0
G1 X212.192 S263
S0
G1 X212.065 S230
S0
G1 X211.938 S140
S0
G1 X211.811 S13
S0
G1 X211.684 S20
S0
G1 X211.557 S14
S0
G1 X211.430 S24
S0
G1 X211.303 S14
S0
G1 X211.176 S69
S0
G1 X211.049 S199
S0
G1 X210.922 S272
S0
G1 X210.795 S188
S0
G1 X210.668 S9
S0
G1 X210.541 S7
S0
G1 X210.414 S36
S0
G1 X210.287 S29
S0
G1 X210.160 S17
S0
G1 X210.033 S24
S0
G1 X209.906 S17
S0
G1 X209.779 S21
S0
G1 X209.652 S23
S0
G1 X209.525 S19
S0
G1 X200.000 S20
S0
G0 Y32.512
G0 X200.000 S0
G1 X209.271 S20
S0
G1 X209.525 S21
S0
G1 X209.779 S20
S0
G1 X209.906 S21
S0
G1 X210.033 S23
S0
G1 X210.160 S20
S0
G1 X210.287 S24
S0
G1 X210.414 S19
S0
G1 X210.541 S23
S0
G1 X210.668 S34
S0
G1 X210.795 S22
S0
G1 X210.922 S1
S0
G1 X211.049 S54
S0
G1 X211.176 S203
S0
G1 X211.303 S300
S0
G1 X211.430 S232
S0
G1 X211.557 S90
S0
G1 X211.684 S63
S0
G1 X211.811 S168
S0
G1 X211.938 S301
S0
G1 X212.065 S269
S0
G1 X212.192 S143
S0
G1 X212.319 S59
S0
G1 X212.446 S14
S0
G1 X212.573 S13
S0
G1 X212.700 S16
S0
G1 X212.827 S24
S0
G1 X212.954 S39
S0
G1 X213.081 S23
S0
G1 X213.208 S28
S0
G1 X213.335 S32
S0
G1 X213.589 S35
S0
G1 X213.716 S40
S0
G1 X213.843 S43
S0
G1 X213.970 S51
S0
G1 X214.097 S46
S0
G1 X214.224 S20
S0
G1 X214.351 S15
S0
G1 X214.478 S31
S0
G1 X214.605 S89
S0
G1 X214.732 S116
S0
G1 X214.859 S248
S0
G1 X214.986 S346
S0
G1 X215.113 S149
S0
G1 X215.240 S155
S0
G1 X215.367 S164
S0
G1 X215.494 S160
S0
G1 X215.621 S163
S0
G1 X215.748 S169
S0
G1 X215.875 S51
S0
G1 X216.002 S11
S0
G1 X216.129 S113
S0
G1 X216.256 S294
S0
G1 X216.383 S359
S0
G1 X216.510 S176
S0
G1 X216.637 S175
S0
G1 X216.764 S230
S0
G1 X216.891 S269
S0
G1 X217.018 S313
S0
G1 X217.145 S323
S0
G1 X217.272 S329
S0
G1 X217.399 S336
S0
G1 X217.526 S346
S0
G1 X217.653 S345
S0
G1 X217.780 S341
S0
G1 X217.907 S349
S0
G1 X218.034 S332
S0
G1 X218.161 S333
S0
G1 X218.288 S314
S0
G1 X218.415 S458
S0
G1 X218.542 S634
S0
G1 X218.669 S493
S0
G1 X218.796 S545
S0
G1 X218.923 S407
S0
G1 X219.050 S442
S0
G1 X219.177 S366
S0
G1 X219.304 S305
S0
G1 X219.431 S340
S0
G1 X219.558 S351
S0
G1 X219.939 S340
S0
G1 X220.066 S317
S0
G1 X220.193 S329
S0
G1 X220.320 S441
S0
G1 X220.447 S247
S0
G1 X220.574 S366
S0
G1 X220.701 S427
S0
G1 X220.828 S212
S0
G1 X220.955 S160
S0
G1 X221.082 S183
S0
G1 X221.209 S170
S0
G1 X221.336 S176
S0
G1 X221.463 S174
S0
G1 X221.590 S128
S0
G1 X221.717 S177
S0
G1 X221.844 S304
S0
G1 X221.971 S332
S0
G1 X222.098 S212
S0
G1 X222.225 S68
S0
G1 X222.352 S7
S0
G1 X222.479 S5
S0
G1 X222.606 S55
S0
G1 X222.733 S301
S0
G1 X222.860 S250
S0
G1 X222.987 S165
S0
G1 X223.114 S277
S0
G1 X223.241 S253
S0
G1 X223.368 S136
S0
G1 X223.495 S51
S0
G1 X223.622 S29
S0
G1 X223.749 S31
S0
G1 X223.876 S55
S0
G1 X224.003 S46
S0
G1 X224.130 S42
S0
G1 X224.257 S43
S0
G1 X224.384 S47
S0
G1 X224.511 S42
S0
G1 X224.638 S51
S0
G1 X224.765 S43
S0
G1 X224.892 S47
S0
G1 X225.019 S51
S0
G1 X225.146 S43
S0
G1 X225.400 S47
S0
G1 X225.527 S46
S0
G1 X225.654 S42
S0
G1 X225.908 S43
S0
G1 X226.035 S42
S0
G1 X226.289 S47
S0
G1 X226.416 S44
S0
G1 X226.543 S47
S0
G1 X226.670 S82
S0
G1 X226.797 S98
S0
G1 X226.924 S72
S0
G1 X227.051 S148
S0
G1 X227.178 S337
S0
G1 X227.305 S373
S0
G1 X227.432 S285
S0
G1 X227.559 S148
S0
G1 X227.686 S83
S0
G1 X227.813 S79
S0
G1 X227.940 S93
S0
G1 X228.067 S180
S0
G1 X228.194 S281
S0
G1 X228.321 S270
S0
G1 X228.448 S176
S0
G1 X228.575 S96
S0
G1 X228.702 S69
S0
G1 X228.829 S66
S0
G1 X228.956 S100
S0
G1 X229.083 S216
S0
G1 X229.210 S371
S0
G1 X229.337 S344
S0
G1 X229.464 S112
S0
G1 X229.591 S2
S0
G1 X229.718 S3
S0
G1 X229.845 S19
S0
G1 X229.972 S54
S0
G1 X230.099 S239
S0
G1 X230.226 S185
S0
G1 X230.353 S78
S0
G1 X230.480 S75
S0
G1 X230.607 S76
S0
G1 X230.734 S97
S0
G1 X230.861 S144
S0
G1 X230.988 S191
S0
G1 X231.115 S297
S0
G1 X231.242 S298
S0
G1 X231.369 S156
S0
G1 X231.496 S20
S0
G1 X231.623 S2
S0
G1 X231.750 S22
S0
G1 X231.877 S12
S0
G1 X232.004 S239
S0
G1 X232.131 S238
S0
G1 X232.258 S148
S0
G1 X232.385 S180
S0
G1 X232.512 S154
S0
G1 X232.639 S144
S0
G1 X232.766 S135
S0
G1 X232.893 S148
S0
G1 X233.020 S84
S0
G1 X233.147 S271
S0
G1 X233.274 S375
S0
G1 X233.401 S60
S0
G1 X233.528 S77
S0
G1 X233.782 S74
S0
G1 X234.036 S73
S0
G1 X234.290 S74
S0
G1 X234.417 S78
S0
G1 X234.544 S72
S0
G1 X234.671 S75
S0
G1 X234.798 S71
S0
G1 X234.925 S81
S0
G1 X235.052 S68
S0
G1 X235.179 S66
S0
G1 X235.306 S144
S0
G1 X235.433 S300
S0
G1 X235.560 S202
S0
G1 X235.687 S192
S0
G1 X235.814 S59
S0
G1 X235.941 S69
S0
G1 X236.068 S71
S0
G1 X236.195 S72
S0
G1 X236.322 S70
S0
G1 X236.449 S57
S0
G1 X236.576 S51
S0
G1 X236.703 S55
S0
G1 X236.830 S31
S0
G1 X236.957 S152
S0
G1 X237.084 S138
S0
G1 X237.211 S137
S0
G1 X237.338 S230
S0
G1 X237.465 S289
S0
G1 X237.592 S146
S0
G1 X237.719 S25
S0
G1 X237.846 S43
S0
G1 X238.100 S50
S0
G1 X238.227 S46
S0
G1 X238.354 S55
S0
G1 X238.481 S70
S0
G1 X238.608 S54
S0
G1 X238.735 S30
S0
G1 X238.862 S171
S0
G1 X238.989 S121
S0
G0 X239.116 S0
G1 X239.243 S27
S0
G1 X239.370 S17
S0
G1 X239.497 S20
S0
G1 X239.624 S16
S0
G1 X239.751 S20
S0
G1 X240.005 S23
S0
G1 X240.132 S21
S0
G1 X240.259 S15
S0
G1 X240.386 S20
S0
G1 X241.021 S21
S0
G1 X250.038 S20
S0
G0 Y32.385
G0 X250.038 S0
G1 X241.275 S20
S0
G1 X241.148 S21
S0
G1 X241.021 S19
S0
G1 X240.640 S21
S0
G1 X240.386 S20
S0
G1 X240.259 S19
S0
G1 X240.132 S16
S0
G1 X240.005 S21
S0
G1 X239.751 S22
S0
G1 X239.624 S15
S0
G1 X239.497 S16
S0
G1 X239.370 S20
S0
G1 X239.243 S21
S0
G1 X239.116 S23
S0
G0 X238.989 S0
G1 X238.862 S126
S0
G1 X238.735 S169
S0
G1 X238.608 S33
S0
G1 X238.481 S51
S0
G1 X238.354 S54
S0
G1 X238.227 S49
S0
G1 X238.100 S44
S0
G1 X237.846 S45
S0
G1 X237.719 S43
S0
G1 X237.592 S48
S0
G1 X237.465 S29
S0
G1 X237.338 S119
S0
G1 X237.211 S232
S0
G1 X237.084 S219
S0
G1 X236.957 S223
S0
G1 X236.830 S144
S0
G1 X236.703 S19
S0
G1 X236.576 S53
S0
G1 X236.449 S58
S0
G1 X236.322 S57
S0
G1 X236.195 S73
S0
G1 X236.068 S77
S0
G1 X235.941 S70
S0
G1 X235.814 S76
S0
G1 X235.687 S49
S0
G1 X235.560 S145
S0
G1 X235.433 S360
S0
G1 X235.306 S282
S0
G1 X235.179 S67
S0
G1 X235.052 S81
S0
G1 X234.671 S74
S0
G1 X234.544 S71
S0
G1 X234.417 S80
S0
G1 X234.290 S74
S0
G1 X234.163 S63
S0
G1 X234.036 S77
S0
G1 X233.909 S76
S0
G1 X233.782 S77
S0
G1 X233.655 S70
S0
G1 X233.528 S69
S0
G1 X233.401 S78
S0
G1 X233.274 S54
S0
G1 X233.147 S245
S0
G1 X233.020 S297
S0
G1 X232.893 S128
S0
G1 X232.766 S148
S0
G1 X232.639 S160
S0
G1 X232.512 S158
S0
G1 X232.385 S170
S0
G1 X232.258 S176
S0
G1 X232.131 S151
S0
G1 X232.004 S253
S0
G1 X231.877 S231
S0
G1 X231.750 S2
S0
G1 X231.623 S7
S0
G1 X231.496 S140
S0
G1 X231.369 S305
S0
G1 X231.242 S308
S0
G1 X231.115 S233
S0
G1 X230.988 S132
S0
G1 X230.861 S70
S0
G1 X230.734 S64
S0
G1 X230.607 S66
S0
G1 X230.480 S82
S0
G1 X230.353 S81
S0
G1 X230.226 S71
S0
G1 X230.099 S60
S0
G1 X229.972 S274
S0
G1 X229.845 S99
S0
G1 X229.718 S3
S0
G1 X229.591 S98
S0
G1 X229.464 S342
S0
G1 X229.337 S369
S0
G1 X229.210 S254
S0
G1 X229.083 S97
S0
G1 X228.956 S71
S0
G1 X228.829 S102
S0
G1 X228.702 S89
S0
G1 X228.575 S95
S0
G1 X228.448 S216
S0
G1 X228.321 S339
S0
G1 X228.194 S269
S0
G1 X228.067 S148
S0
G1 X227.940 S79
S0
G1 X227.813 S92
S0
G1 X227.686 S100
S0
G1 X227.559 S104
S0
G1 X227.432 S88
S0
G1 X227.305 S91
S0
G1 X227.178 S175
S0
G1 X227.051 S266
S0
G1 X226.924 S338
S0
G1 X226.797 S250
S0
G1 X226.670 S87
S0
G1 X226.543 S55
S0
G1 X226.416 S46
S0
G1 X226.289 S47
S0
G1 X226.035 S42
S0
G1 X225.908 S45
S0
G1 X225.781 S47
S0
G1 X225.654 S43
S0
G1 X225.527 S47
S0
G1 X225.400 S46
S0
G1 X225.273 S41
S0
G1 X225.146 S46
S0
G1 X225.019 S47
S0
G1 X224.892 S42
S0
G1 X224.765 S46
S0
G1 X224.638 S42
S0
G1 X224.257 S46
S0
G1 X224.130 S45
S0
G1 X224.003 S54
S0
G1 X223.876 S47
S0
G1 X223.749 S27
S0
G1 X223.622 S78
S0
G1 X223.495 S207
S0
G1 X223.368 S275
S0
G1 X223.241 S250
S0
G1 X223.114 S190
S0
G1 X222.987 S113
S0
G1 X222.860 S50
S0
G1 X222.733 S53
S0
G1 X222.606 S249
S0
G1 X222.479 S341
S0
G1 X222.352 S137
S0
G1 X222.098 S9
S0
G1 X221.971 S8
S0
G1 X221.844 S105
S0
G1 X221.717 S231
S0
G1 X221.590 S304
S0
G1 X221.463 S245
S0
G1 X221.336 S155
S0
G1 X221.209 S170
S0
G1 X221.082 S182
S0
G1 X220.955 S171
S0
G1 X220.828 S132
S0
G1 X220.701 S329
S0
G1 X220.574 S360
S0
G1 X220.447 S300
S0
G1 X220.320 S237
S0
G1 X220.193 S396
S0
G1 X220.066 S349
S0
G1 X219.939 S290
S0
G1 X219.812 S343
S0
G1 X219.685 S344
S0
G1 X219.558 S335
S0
G1 X219.431 S341
S0
G1 X219.304 S339
S0
G1 X219.177 S332
S0
G1 X219.050 S406
S0
G1 X218.923 S548
S0
G1 X218.796 S360
S0
G1 X218.669 S410
S0
G1 X218.542 S377
S0
G1 X218.415 S403
S0
G1 X218.288 S391
S0
G1 X218.161 S316
S0
G1 X218.034 S356
S0
G1 X217.907 S352
S0
G1 X217.780 S341
S0
G1 X217.653 S339
S0
G1 X217.526 S332
S0
G1 X217.399 S341
S0
G1 X217.272 S320
S0
G1 X217.145 S312
S0
G1 X217.018 S296
S0
G1 X216.764 S285
S0
G1 X216.637 S277
S0
G1 X216.510 S266
S0
G1 X216.383 S224
S0
G1 X216.256 S374
S0
G1 X216.129 S246
S0
G1 X216.002 S44
S0
G1 X215.875 S7
S0
G1 X215.748 S74
S0
G1 X215.621 S173
S0
G1 X215.494 S163
S0
G1 X215.367 S168
S0
G1 X215.240 S156
S0
G1 X215.113 S167
S0
G1 X214.986 S139
S0
G1 X214.859 S352
S0
G1 X214.732 S334
S0
G1 X214.605 S156
S0
G1 X214.478 S188
S0
G1 X214.351 S213
S0
G1 X214.224 S172
S0
G1 X214.097 S78
S0
G1 X213.970 S77
S0
G1 X213.843 S73
S0
G1 X213.716 S82
S0
G1 X213.589 S77
S0
G1 X213.462 S68
S0
G1 X213.335 S59
S0
G1 X213.208 S54
S0
G1 X213.081 S53
S0
G1 X212.954 S59
S0
G1 X212.827 S55
S0
G1 X212.700 S66
S0
G1 X212.573 S65
S0
G1 X212.446 S62
S0
G1 X212.319 S58
S0
G1 X212.192 S35
S0
G1 X212.065 S13
S0
G1 X211.938 S39
S0
G1 X211.811 S240
S0
G1 X211.684 S375
S0
G1 X211.557 S384
S0
G1 X211.430 S309
S0
G1 X211.303 S164
S0
G1 X211.176 S58
S0
G1 X211.049 S3
S0
G1 X210.922 S12
S0
G1 X210.795 S32
S0
G1 X210.668 S22
S0
G1 X210.541 S17
S0
G1 X210.414 S20
S0
G1 X210.287 S23
S0
G1 X210.160 S24
S0
G1 X210.033 S16
S0
G1 X209.906 S21
S0
G1 X209.525 S20
S0
G1 X209.398 S24
S0
G1 X200.000 S20
S0
G0 Y32.258
G0 X200.000 S0
G1 X210.033 S20
S0
G1 X210.160 S24
S0
G1 X210.414 S20
S0
G1 X210.541 S23
S0
G1 X210.795 S24
S0
G1 X210.922 S36
S0
G1 X211.049 S26
S0
G1 X211.176 S11
S0
G1 X211.303 S9
S0
G1 X211.430 S167
S0
G1 X211.557 S238
S0
G1 X211.684 S148
S0
G1 X211.811 S47
S0
G1 X211.938 S20
S0
G1 X212.065 S51
S0
G1 X212.192 S83
S0
G1 X212.319 S78
S0
G1 X212.573 S82
S0
G1 X212.700 S78
S0
G1 X212.827 S77
S0
G1 X212.954 S81
S0
G1 X213.081 S76
S0
G1 X213.208 S69
S0
G1 X213.335 S82
S0
G1 X213.462 S77
S0
G1 X213.589 S81
S0
G1 X213.716 S73
S0
G1 X213.843 S76
S0
G1 X213.970 S78
S0
G1 X214.097 S66
S0
G1 X214.224 S95
S0
G1 X214.351 S156
S0
G1 X214.478 S108
S0
G1 X214.605 S38
S0
G1 X214.732 S25
S0
G1 X214.859 S254
S0
G1 X214.986 S364
S0
G1 X215.113 S147
S0
G1 X215.240 S161
S0
G1 X215.621 S156
S0
G1 X215.748 S171
S0
G1 X215.875 S149
S0
G1 X216.002 S57
S0
G1 X216.129 S36
S0
G1 X216.256 S70
S0
G1 X216.383 S148
S0
G1 X216.510 S204
S0
G1 X216.637 S474
S0
G1 X216.764 S485
S0
G1 X216.891 S285
S0
G1 X217.018 S259
S0
G1 X217.145 S277
S0
G1 X217.272 S274
S0
G1 X217.399 S293
S0
G1 X217.526 S318
S0
G1 X217.653 S332
S0
G1 X217.780 S324
S0
G1 X217.907 S329
S0
G1 X218.034 S407
S0
G1 X218.161 S498
S0
G1 X218.288 S441
S0
G1 X218.415 S333
S0
G1 X218.542 S318
S0
G1 X218.669 S320
S0
G1 X218.796 S314
S0
G1 X218.923 S349
S0
G1 X219.050 S378
S0
G1 X219.177 S336
S0
G1 X219.304 S254
S0
G1 X219.431 S340
S0
G1 X219.558 S348
S0
G1 X219.685 S341
S0
G1 X219.812 S345
S0
G1 X219.939 S317
S0
G1 X220.066 S304
S0
G1 X220.193 S497
S0
G1 X220.320 S424
S0
G1 X220.447 S454
S0
G1 X220.574 S367
S0
G1 X220.701 S213
S0
G1 X220.828 S426
S0
G1 X220.955 S187
S0
G1 X221.082 S154
S0
G1 X221.209 S163
S0
G1 X221.336 S207
S0
G1 X221.463 S305
S0
G1 X221.590 S257
S0
G1 X221.717 S101
S0
G1 X221.844 S6
S0
G1 X221.971 S11
S0
G1 X222.098 S20
S0
G1 X222.225 S22
S0
G1 X222.352 S192
S0
G1 X222.479 S318
S0
G1 X222.606 S114
S0
G1 X222.733 S13
S0
G1 X222.860 S43
S0
G1 X222.987 S44
S0
G1 X223.114 S31
S0
G1 X223.241 S20
S0
G1 X223.368 S47
S0
G1 X223.495 S121
S0
G1 X223.622 S233
S0
G1 X223.749 S317
S0
G1 X223.876 S177
S0
G1 X224.003 S57
S0
G1 X224.130 S39
S0
G1 X224.511 S46
S0
G1 X224.638 S42
S0
G1 X224.765 S47
S0
G1 X224.892 S42
S0
G1 X225.019 S46
S0
G1 X225.146 S47
S0
G1 X225.273 S43
S0
G1 X225.400 S47
S0
G1 X225.527 S46
S0
G1 X225.781 S50
S0
G1 X226.162 S47
S0
G1 X226.289 S44
S0
G1 X226.416 S50
S0
G1 X226.543 S52
S0
G1 X226.670 S46
S0
G1 X226.797 S85
S0
G1 X226.924 S213
S0
G1 X227.051 S128
S0
G1 X227.178 S73
S0
G1 X227.305 S79
S0
G1 X227.432 S97
S0
G1 X227.559 S98
S0
G1 X227.686 S102
S0
G1 X227.813 S107
S0
G1 X227.940 S106
S0
G1 X228.067 S96
S0
G1 X228.194 S78
S0
G1 X228.321 S94
S0
G1 X228.448 S230
S0
G1 X228.575 S419
S0
G1 X228.702 S313
S0
G1 X228.829 S96
S0
G1 X228.956 S85
S0
G1 X229.083 S110
S0
G1 X229.210 S122
S0
G1 X229.337 S64
S0
G1 X229.464 S94
S0
G1 X229.591 S313
S0
G1 X229.718 S541
S0
G1 X229.845 S286
S0
G1 X229.972 S5
S0
G1 X230.099 S175
S0
G1 X230.226 S114
S0
G1 X230.353 S62
S0
G1 X230.480 S61
S0
G1 X230.607 S78
S0
G1 X230.734 S88
S0
G1 X230.861 S116
S0
G1 X230.988 S144
S0
G1 X231.115 S137
S0
G1 X231.242 S117
S0
G1 X231.369 S141
S0
G1 X231.496 S235
S0
G1 X231.623 S383
S0
G1 X231.750 S258
S0
G1 X231.877 S3
S0
G1 X232.004 S173
S0
G1 X232.131 S286
S0
G1 X232.258 S153
S0
G1 X232.385 S172
S0
G1 X232.512 S178
S0
G1 X232.639 S179
S0
G1 X232.766 S167
S0
G1 X232.893 S155
S0
G1 X233.020 S159
S0
G1 X233.147 S348
S0
G1 X233.274 S172
S0
G1 X233.401 S89
S0
G1 X233.528 S90
S0
G1 X233.655 S73
S0
G1 X233.909 S74
S0
G1 X234.036 S73
S0
G1 X234.163 S81
S0
G1 X234.290 S93
S0
G1 X234.417 S68
S0
G1 X234.544 S72
S0
G1 X234.671 S73
S0
G1 X234.798 S77
S0
G1 X234.925 S74
S0
G1 X235.052 S82
S0
G1 X235.179 S72
S0
G1 X235.306 S66
S0
G1 X235.433 S125
S0
G1 X235.560 S434
S0
G1 X235.687 S164
S0
G1 X235.814 S46
S0
G1 X235.941 S76
S0
G1 X236.068 S71
S0
G1 X236.195 S77
S0
G1 X236.322 S76
S0
G1 X236.449 S61
S0
G1 X236.576 S66
S0
G1 X236.703 S54
S0
G1 X236.830 S25
S0
G1 X236.957 S196
S0
G1 X237.084 S329
S0
G1 X237.211 S266
S0
G1 X237.338 S97
S0
G1 X237.465 S26
S0
G1 X237.592 S39
S0
G1 X237.719 S55
S0
G1 X237.846 S41
S0
G1 X237.973 S42
S0
G1 X238.100 S43
S0
G1 X238.227 S42
S0
G1 X238.354 S44
S0
G1 X238.481 S48
S0
G1 X238.608 S39
S0
G1 X238.735 S20
S0
G1 X238.862 S175
S0
G1 X238.989 S141
S0
G1 X239.116 S7
S0
G1 X239.243 S19
S0
G1 X239.370 S24
S0
G1 X239.497 S16
S0
G1 X239.751 S19
S0
G1 X239.878 S24
S0
G1 X240.005 S21
S0
G1 X240.132 S24
S0
G1 X240.259 S19
S0
G1 X240.513 S21
S0
G1 X240.640 S15
S0
G1 X240.767 S20
S0
G1 X241.148 S21
S0
G1 X241.275 S19
S0
G1 X250.038 S20
S0
G0 Y32.131
G0 X250.038 S0
G1 X240.894 S20
S0
G1 X240.640 S21
S0
G1 X240.513 S16
S0
G1 X240.386 S21
S0
G1 X240.259 S20
S0
G1 X240.132 S24
S0
G1 X240.005 S23
S0
G1 X239.878 S17
S0
G1 X239.751 S19
S0
G1 X239.624 S20
S0
G1 X239.497 S13
S0
G1 X239.370 S23
S0
G1 X239.243 S24
S0
G1 X239.116 S20
S0
G1 X238.989 S12
S0
G1 X238.862 S160
S0
G1 X238.735 S176
S0
G1 X238.608 S18
S0
G1 X238.481 S39
S0
G1 X238.354 S46
S0
G1 X238.100 S42
S0
G1 X237.846 S43
S0
G1 X237.592 S51
S0
G1 X237.465 S47
S0
G1 X237.338 S34
S0
G1 X237.211 S17
S0
G1 X237.084 S110
S0
G1 X236.957 S364
S0
G1 X236.830 S351
S0
G1 X236.703 S70
S0
G1 X236.576 S46
S0
G1 X236.449 S62
S0
G1 X236.322 S70
S0
G1 X236.195 S80
S0
G1 X236.068 S73
S0
G1 X235.814 S78
S0
G1 X235.687 S41
S0
G1 X235.560 S202
S0
G1 X235.433 S325
S0
G1 X235.306 S54
S0
G1 X235.179 S75
S0
G1 X235.052 S72
S0
G1 X234.925 S78
S0
G1 X234.798 S69
S0
G1 X234.544 S74
S0
G1 X234.417 S67
S0
G1 X234.290 S117
S0
G1 X234.163 S171
S0
G1 X234.036 S73
S0
G1 X233.782 S74
S0
G1 X233.655 S70
S0
G1 X233.528 S77
S0
G1 X233.401 S125
S0
G1 X233.147 S132
S0
G1 X233.020 S337
S0
G1 X232.893 S225
S0
G1 X232.766 S152
S0
G1 X232.639 S175
S0
G1 X232.512 S173
S0
G1 X232.385 S167
S0
G1 X232.258 S179
S0
G1 X232.131 S167
S0
G1 X232.004 S267
S0
G1 X231.877 S152
S0
G1 X231.750 S256
S0
G1 X231.623 S367
S0
G1 X231.496 S194
S0
G1 X231.369 S145
S0
G1 X231.242 S143
S0
G1 X231.115 S152
S0
G1 X230.988 S150
S0
G1 X230.861 S151
S0
G1 X230.734 S140
S0
G1 X230.607 S93
S0
G1 X230.480 S86
S0
G1 X230.353 S78
S0
G1 X230.226 S50
S0
G1 X230.099 S104
S0
G1 X229.972 S254
S0
G1 X229.845 S413
S0
G1 X229.718 S473
S0
G1 X229.591 S179
S0
G1 X229.464 S72
S0
G1 X229.337 S95
S0
G1 X229.210 S122
S0
G1 X229.083 S109
S0
G1 X228.956 S85
S0
G1 X228.829 S98
S0
G1 X228.702 S340
S0
G1 X228.575 S465
S0
G1 X228.448 S207
S0
G1 X228.321 S71
S0
G1 X228.194 S91
S0
G1 X228.067 S104
S0
G1 X227.940 S102
S0
G1 X227.813 S103
S0
G1 X227.686 S102
S0
G1 X227.432 S97
S0
G1 X227.305 S83
S0
G1 X227.178 S62
S0
G1 X227.051 S55
S0
G1 X226.924 S29
S0
G1 X226.797 S21
S0
G1 X226.670 S45
S0
G1 X226.543 S50
S0
G1 X226.416 S47
S0
G1 X226.289 S50
S0
G1 X226.035 S46
S0
G1 X225.908 S47
S0
G1 X225.781 S42
S0
G1 X225.400 S47
S0
G1 X225.273 S46
S0
G1 X225.146 S47
S0
G1 X225.019 S46
S0
G1 X224.892 S42
S0
G1 X224.765 S46
S0
G1 X224.638 S43
S0
G1 X224.384 S47
S0
G1 X224.257 S43
S0
G1 X224.130 S47
S0
G1 X224.003 S34
S0
G1 X223.876 S87
S0
G1 X223.749 S210
S0
G1 X223.622 S121
S0
G1 X223.495 S25
S0
G1 X223.368 S42
S0
G1 X223.241 S48
S0
G1 X223.114 S46
S0
G1 X222.987 S47
S0
G1 X222.860 S52
S0
G1 X222.733 S45
S0
G1 X222.606 S32
S0
G1 X222.479 S3
S0
G1 X222.352 S35
S0
G1 X222.225 S196
S0
G1 X222.098 S210
S0
G1 X221.971 S75
S0
G1 X221.844 S17
S0
G1 X221.717 S20
S0
G1 X221.590 S5
S0
G1 X221.463 S30
S0
G1 X221.336 S168
S0
G1 X221.209 S282
S0
G1 X221.082 S259
S0
G1 X220.955 S173
S0
G1 X220.828 S391
S0
G1 X220.701 S327
S0
G1 X220.574 S131
S0
G1 X220.447 S536
S0
G1 X220.320 S414
S0
G1 X220.193 S136
S0
G1 X220.066 S447
S0
G1 X219.939 S517
S0
G1 X219.812 S316
S0
G1 X219.685 S332
S0
G1 X219.558 S337
S0
G1 X219.431 S352
S0
G1 X219.304 S357
S0
G1 X219.177 S242
S0
G1 X219.050 S184
S0
G1 X218.923 S300
S0
G1 X218.796 S341
S0
G1 X218.669 S371
S0
G1 X218.542 S360
S0
G1 X218.415 S336
S0
G1 X218.288 S327
S0
G1 X218.161 S462
S0
G1 X218.034 S490
S0
G1 X217.907 S395
S0
G1 X217.780 S453
S0
G1 X217.653 S404
S0
G1 X217.526 S361
S0
G1 X217.399 S296
S0
G1 X217.272 S373
S0
G1 X217.145 S379
S0
G1 X217.018 S326
S0
G1 X216.891 S305
S0
G1 X216.764 S277
S0
G1 X216.637 S344
S0
G1 X216.510 S300
S0
G1 X216.383 S151
S0
G1 X216.256 S128
S0
G1 X216.129 S118
S0
G1 X216.002 S137
S0
G1 X215.875 S151
S0
G1 X215.748 S171
S0
G1 X215.621 S160
S0
G1 X215.494 S163
S0
G1 X215.367 S155
S0
G1 X215.240 S163
S0
G1 X215.113 S155
S0
G1 X214.986 S160
S0
G1 X214.859 S451
S0
G1 X214.732 S405
S0
G1 X214.605 S222
S0
G1 X214.478 S129
S0
G1 X214.351 S37
S0
G1 X214.224 S68
S0
G1 X214.097 S79
S0
G1 X213.970 S70
S0
G1 X213.843 S82
S0
G1 X213.589 S72
S0
G1 X213.081 S73
S0
G1 X212.954 S74
S0
G1 X212.700 S77
S0
G1 X212.573 S72
S0
G1 X212.319 S74
S0
G1 X212.065 S82
S0
G1 X211.938 S84
S0
G1 X211.811 S70
S0
G1 X211.684 S32
S0
G1 X211.557 S12
S0
G1 X211.430 S42
S0
G1 X211.303 S208
S0
G1 X211.176 S227
S0
G1 X211.049 S75
S0
G1 X210.922 S11
S0
G1 X210.795 S16
S0
G1 X210.668 S30
S0
G1 X210.541 S29
S0
G1 X210.414 S23
S0
G1 X210.287 S19
S0
G1 X210.160 S20
S0
G1 X210.033 S23
S0
G1 X200.000 S20
S0
G0 Y32.004
G0 X200.000 S0
G1 X209.144 S20
S0
G1 X209.271 S19
S0
G1 X209.906 S20
S0
G1 X210.033 S21
S0
G1 X210.287 S20
S0
G1 X210.414 S24
S0
G1 X210.541 S28
S0
G1 X210.668 S31
S0
G1 X210.795 S16
S0
G1 X210.922 S7
S0
G1 X211.049 S141
S0
G1 X211.176 S259
S0
G1 X211.303 S129
S0
G1 X211.430 S7
S0
G1 X211.557 S23
S0
G1 X211.684 S46
S0
G1 X211.811 S75
S0
G1 X211.938 S76
S0
G1 X212.065 S78
S0
G1 X212.192 S74
S0
G1 X212.319 S69
S0
G1 X212.446 S78
S0
G1 X212.573 S73
S0
G1 X212.700 S74
S0
G1 X212.827 S75
S0
G1 X212.954 S78
S0
G1 X213.081 S73
S0
G1 X213.208 S78
S0
G1 X213.335 S80
S0
G1 X213.462 S76
S0
G1 X213.589 S79
S0
G1 X213.716 S78
S0
G1 X213.843 S90
S0
G1 X213.970 S83
S0
G1 X214.097 S85
S0
G1 X214.224 S65
S0
G1 X214.351 S31
S0
G1 X214.478 S171
S0
G1 X214.605 S429
S0
G1 X214.732 S482
S0
G1 X214.859 S317
S0
G1 X214.986 S411
S0
G1 X215.113 S403
S0
G1 X215.240 S139
S0
G1 X215.367 S152
S0
G1 X215.494 S155
S0
G1 X215.621 S156
S0
G1 X215.748 S167
S0
G1 X215.875 S156
S0
G1 X216.002 S163
S0
G1 X216.129 S175
S0
G1 X216.256 S164
S0
G1 X216.510 S168
S0
G1 X216.637 S191
S0
G1 X216.764 S160
S0
G1 X216.891 S417
S0
G1 X217.018 S515
S0
G1 X217.145 S352
S0
G1 X217.272 S459
S0
G1 X217.399 S423
S0
G1 X217.526 S250
S0
G1 X217.653 S324
S0
G1 X217.780 S529
S0
G1 X217.907 S453
S0
G1 X218.034 S258
S0
G1 X218.161 S306
S0
G1 X218.288 S325
S0
G1 X218.415 S348
S0
G1 X218.542 S344
S0
G1 X218.669 S322
S0
G1 X218.796 S231
S0
G1 X218.923 S102
S0
G1 X219.050 S18
S0
G1 X219.177 S197
S0
G1 X219.304 S376
S0
G1 X219.431 S348
S0
G1 X219.558 S336
S0
G1 X219.685 S341
S0
G1 X219.812 S312
S0
G1 X219.939 S469
S0
G1 X220.066 S492
S0
G1 X220.193 S187
S0
G1 X220.320 S101
S0
G1 X220.447 S187
S0
G1 X220.574 S577
S0
G1 X220.701 S273
S0
G1 X220.828 S104
S0
G1 X220.955 S438
S0
G1 X221.082 S442
S0
G1 X221.209 S194
S0
G1 X221.336 S42
S0
G1 X221.463 S4
S0
G1 X221.717 S24
S0
G1 X221.844 S17
S0
G1 X221.971 S122
S0
G1 X222.098 S247
S0
G1 X222.225 S122
S0
G1 X222.352 S12
S0
G1 X222.479 S19
S0
G1 X222.606 S31
S0
G1 X222.733 S38
S0
G1 X222.860 S44
S0
G1 X223.114 S50
S0
G1 X223.241 S46
S0
G1 X223.368 S51
S0
G1 X223.495 S43
S0
G1 X223.622 S50
S0
G1 X223.749 S23
S0
G1 X223.876 S20
S0
G1 X224.003 S46
S0
G1 X224.130 S51
S0
G1 X224.257 S43
S0
G1 X224.384 S47
S0
G1 X225.400 S46
S0
G1 X225.654 S42
S0
G1 X225.781 S44
S0
G1 X225.908 S47
S0
G1 X226.035 S46
S0
G1 X226.162 S47
S0
G1 X226.289 S46
S0
G1 X226.416 S51
S0
G1 X226.670 S43
S0
G1 X226.797 S38
S0
G1 X226.924 S47
S0
G1 X227.051 S51
S0
G1 X227.178 S48
S0
G1 X227.305 S63
S0
G1 X227.432 S97
S0
G1 X227.559 S102
S0
G1 X227.686 S94
S0
G1 X227.813 S103
S0
G1 X227.940 S97
S0
G1 X228.067 S102
S0
G1 X228.194 S106
S0
G1 X228.321 S102
S0
G1 X228.448 S90
S0
G1 X228.575 S65
S0
G1 X228.702 S128
S0
G1 X228.829 S435
S0
G1 X228.956 S379
S0
G1 X229.083 S111
S0
G1 X229.210 S86
S0
G1 X229.337 S128
S0
G1 X229.464 S121
S0
G1 X229.591 S110
S0
G1 X229.718 S73
S0
G1 X229.845 S64
S0
G1 X229.972 S349
S0
G1 X230.099 S584
S0
G1 X230.226 S322
S0
G1 X230.353 S36
S0
G1 X230.480 S50
S0
G1 X230.607 S73
S0
G1 X230.734 S89
S0
G1 X230.861 S141
S0
G1 X231.115 S156
S0
G1 X231.242 S162
S0
G1 X231.369 S172
S0
G1 X231.496 S170
S0
G1 X231.623 S173
S0
G1 X231.750 S156
S0
G1 X231.877 S313
S0
G1 X232.004 S430
S0
G1 X232.131 S356
S0
G1 X232.258 S154
S0
G1 X232.385 S179
S0
G1 X232.512 S180
S0
G1 X232.639 S167
S0
G1 X232.766 S183
S0
G1 X232.893 S148
S0
G1 X233.020 S288
S0
G1 X233.147 S324
S0
G1 X233.274 S129
S0
G1 X233.401 S151
S0
G1 X233.528 S141
S0
G1 X233.655 S97
S0
G1 X233.782 S68
S0
G1 X233.909 S78
S0
G1 X234.036 S74
S0
G1 X234.163 S59
S0
G1 X234.290 S148
S0
G1 X234.417 S210
S0
G1 X234.544 S55
S0
G1 X234.671 S76
S0
G1 X234.925 S74
S0
G1 X235.052 S70
S0
G1 X235.179 S82
S0
G1 X235.306 S70
S0
G1 X235.433 S38
S0
G1 X235.560 S187
S0
G1 X235.687 S274
S0
G1 X235.814 S55
S0
G1 X235.941 S77
S0
G1 X236.068 S70
S0
G1 X236.195 S74
S0
G1 X236.322 S76
S0
G1 X236.449 S69
S0
G1 X236.576 S65
S0
G1 X236.703 S32
S0
G1 X236.830 S218
S0
G1 X236.957 S371
S0
G1 X237.084 S75
S0
G1 X237.211 S17
S0
G1 X237.338 S42
S0
G1 X237.465 S51
S0
G1 X237.592 S55
S0
G1 X237.846 S50
S0
G1 X237.973 S46
S0
G1 X238.100 S48
S0
G1 X238.227 S42
S0
G1 X238.354 S43
S0
G1 X238.481 S46
S0
G1 X238.608 S39
S0
G1 X238.735 S18
S0
G1 X238.862 S172
S0
G1 X238.989 S165
S0
G1 X239.116 S8
S0
G1 X239.243 S29
S0
G1 X239.370 S19
S0
G1 X239.497 S27
S0
G1 X239.624 S24
S0
G1 X239.751 S20
S0
G1 X239.878 S3
S0
G1 X240.005 S4
S0
G1 X240.132 S16
S0
G1 X240.259 S12
S0
G1 X240.386 S19
S0
G1 X240.513 S33
S0
G1 X240.640 S20
S0
G1 X240.767 S21
S0
G1 X241.021 S19
S0
