; GCODE generated by Laserweb
; Laser Min: 0%
; Laser Max: 100%
; Black Speed: 200mm/min
; White Speed: 800mm/min
; Resolution (mm per pixel): 0.12699999999999187mm
; Laser Spot Size: NaNmm
; Laser Feedrate: 2000mm/min
; X Offset: 200mm
; Y Offset: 0mm 

G1 F1000
; Start GCode
G92
G90
G1Z0
M3S0

G0 Y50.038
G0 X200.000 S0
G1 X200.127 S342
S0
G1 X200.254 S126
S0
G1 X200.381 S189
S0
G1 X217.399 S193
S0
G1 X217.780 S192
S0
G1 X217.907 S189
S0
G1 X218.288 S193
S0
G1 X218.415 S189
S0
G1 X218.542 S197
S0
G1 X218.669 S192
S0
G1 X218.796 S193
S0
G1 X218.923 S197
S0
G1 X219.050 S193
S0
G1 X219.177 S194
S0
G1 X219.304 S191
S0
G1 X238.735 S193
S0
G1 X238.862 S189
S0
G1 X238.989 S126
S0
G1 X239.116 S338
S0
G0 Y49.911
G0 X239.116 S0
G1 X238.989 S173
S0
G1 X219.304 S2
S0
G1 X218.923 S5
S0
G1 X218.415 S2
S0
G1 X218.288 S5
S0
G1 X217.780 S2
S0
G1 X217.653 S6
S0
G1 X217.526 S1
S0
G1 X217.399 S5
S0
G0 X217.272 S0
G1 X200.889 S2
S0
G1 X200.762 S5
S0
G1 X200.635 S2
S0
G1 X200.508 S5
S0
G1 X200.127 S2
S0
G1 X200.000 S173
S0
G0 Y49.784
G0 X200.000 S0
G1 X200.127 S193
S0
G1 X200.254 S2
S0
G1 X200.508 S5
S0
G1 X217.526 S2
S0
G1 X217.653 S7
S0
G1 X217.780 S2
S0
G1 X217.907 S1
S0
G1 X218.034 S2
S0
G1 X218.161 S1
S0
G1 X219.050 S2
S0
G1 X219.304 S1
S0
G1 X238.735 S2
S0
G1 X238.862 S5
S0
G1 X238.989 S2
S0
G1 X239.116 S193
S0
G0 Y49.657
G0 X239.116 S0
G1 X238.989 S189
S0
G1 X219.177 S2
S0
G0 X219.050 S0
G1 X218.923 S3
S0
G1 X218.542 S2
S0
G1 X218.415 S5
S0
G1 X218.161 S2
S0
G1 X218.034 S6
S0
G1 X217.780 S2
S0
G1 X217.653 S1
S0
G1 X217.399 S2
S0
G0 X217.272 S0
G1 X201.016 S2
S0
G1 X200.889 S5
S0
G1 X200.762 S2
S0
G1 X200.635 S5
S0
G1 X200.127 S2
S0
G1 X200.000 S189
S0
G0 Y49.530
G0 X200.000 S0
G1 X200.127 S189
S0
G1 X200.254 S5
S0
G1 X200.762 S2
S0
G1 X200.889 S5
S0
G1 X217.653 S2
S0
G1 X217.780 S3
S0
G1 X217.907 S2
S0
G1 X218.161 S1
S0
G1 X218.288 S5
S0
G1 X218.415 S2
S0
G1 X218.669 S1
S0
G1 X219.177 S2
S0
G1 X219.304 S1
S0
G1 X238.989 S2
S0
G1 X239.116 S193
S0
G0 Y49.403
G0 X239.116 S0
G1 X238.989 S193
S0
G1 X219.304 S2
S0
G1 X219.050 S5
S0
G1 X218.923 S1
S0
G1 X218.542 S2
S0
G1 X218.415 S3
S0
G0 X218.288 S0
G1 X218.161 S1
S0
G1 X218.034 S5
S0
G0 X217.907 S0
G1 X217.780 S2
S0
G0 X217.653 S0
G1 X217.526 S5
S0
G1 X200.381 S2
S0
G1 X200.254 S5
S0
G1 X200.127 S2
S0
G1 X200.000 S193
S0
G0 Y49.276
G0 X200.000 S0
G1 X200.127 S193
S0
G1 X217.272 S2
S0
G1 X217.399 S1
S0
G1 X217.526 S2
S0
G1 X217.653 S1
S0
G1 X217.780 S7
S0
G1 X217.907 S5
S0
G1 X218.034 S1
S0
G1 X218.161 S23
S0
G1 X218.288 S36
S0
G1 X218.415 S19
S0
G1 X218.542 S1
S0
G1 X218.669 S2
S0
G1 X218.796 S5
S0
G1 X218.923 S2
S0
G1 X219.177 S3
S0
G1 X238.989 S2
S0
G1 X239.116 S193
S0
G0 Y49.149
G0 X239.116 S0
G1 X238.989 S193
S0
G1 X219.050 S2
S0
G1 X218.923 S5
S0
G1 X218.796 S2
S0
G1 X218.669 S90
S0
G1 X218.542 S147
S0
G1 X218.415 S91
S0
G1 X218.288 S114
S0
G1 X218.161 S118
S0
G1 X218.034 S166
S0
G1 X217.907 S262
S0
G1 X217.780 S149
S0
G1 X217.653 S56
S0
G1 X217.526 S31
S0
G1 X217.399 S12
S0
G1 X217.272 S3
S0
G1 X200.127 S2
S0
G1 X200.000 S193
S0
G0 Y49.022
G0 X200.000 S0
G1 X200.127 S193
S0
G1 X214.478 S2
S0
G0 X214.605 S0
G1 X215.113 S2
S0
G0 X215.240 S0
G1 X215.367 S1
S0
G1 X215.494 S5
S0
G1 X215.621 S2
S0
G1 X215.748 S5
S0
G1 X216.129 S2
S0
G1 X216.256 S5
S0
G1 X216.383 S1
S0
G1 X216.510 S2
S0
G1 X216.637 S1
S0
G1 X216.764 S2
S0
G1 X216.891 S5
S0
G1 X217.018 S2
S0
G1 X217.145 S31
S0
G1 X217.272 S52
S0
G1 X217.399 S71
S0
G1 X217.526 S88
S0
G1 X217.653 S86
S0
G1 X217.780 S84
S0
G1 X217.907 S208
S0
G1 X218.034 S242
S0
G1 X218.161 S86
S0
G1 X218.288 S65
S0
G1 X218.415 S78
S0
G1 X218.542 S81
S0
G1 X218.669 S164
S0
G1 X218.796 S302
S0
G1 X218.923 S185
S0
G1 X219.050 S23
S0
G1 X219.177 S55
S0
G1 X219.304 S36
S0
G1 X219.431 S9
S0
G1 X219.558 S5
S0
G1 X219.685 S2
S0
G1 X219.812 S5
S0
G1 X219.939 S1
S0
G1 X220.066 S5
S0
G1 X220.193 S2
S0
G1 X220.320 S1
S0
G1 X221.082 S2
S0
G1 X221.209 S5
S0
G1 X221.336 S1
S0
G1 X238.989 S2
S0
G1 X239.116 S193
S0
G0 Y48.895
G0 X239.116 S0
G1 X238.989 S193
S0
G1 X220.193 S2
S0
G1 X220.066 S5
S0
G1 X219.939 S2
S0
G1 X219.812 S5
S0
G1 X219.685 S2
S0
G1 X219.558 S18
S0
G1 X219.431 S56
S0
G1 X219.304 S82
S0
G1 X219.177 S94
S0
G1 X219.050 S58
S0
G1 X218.923 S193
S0
G1 X218.796 S259
S0
G1 X218.669 S83
S0
G1 X218.542 S44
S0
G1 X218.415 S83
S0
G1 X218.288 S82
S0
G1 X218.161 S83
S0
G1 X218.034 S71
S0
G1 X217.907 S51
S0
G1 X217.780 S90
S0
G1 X217.653 S85
S0
G1 X217.526 S79
S0
G1 X217.399 S87
S0
G1 X217.272 S90
S0
G1 X217.145 S94
S0
G1 X217.018 S93
S0
G1 X216.891 S75
S0
G1 X216.764 S46
S0
G1 X216.637 S16
S0
G1 X216.510 S13
S0
G1 X216.383 S24
S0
G1 X216.256 S28
S0
G1 X216.129 S19
S0
G1 X216.002 S5
S0
G1 X215.875 S1
S0
G1 X215.367 S2
S0
G1 X215.240 S3
S0
G1 X215.113 S2
S0
G1 X214.986 S9
S0
G1 X214.732 S2
S0
G1 X214.605 S5
S0
G1 X200.127 S2
S0
G1 X200.000 S193
S0
G0 Y48.768
G0 X200.000 S0
G1 X200.127 S193
S0
G1 X215.367 S2
S0
G1 X215.494 S9
S0
G1 X215.621 S25
S0
G1 X215.748 S21
S0
G1 X215.875 S17
S0
G1 X216.002 S27
S0
G1 X216.129 S71
S0
G1 X216.383 S95
S0
G1 X216.510 S90
S0
G1 X216.637 S83
S0
G1 X216.764 S84
S0
G1 X216.891 S99
S0
G1 X217.018 S87
S0
G1 X217.145 S78
S0
G1 X217.399 S82
S0
G1 X217.526 S78
S0
G1 X217.653 S83
S0
G1 X217.780 S79
S0
G1 X217.907 S74
S0
G1 X218.288 S82
S0
G1 X218.542 S81
S0
G1 X218.669 S86
S0
G1 X218.796 S63
S0
G1 X218.923 S55
S0
G1 X219.050 S227
S0
G1 X219.177 S190
S0
G1 X219.304 S47
S0
G1 X219.431 S81
S0
G1 X219.558 S99
S0
G1 X219.685 S90
S0
G1 X219.812 S66
S0
G1 X219.939 S23
S0
G1 X220.193 S2
S0
G1 X220.320 S1
S0
G1 X238.989 S2
S0
G1 X239.116 S193
S0
G0 Y48.641
G0 X239.116 S0
G1 X238.989 S193
S0
G1 X220.955 S2
S0
G1 X220.828 S5
S0
G1 X220.447 S2
S0
G1 X220.320 S5
S0
G1 X220.193 S2
S0
G1 X220.066 S8
S0
G1 X219.939 S58
S0
G1 X219.685 S91
S0
G1 X219.558 S83
S0
G1 X219.431 S79
S0
G1 X219.304 S59
S0
G1 X219.177 S177
S0
G1 X219.050 S212
S0
G1 X218.923 S59
S0
G1 X218.796 S66
S0
G1 X218.669 S82
S0
G1 X218.542 S77
S0
G1 X218.415 S84
S0
G1 X218.288 S82
S0
G1 X218.161 S83
S0
G1 X218.034 S79
S0
G1 X217.399 S83
S0
G1 X217.272 S81
S0
G1 X217.145 S71
S0
G1 X217.018 S53
S0
G1 X216.891 S68
S0
G1 X216.764 S87
S0
G1 X216.510 S86
S0
G1 X216.383 S83
S0
G1 X216.256 S87
S0
G1 X216.002 S90
S0
G1 X215.875 S91
S0
G1 X215.748 S104
S0
G1 X215.621 S101
S0
G1 X215.367 S99
S0
G1 X215.240 S63
S0
G1 X215.113 S12
S0
G1 X214.986 S2
S0
G0 X214.859 S0
G1 X214.732 S3
S0
G1 X214.605 S2
S0
G1 X214.478 S5
S0
G1 X214.351 S2
S0
G1 X214.224 S5
S0
G1 X200.127 S2
S0
G1 X200.000 S193
S0
G0 Y48.514
G0 X200.000 S0
G1 X200.127 S193
S0
G1 X214.351 S2
S0
G1 X214.478 S5
S0
G1 X214.605 S2
S0
G1 X214.732 S5
S0
G1 X214.986 S2
S0
G1 X215.113 S19
S0
G1 X215.240 S94
S0
G1 X215.367 S113
S0
G1 X215.494 S94
S0
G1 X215.621 S99
S0
G1 X215.748 S130
S0
G1 X215.875 S95
S0
G1 X216.002 S78
S0
G1 X216.129 S82
S0
G1 X216.256 S79
S0
G1 X216.383 S82
S0
G1 X216.510 S86
S0
G1 X216.637 S77
S0
G1 X216.764 S84
S0
G1 X216.891 S51
S0
G1 X217.018 S111
S0
G1 X217.145 S168
S0
G1 X217.272 S87
S0
G1 X217.399 S73
S0
G1 X217.526 S82
S0
G1 X217.780 S83
S0
G1 X217.907 S78
S0
G1 X218.034 S82
S0
G1 X218.161 S86
S0
G1 X218.288 S79
S0
G1 X218.415 S77
S0
G1 X218.542 S83
S0
G1 X218.669 S82
S0
G1 X218.796 S83
S0
G1 X218.923 S86
S0
G1 X219.050 S67
S0
G1 X219.177 S59
S0
G1 X219.304 S185
S0
G1 X219.431 S135
S0
G1 X219.558 S72
S0
G1 X219.685 S74
S0
G1 X219.812 S87
S0
G1 X219.939 S86
S0
G1 X220.066 S102
S0
G1 X220.193 S87
S0
G1 X220.320 S20
S0
G1 X220.447 S1
S0
G1 X220.574 S2
S0
G1 X220.701 S5
S0
G1 X220.828 S2
S0
G1 X220.955 S5
S0
G1 X238.989 S2
S0
G1 X239.116 S193
S0
G0 Y48.387
G0 X239.116 S0
G1 X238.989 S193
S0
G1 X220.574 S2
S0
G1 X220.447 S1
S0
G1 X220.320 S34
S0
G1 X220.193 S95
S0
G1 X220.066 S90
S0
G1 X219.939 S78
S0
G1 X219.812 S82
S0
G1 X219.685 S79
S0
G1 X219.558 S83
S0
G1 X219.431 S87
S0
G1 X219.304 S106
S0
G1 X219.177 S71
S0
G1 X219.050 S75
S0
G1 X218.923 S82
S0
G1 X218.796 S83
S0
G1 X218.669 S82
S0
G1 X218.542 S87
S0
G1 X218.415 S79
S0
G1 X218.288 S83
S0
G1 X218.161 S87
S0
G1 X218.034 S82
S0
G1 X217.780 S81
S0
G1 X217.653 S82
S0
G1 X217.526 S79
S0
G1 X217.399 S78
S0
G1 X217.272 S65
S0
G1 X217.145 S182
S0
G1 X217.018 S246
S0
G1 X216.891 S264
S0
G1 X216.764 S149
S0
G1 X216.637 S52
S0
G1 X216.510 S86
S0
G1 X216.383 S78
S0
G1 X216.256 S82
S0
G1 X216.129 S91
S0
G1 X216.002 S79
S0
G1 X215.875 S83
S0
G1 X215.748 S74
S0
G1 X215.621 S99
S0
G1 X215.494 S130
S0
G1 X215.367 S99
S0
G1 X215.240 S86
S0
G1 X215.113 S110
S0
G1 X214.986 S94
S0
G1 X214.859 S19
S0
G1 X214.605 S2
S0
G1 X214.478 S9
S0
G1 X200.127 S2
S0
G1 X200.000 S193
S0
G0 Y48.260
G0 X200.000 S0
G1 X200.127 S193
S0
G1 X214.478 S2
S0
G1 X214.605 S5
S0
G1 X214.732 S2
S0
G1 X214.859 S31
S0
G1 X215.113 S106
S0
G1 X215.240 S87
S0
G1 X215.367 S110
S0
G1 X215.494 S131
S0
G1 X215.621 S99
S0
G1 X215.748 S66
S0
G1 X215.875 S87
S0
G1 X216.002 S78
S0
G1 X216.129 S86
S0
G1 X216.256 S83
S0
G1 X216.383 S77
S0
G1 X216.510 S74
S0
G1 X216.637 S60
S0
G1 X216.764 S121
S0
G1 X216.891 S287
S0
G1 X217.018 S95
S0
G1 X217.145 S59
S0
G1 X217.272 S118
S0
G1 X217.399 S88
S0
G1 X217.526 S74
S0
G1 X217.653 S87
S0
G1 X217.780 S75
S0
G1 X218.034 S82
S0
G1 X218.161 S83
S0
G1 X218.288 S82
S0
G1 X218.415 S83
S0
G1 X218.542 S82
S0
G1 X218.669 S78
S0
G1 X218.923 S83
S0
G1 X219.050 S82
S0
G1 X219.177 S78
S0
G1 X219.304 S82
S0
G1 X219.431 S75
S0
G1 X219.558 S83
S0
G1 X219.685 S78
S0
G1 X219.812 S74
S0
G1 X219.939 S78
S0
G1 X220.066 S83
S0
G1 X220.193 S79
S0
G1 X220.320 S87
S0
G1 X220.447 S95
S0
G1 X220.574 S36
S0
G1 X220.701 S1
S0
G1 X238.989 S2
S0
G1 X239.116 S193
S0
G0 Y48.133
G0 X239.116 S0
G1 X238.989 S193
S0
G1 X221.082 S2
S0
G1 X220.955 S5
S0
G1 X220.701 S2
S0
G1 X220.574 S26
S0
G1 X220.447 S95
S0
G1 X220.320 S90
S0
G1 X220.193 S84
S0
G1 X220.066 S78
S0
G1 X219.939 S80
S0
G1 X219.812 S81
S0
G1 X219.685 S79
S0
G1 X219.558 S86
S0
G1 X219.431 S75
S0
G1 X219.304 S78
S0
G1 X219.177 S79
S0
G1 X219.050 S78
S0
G1 X218.923 S80
S0
G1 X218.796 S87
S0
G1 X218.669 S78
S0
G1 X218.542 S83
S0
G1 X218.415 S82
S0
G1 X218.161 S83
S0
G1 X218.034 S79
S0
G1 X217.907 S87
S0
G1 X217.780 S82
S0
G1 X217.653 S87
S0
G1 X217.526 S75
S0
G1 X217.399 S82
S0
G1 X217.272 S83
S0
G1 X217.145 S71
S0
G1 X217.018 S78
S0
G1 X216.891 S33
S0
G1 X216.764 S196
S0
G1 X216.637 S263
S0
G1 X216.510 S36
S0
G1 X216.383 S73
S0
G1 X216.256 S83
S0
G1 X216.129 S90
S0
G1 X216.002 S78
S0
G1 X215.875 S83
S0
G1 X215.748 S79
S0
G1 X215.621 S83
S0
G1 X215.494 S71
S0
G1 X215.367 S79
S0
G1 X215.240 S92
S0
G1 X215.113 S102
S0
G1 X214.986 S92
S0
G1 X214.859 S90
S0
G1 X214.732 S110
S0
G1 X214.605 S52
S0
G1 X214.478 S2
S0
G1 X214.224 S5
S0
G1 X200.127 S2
S0
G1 X200.000 S193
S0
G0 Y48.006
G0 X200.000 S0
G1 X200.127 S193
S0
G1 X214.097 S2
S0
G1 X214.224 S5
S0
G1 X214.351 S1
S0
G1 X214.478 S2
S0
G1 X214.605 S55
S0
G1 X214.732 S122
S0
G1 X214.859 S75
S0
G1 X214.986 S119
S0
G1 X215.113 S104
S0
G1 X215.240 S8
S0
G1 X215.367 S103
S0
G1 X215.494 S117
S0
G1 X215.621 S68
S0
G1 X215.748 S84
S0
G1 X215.875 S78
S0
G1 X216.002 S83
S0
G1 X216.129 S78
S0
G1 X216.256 S68
S0
G1 X216.383 S184
S0
G1 X216.510 S129
S0
G1 X216.637 S94
S0
G1 X216.764 S272
S0
G1 X216.891 S60
S0
G1 X217.018 S67
S0
G1 X217.145 S85
S0
G1 X217.399 S82
S0
G1 X217.526 S102
S0
G1 X217.653 S107
S0
G1 X217.780 S91
S0
G1 X217.907 S81
S0
G1 X218.034 S79
S0
G1 X218.288 S83
S0
G1 X218.415 S81
S0
G1 X218.669 S82
S0
G1 X218.796 S78
S0
G1 X218.923 S86
S0
G1 X219.050 S81
S0
G1 X219.177 S77
S0
G1 X219.304 S87
S0
G1 X219.431 S109
S0
G1 X219.558 S97
S0
G1 X219.685 S109
S0
G1 X219.812 S162
S0
G1 X219.939 S138
S0
G1 X220.066 S90
S0
G1 X220.193 S74
S0
G1 X220.320 S83
S0
G1 X220.447 S82
S0
G1 X220.574 S91
S0
G1 X220.701 S90
S0
G1 X220.828 S12
S0
G1 X220.955 S6
S0
G1 X221.082 S2
S0
G1 X221.209 S1
S0
G1 X238.989 S2
S0
G1 X239.116 S193
S0
G0 Y47.879
G0 X239.116 S0
G1 X238.989 S193
S0
G1 X221.336 S2
S0
G0 X221.082 S0
G1 X220.955 S2
S0
G1 X220.828 S1
S0
G1 X220.701 S75
S0
G1 X220.574 S98
S0
G1 X220.447 S79
S0
G1 X220.320 S87
S0
G1 X220.193 S73
S0
G1 X220.066 S87
S0
G1 X219.939 S131
S0
G1 X219.812 S252
S0
G1 X219.685 S232
S0
G1 X219.558 S173
S0
G1 X219.431 S244
S0
G1 X219.304 S158
S0
G1 X219.177 S78
S0
G1 X219.050 S81
S0
G1 X218.923 S82
S0
G1 X218.796 S78
S0
G1 X218.669 S82
S0
G1 X218.542 S81
S0
G1 X218.415 S83
S0
G1 X218.288 S82
S0
G1 X218.161 S86
S0
G1 X218.034 S78
S0
G1 X217.907 S74
S0
G1 X217.780 S82
S0
G1 X217.653 S137
S0
G1 X217.526 S195
S0
G1 X217.399 S107
S0
G1 X217.272 S60
S0
G1 X217.145 S84
S0
G1 X217.018 S72
S0
G1 X216.891 S142
S0
G1 X216.764 S121
S0
G1 X216.637 S183
S0
G1 X216.510 S341
S0
G1 X216.383 S365
S0
G1 X216.256 S235
S0
G1 X216.129 S40
S0
G1 X216.002 S83
S0
G1 X215.875 S82
S0
G1 X215.748 S86
S0
G1 X215.621 S78
S0
G1 X215.494 S48
S0
G1 X215.367 S120
S0
G1 X215.240 S522
S0
G1 X215.113 S259
S0
G1 X214.986 S5
S0
G1 X214.859 S252
S0
G1 X214.732 S196
S0
G1 X214.605 S47
S0
G1 X214.478 S115
S0
G1 X214.351 S40
S0
G1 X200.127 S2
S0
G1 X200.000 S193
S0
G0 Y47.752
G0 X200.000 S0
G1 X200.127 S193
S0
G1 X211.557 S2
S0
G1 X211.684 S5
S0
G1 X211.938 S2
S0
G1 X212.065 S5
S0
G1 X212.192 S2
S0
G1 X212.319 S3
S0
G0 X212.446 S0
G1 X213.081 S2
S0
G1 X213.208 S5
S0
G1 X213.335 S2
S0
G1 X213.462 S16
S0
G1 X213.589 S28
S0
G1 X213.716 S19
S0
G1 X213.843 S8
S0
G1 X214.097 S2
S0
G1 X214.224 S5
S0
G1 X214.351 S43
S0
G1 X214.478 S107
S0
G1 X214.605 S82
S0
G1 X214.732 S114
S0
G1 X214.859 S338
S0
G1 X214.986 S27
S0
G1 X215.113 S243
S0
G1 X215.240 S560
S0
G1 X215.367 S166
S0
G1 X215.494 S29
S0
G1 X215.748 S86
S0
G1 X215.875 S78
S0
G1 X216.002 S75
S0
G1 X216.129 S69
S0
G1 X216.256 S74
S0
G1 X216.383 S99
S0
G1 X216.510 S248
S0
G1 X216.637 S240
S0
G1 X216.764 S141
S0
G1 X216.891 S364
S0
G1 X217.018 S169
S0
G1 X217.145 S55
S0
G1 X217.272 S75
S0
G1 X217.399 S133
S0
G1 X217.526 S148
S0
G1 X217.653 S217
S0
G1 X217.780 S205
S0
G1 X217.907 S129
S0
G1 X218.034 S98
S0
G1 X218.161 S91
S0
G1 X218.288 S71
S0
G1 X218.415 S83
S0
G1 X218.542 S86
S0
G1 X218.669 S82
S0
G1 X218.796 S81
S0
G1 X218.923 S82
S0
G1 X219.050 S77
S0
G1 X219.177 S76
S0
G1 X219.304 S75
S0
G1 X219.431 S125
S0
G1 X219.558 S280
S0
G1 X219.685 S335
S0
G1 X219.812 S231
S0
G1 X219.939 S282
S0
G1 X220.066 S235
S0
G1 X220.193 S110
S0
G1 X220.320 S81
S0
G1 X220.447 S75
S0
G1 X220.574 S90
S0
G1 X220.701 S79
S0
G1 X220.828 S86
S0
G1 X220.955 S127
S0
G1 X221.082 S78
S0
G1 X221.209 S19
S0
G0 X221.336 S0
G1 X221.463 S2
S0
G1 X221.590 S5
S0
G1 X238.989 S2
S0
G1 X239.116 S193
S0
G0 Y47.625
G0 X239.116 S0
G1 X238.989 S193
S0
G1 X221.336 S2
S0
G1 X221.209 S52
S0
G1 X221.082 S99
S0
G1 X220.955 S173
S0
G1 X220.828 S142
S0
G1 X220.701 S67
S0
G1 X220.574 S78
S0
G1 X220.447 S71
S0
G1 X220.320 S82
S0
G1 X220.193 S89
S0
G1 X220.066 S197
S0
G1 X219.939 S286
S0
G1 X219.812 S255
S0
G1 X219.685 S342
S0
G1 X219.558 S320
S0
G1 X219.431 S160
S0
G1 X219.304 S87
S0
G1 X219.177 S83
S0
G1 X219.050 S82
S0
G1 X218.923 S74
S0
G1 X218.796 S91
S0
G1 X218.669 S77
S0
G1 X218.542 S85
S0
G1 X218.415 S79
S0
G1 X218.288 S89
S0
G1 X218.161 S71
S0
G1 X218.034 S99
S0
G1 X217.907 S180
S0
G1 X217.780 S239
S0
G1 X217.653 S270
S0
G1 X217.526 S200
S0
G1 X217.399 S186
S0
G1 X217.272 S348
S0
G1 X217.145 S115
S0
G1 X217.018 S44
S0
G1 X216.891 S138
S0
G1 X216.764 S356
S0
G1 X216.637 S338
S0
G1 X216.510 S149
S0
G1 X216.383 S328
S0
G1 X216.256 S211
S0
G1 X216.129 S133
S0
G1 X216.002 S114
S0
G1 X215.875 S95
S0
G1 X215.748 S86
S0
G1 X215.621 S78
S0
G1 X215.494 S79
S0
G1 X215.367 S90
S0
G1 X215.240 S6
S0
G1 X215.113 S70
S0
G1 X214.986 S535
S0
G1 X214.859 S207
S0
G1 X214.732 S115
S0
G1 X214.605 S216
S0
G1 X214.478 S55
S0
G1 X214.351 S98
S0
G1 X214.224 S107
S0
G1 X214.097 S87
S0
G1 X213.970 S71
S0
G1 X213.843 S87
S0
G1 X213.589 S103
S0
G1 X213.462 S106
S0
G1 X213.335 S99
S0
G1 X213.208 S64
S0
G1 X213.081 S12
S0
G1 X212.954 S5
S0
G1 X212.446 S2
S0
G1 X212.319 S3
S0
G0 X212.192 S0
G1 X200.127 S2
S0
G1 X200.000 S193
S0
G0 Y47.498
G0 X200.000 S0
G1 X200.127 S193
S0
G1 X212.319 S2
S0
G1 X212.446 S5
S0
G1 X212.573 S16
S0
G1 X212.700 S43
S0
G1 X212.827 S70
S0
G1 X212.954 S74
S0
G1 X213.081 S82
S0
G1 X213.208 S94
S0
G1 X213.335 S110
S0
G1 X213.462 S103
S0
G1 X213.589 S94
S0
G1 X213.843 S98
S0
G1 X213.970 S106
S0
G1 X214.097 S114
S0
G1 X214.224 S106
S0
G1 X214.351 S100
S0
G1 X214.478 S95
S0
G1 X214.605 S59
S0
G1 X214.732 S173
S0
G1 X214.859 S201
S0
G1 X214.986 S597
S0
G1 X215.113 S172
S0
G1 X215.240 S6
S0
G1 X215.367 S58
S0
G1 X215.494 S71
S0
G1 X215.621 S86
S0
G1 X215.748 S64
S0
G1 X215.875 S154
S0
G1 X216.002 S201
S0
G1 X216.129 S150
S0
G1 X216.256 S152
S0
G1 X216.383 S266
S0
G1 X216.510 S380
S0
G1 X216.637 S392
S0
G1 X216.764 S302
S0
G1 X216.891 S244
S0
G1 X217.018 S153
S0
G1 X217.145 S30
S0
G1 X217.272 S211
S0
G1 X217.399 S444
S0
G1 X217.526 S154
S0
G1 X217.653 S208
S0
G1 X217.780 S344
S0
G1 X217.907 S322
S0
G1 X218.034 S264
S0
G1 X218.161 S166
S0
G1 X218.288 S146
S0
G1 X218.415 S111
S0
G1 X218.542 S86
S0
G1 X218.669 S71
S0
G1 X218.796 S74
S0
G1 X218.923 S87
S0
G1 X219.050 S133
S0
G1 X219.177 S135
S0
G1 X219.304 S126
S0
G1 X219.431 S94
S0
G1 X219.558 S115
S0
G1 X219.685 S199
S0
G1 X219.812 S330
S0
G1 X219.939 S323
S0
G1 X220.066 S271
S0
G1 X220.193 S275
S0
G1 X220.320 S164
S0
G1 X220.447 S90
S0
G1 X220.574 S78
S0
G1 X220.701 S83
S0
G1 X220.828 S73
S0
G1 X220.955 S71
S0
G1 X221.082 S161
S0
G1 X221.209 S110
S0
G1 X221.336 S107
S0
G1 X221.463 S39
S0
G1 X238.989 S2
S0
G1 X239.116 S193
S0
G0 Y47.371
G0 X239.116 S0
G1 X238.989 S193
S0
G1 X221.590 S2
S0
G1 X221.463 S5
S0
G1 X221.336 S86
S0
G1 X221.209 S91
S0
G1 X221.082 S161
S0
G1 X220.955 S134
S0
G1 X220.828 S63
S0
G1 X220.701 S83
S0
G1 X220.574 S73
S0
G1 X220.447 S86
S0
G1 X220.320 S125
S0
G1 X220.193 S251
S0
G1 X220.066 S276
S0
G1 X219.939 S318
S0
G1 X219.812 S356
S0
G1 X219.685 S258
S0
G1 X219.558 S141
S0
G1 X219.431 S145
S0
G1 X219.304 S229
S0
G1 X219.177 S169
S0
G1 X219.050 S241
S0
G1 X218.923 S180
S0
G1 X218.796 S91
S0
G1 X218.669 S79
S0
G1 X218.542 S91
S0
G1 X218.415 S95
S0
G1 X218.288 S162
S0
G1 X218.161 S236
S0
G1 X218.034 S254
S0
G1 X217.907 S333
S0
G1 X217.780 S362
S0
G1 X217.653 S380
S0
G1 X217.526 S173
S0
G1 X217.399 S168
S0
G1 X217.272 S482
S0
G1 X217.145 S297
S0
G1 X217.018 S21
S0
G1 X216.891 S184
S0
G1 X216.764 S278
S0
G1 X216.637 S115
S0
G1 X216.510 S123
S0
G1 X216.383 S206
S0
G1 X216.256 S312
S0
G1 X216.129 S169
S0
G1 X216.002 S146
S0
G1 X215.875 S160
S0
G1 X215.748 S252
S0
G1 X215.621 S75
S0
G1 X215.494 S42
S0
G1 X215.367 S220
S0
G1 X215.240 S157
S0
G1 X215.113 S29
S0
G1 X214.986 S2
S0
G1 X214.859 S408
S0
G1 X214.732 S707
S0
G1 X214.605 S347
S0
G1 X214.478 S50
S0
G1 X214.224 S91
S0
G1 X213.843 S94
S0
G1 X213.589 S95
S0
G1 X213.335 S94
S0
G1 X213.208 S90
S0
G1 X213.081 S95
S0
G1 X212.954 S102
S0
G1 X212.700 S109
S0
G1 X212.573 S106
S0
G1 X212.446 S99
S0
G1 X212.319 S71
S0
G1 X212.192 S36
S0
G1 X211.938 S5
S0
G1 X211.557 S2
S0
G1 X211.430 S5
S0
G1 X200.127 S2
S0
G1 X200.000 S193
S0
G0 Y47.244
G0 X200.000 S0
G1 X200.127 S193
S0
G1 X211.938 S2
S0
G1 X212.065 S39
S0
G1 X212.192 S94
S0
G1 X212.319 S114
S0
G1 X212.446 S106
S0
G1 X212.573 S98
S0
G1 X213.335 S94
S0
G1 X213.462 S90
S0
G1 X213.716 S94
S0
G1 X213.843 S90
S0
G1 X214.351 S94
S0
G1 X214.478 S52
S0
G1 X214.605 S177
S0
G1 X214.732 S542
S0
G1 X214.859 S543
S0
G1 X214.986 S129
S0
G1 X215.113 S12
S0
G1 X215.240 S48
S0
G1 X215.367 S396
S0
G1 X215.494 S173
S0
G1 X215.621 S19
S0
G1 X215.748 S177
S0
G1 X215.875 S274
S0
G1 X216.002 S95
S0
G1 X216.129 S155
S0
G1 X216.256 S181
S0
G1 X216.383 S335
S0
G1 X216.510 S87
S0
G1 X216.637 S255
S0
G1 X216.764 S385
S0
G1 X216.891 S345
S0
G1 X217.018 S227
S0
G1 X217.145 S25
S0
G1 X217.272 S297
S0
G1 X217.399 S430
S0
G1 X217.526 S205
S0
G1 X217.653 S173
S0
G1 X217.780 S395
S0
G1 X217.907 S381
S0
G1 X218.034 S324
S0
G1 X218.161 S333
S0
G1 X218.288 S290
S0
G1 X218.415 S271
S0
G1 X218.542 S172
S0
G1 X218.669 S148
S0
G1 X218.796 S186
S0
G1 X218.923 S141
S0
G1 X219.050 S145
S0
G1 X219.177 S271
S0
G1 X219.304 S287
S0
G1 X219.431 S254
S0
G1 X219.558 S287
S0
G1 X219.685 S161
S0
G1 X219.812 S196
S0
G1 X219.939 S319
S0
G1 X220.066 S359
S0
G1 X220.193 S290
S0
G1 X220.320 S279
S0
G1 X220.447 S220
S0
G1 X220.574 S110
S0
G1 X220.701 S87
S0
G1 X220.828 S78
S0
G1 X220.955 S72
S0
G1 X221.082 S83
S0
G1 X221.209 S193
S0
G1 X221.336 S118
S0
G1 X221.463 S101
S0
G1 X221.590 S35
S0
G1 X221.717 S2
S0
G1 X221.844 S3
S0
G1 X238.989 S2
S0
G1 X239.116 S193
S0
G0 Y47.117
G0 X239.116 S0
G1 X238.989 S193
S0
G1 X221.971 S2
S0
G1 X221.844 S5
S0
G0 X221.717 S0
G1 X221.590 S2
S0
G1 X221.463 S67
S0
G1 X221.336 S91
S0
G1 X221.209 S178
S0
G1 X221.082 S149
S0
G1 X220.955 S63
S0
G1 X220.828 S87
S0
G1 X220.701 S70
S0
G1 X220.574 S91
S0
G1 X220.447 S189
S0
G1 X220.320 S282
S0
G1 X220.193 S298
S0
G1 X220.066 S346
S0
G1 X219.939 S338
S0
G1 X219.812 S264
S0
G1 X219.685 S180
S0
G1 X219.558 S275
S0
G1 X219.431 S307
S0
G1 X219.304 S291
S0
G1 X219.177 S347
S0
G1 X219.050 S240
S0
G1 X218.923 S144
S0
G1 X218.796 S252
S0
G1 X218.669 S268
S0
G1 X218.542 S211
S0
G1 X218.415 S312
S0
G1 X218.288 S354
S0
G1 X218.161 S357
S0
G1 X218.034 S326
S0
G1 X217.907 S315
S0
G1 X217.780 S443
S0
G1 X217.653 S326
S0
G1 X217.526 S164
S0
G1 X217.399 S219
S0
G1 X217.272 S458
S0
G1 X217.145 S247
S0
G1 X217.018 S59
S0
G1 X216.891 S303
S0
G1 X216.764 S201
S0
G1 X216.637 S235
S0
G1 X216.510 S624
S0
G1 X216.383 S341
S0
G1 X216.256 S207
S0
G1 X216.129 S212
S0
G1 X216.002 S165
S0
G1 X215.875 S126
S0
G1 X215.748 S216
S0
G1 X215.621 S270
S0
G1 X215.494 S59
S0
G1 X215.367 S1
S0
G1 X215.240 S409
S0
G1 X215.113 S385
S0
G1 X214.986 S1
S0
G1 X214.859 S19
S0
G1 X214.732 S326
S0
G1 X214.605 S449
S0
G1 X214.478 S133
S0
G1 X214.351 S60
S0
G1 X214.224 S90
S0
G1 X214.097 S95
S0
G1 X213.970 S91
S0
G1 X213.208 S95
S0
G1 X212.827 S94
S0
G1 X212.700 S90
S0
G1 X212.192 S94
S0
G1 X212.065 S107
S0
G1 X211.938 S117
S0
G1 X211.811 S74
S0
G1 X211.684 S12
S0
G1 X211.557 S2
S0
G1 X211.430 S5
S0
G1 X200.127 S2
S0
G1 X200.000 S193
S0
G0 Y46.990
G0 X200.000 S0
G1 X200.127 S193
S0
G1 X210.160 S2
S0
G1 X210.287 S3
S0
G1 X210.414 S2
S0
G1 X210.541 S5
S0
G1 X210.668 S1
S0
G1 X211.176 S2
S0
G1 X211.303 S1
S0
G1 X211.430 S3
S0
G1 X211.557 S2
S0
G1 X211.684 S16
S0
G1 X211.811 S95
S0
G1 X211.938 S110
S0
G1 X212.192 S94
S0
G1 X214.224 S95
S0
G1 X214.478 S91
S0
G1 X214.605 S25
S0
G1 X214.732 S366
S0
G1 X214.859 S259
S0
G1 X214.986 S2
S0
G1 X215.113 S162
S0
G1 X215.240 S623
S0
G1 X215.367 S166
S0
G1 X215.494 S17
S0
G1 X215.621 S83
S0
G1 X215.748 S313
S0
G1 X215.875 S157
S0
G1 X216.002 S196
S0
G1 X216.129 S150
S0
G1 X216.256 S211
S0
G1 X216.383 S271
S0
G1 X216.510 S731
S0
G1 X216.637 S311
S0
G1 X216.764 S71
S0
G1 X216.891 S132
S0
G1 X217.018 S287
S0
G1 X217.145 S228
S0
G1 X217.272 S142
S0
G1 X217.399 S506
S0
G1 X217.526 S279
S0
G1 X217.653 S189
S0
G1 X217.780 S219
S0
G1 X217.907 S375
S0
G1 X218.034 S384
S0
G1 X218.161 S295
S0
G1 X218.288 S351
S0
G1 X218.415 S366
S0
G1 X218.542 S336
S0
G1 X218.669 S295
S0
G1 X218.796 S264
S0
G1 X218.923 S315
S0
G1 X219.050 S233
S0
G1 X219.177 S218
S0
G1 X219.304 S321
S0
G1 X219.431 S350
S0
G1 X219.558 S330
S0
G1 X219.685 S339
S0
G1 X219.812 S266
S0
G1 X219.939 S228
S0
G1 X220.066 S307
S0
G1 X220.193 S338
S0
G1 X220.320 S346
S0
G1 X220.447 S330
S0
G1 X220.574 S232
S0
G1 X220.701 S98
S0
G1 X220.828 S67
S0
G1 X220.955 S81
S0
G1 X221.082 S75
S0
G1 X221.209 S83
S0
G1 X221.336 S200
S0
G1 X221.463 S125
S0
G1 X221.590 S73
S0
G1 X221.717 S7
S0
G1 X221.844 S3
S0
G1 X238.989 S2
S0
G1 X239.116 S193
S0
G0 Y46.863
G0 X239.116 S0
G1 X238.989 S193
S0
G1 X222.352 S2
S0
G1 X222.225 S9
S0
G1 X221.971 S2
S0
G1 X221.844 S5
S0
G1 X221.717 S27
S0
G1 X221.463 S83
S0
G1 X221.336 S193
S0
G1 X221.209 S163
S0
G1 X221.082 S54
S0
G1 X220.828 S82
S0
G1 X220.701 S71
S0
G1 X220.574 S110
S0
G1 X220.447 S244
S0
G1 X220.320 S351
S0
G1 X220.193 S346
S0
G1 X220.066 S330
S0
G1 X219.939 S287
S0
G1 X219.812 S266
S0
G1 X219.685 S331
S0
G1 X219.431 S358
S0
G1 X219.304 S331
S0
G1 X219.177 S307
S0
G1 X219.050 S248
S0
G1 X218.923 S309
S0
G1 X218.796 S298
S0
G1 X218.669 S283
S0
G1 X218.542 S355
S0
G1 X218.415 S404
S0
G1 X218.288 S320
S0
G1 X218.161 S281
S0
G1 X218.034 S326
S0
G1 X217.907 S385
S0
G1 X217.780 S223
S0
G1 X217.653 S115
S0
G1 X217.526 S129
S0
G1 X217.399 S427
S0
G1 X217.272 S356
S0
G1 X217.145 S149
S0
G1 X217.018 S534
S0
G1 X216.891 S288
S0
G1 X216.764 S49
S0
G1 X216.637 S71
S0
G1 X216.510 S107
S0
G1 X216.383 S838
S0
G1 X216.256 S419
S0
G1 X216.129 S157
S0
G1 X216.002 S99
S0
G1 X215.875 S252
S0
G1 X215.748 S186
S0
G1 X215.621 S337
S0
G1 X215.494 S153
S0
G1 X215.367 S68
S0
G1 X215.240 S2
S0
G1 X215.113 S495
S0
G1 X214.986 S511
S0
G0 X214.859 S0
G1 X214.732 S130
S0
G1 X214.605 S275
S0
G1 X214.478 S74
S0
G1 X214.351 S95
S0
G1 X214.224 S91
S0
G1 X212.065 S95
S0
G1 X211.811 S91
S0
G1 X211.684 S109
S0
G1 X211.557 S101
S0
G1 X211.430 S27
S0
G1 X211.303 S2
S0
G1 X211.176 S5
S0
G1 X211.049 S4
S0
G1 X210.922 S5
S0
G1 X210.287 S2
S0
G1 X210.160 S5
S0
G1 X200.127 S2
S0
G1 X200.000 S193
S0
G0 Y46.736
G0 X200.000 S0
G1 X200.127 S193
S0
G1 X210.287 S2
S0
G1 X210.414 S5
S0
G1 X210.668 S2
S0
G1 X210.795 S3
S0
G1 X211.303 S2
S0
G1 X211.430 S25
S0
G1 X211.557 S80
S0
G1 X211.684 S99
S0
G1 X211.811 S92
S0
G1 X214.224 S95
S0
G1 X214.351 S96
S0
G1 X214.478 S91
S0
G1 X214.605 S93
S0
G1 X214.732 S137
S0
G1 X214.859 S27
S0
G1 X214.986 S189
S0
G1 X215.113 S667
S0
G1 X215.240 S215
S0
G1 X215.367 S4
S0
G1 X215.494 S51
S0
G1 X215.621 S212
S0
G1 X215.748 S282
S0
G1 X215.875 S215
S0
G1 X216.002 S255
S0
G1 X216.129 S98
S0
G1 X216.256 S172
S0
G1 X216.383 S239
S0
G1 X216.510 S943
S0
G1 X216.637 S624
S0
G1 X216.764 S216
S0
G1 X216.891 S399
S0
G1 X217.018 S573
S0
G1 X217.145 S309
S0
G1 X217.272 S271
S0
G1 X217.399 S232
S0
G1 X217.526 S350
S0
G1 X217.653 S290
S0
G1 X217.780 S335
S0
G1 X217.907 S456
S0
G1 X218.034 S529
S0
G1 X218.161 S569
S0
G1 X218.288 S383
S0
G1 X218.415 S213
S0
G1 X218.542 S525
S0
G1 X218.669 S668
S0
G1 X218.796 S281
S0
G1 X218.923 S278
S0
G1 X219.050 S268
S0
G1 X219.177 S283
S0
G1 X219.304 S294
S0
G1 X219.431 S319
S0
G1 X219.558 S346
S0
G1 X219.685 S403
S0
G1 X219.812 S351
S0
G1 X219.939 S319
S0
G1 X220.066 S294
S0
G1 X220.193 S315
S0
G1 X220.320 S345
S0
G1 X220.447 S374
S0
G1 X220.574 S271
S0
G1 X220.701 S130
S0
G1 X220.828 S67
S0
G1 X220.955 S78
S0
G1 X221.082 S82
S0
G1 X221.209 S75
S0
G1 X221.336 S98
S0
G1 X221.463 S224
S0
G1 X221.590 S121
S0
G1 X221.717 S86
S0
G1 X221.844 S107
S0
G1 X221.971 S86
S0
G1 X222.098 S48
S0
G1 X222.225 S2
S0
G1 X222.352 S1
S0
G1 X238.989 S2
S0
G1 X239.116 S193
S0
G0 Y46.609
G0 X239.116 S0
G1 X238.989 S193
S0
G1 X222.352 S2
S0
G1 X222.225 S1
S0
G1 X222.098 S52
S0
G1 X221.971 S122
S0
G1 X221.844 S106
S0
G1 X221.717 S92
S0
G1 X221.590 S76
S0
G1 X221.463 S208
S0
G1 X221.336 S179
S0
G1 X221.209 S65
S0
G1 X221.082 S62
S0
G1 X220.955 S59
S0
G1 X220.828 S86
S0
G1 X220.701 S71
S0
G1 X220.574 S164
S0
G1 X220.447 S308
S0
G1 X220.320 S409
S0
G1 X220.193 S352
S0
G1 X220.066 S311
S0
G1 X219.939 S337
S0
G1 X219.812 S347
S0
G1 X219.685 S331
S0
G1 X219.558 S401
S0
G1 X219.431 S332
S0
G1 X219.304 S326
S0
G1 X219.177 S287
S0
G1 X219.050 S261
S0
G1 X218.923 S498
S0
G1 X218.796 S345
S0
G1 X218.669 S448
S0
G1 X218.542 S878
S0
G1 X218.415 S417
S0
G1 X218.288 S412
S0
G1 X218.161 S797
S0
G1 X218.034 S721
S0
G1 X217.907 S404
S0
G1 X217.780 S181
S0
G1 X217.653 S434
S0
G1 X217.526 S608
S0
G1 X217.399 S460
S0
G1 X217.272 S264
S0
G1 X217.145 S119
S0
G1 X217.018 S71
S0
G1 X216.891 S275
S0
G1 X216.764 S626
S0
G1 X216.637 S758
S0
G1 X216.510 S880
S0
G1 X216.383 S409
S0
G1 X216.256 S61
S0
G1 X216.129 S237
S0
G1 X216.002 S180
S0
G1 X215.875 S212
S0
G1 X215.621 S209
S0
G1 X215.494 S221
S0
G1 X215.367 S75
S0
G1 X215.240 S71
S0
G1 X215.113 S56
S0
G1 X214.986 S580
S0
G1 X214.859 S327
S0
G1 X214.732 S2
S0
G1 X214.605 S87
S0
G1 X214.478 S92
S0
G1 X214.224 S94
S0
G1 X212.192 S95
S0
G1 X212.065 S94
S0
G1 X211.938 S99
S0
G1 X211.811 S94
S0
G1 X211.684 S84
S0
G1 X211.557 S121
S0
G1 X211.430 S176
S0
G1 X211.303 S138
S0
G1 X211.176 S71
S0
G1 X210.922 S5
S0
G1 X210.668 S1
S0
G1 X210.541 S7
S0
G1 X210.287 S2
S0
G1 X210.160 S5
S0
G1 X200.127 S2
S0
G1 X200.000 S193
S0
G0 Y46.482
G0 X200.000 S0
G1 X200.127 S193
S0
G1 X210.414 S2
S0
G1 X210.541 S5
S0
G1 X210.668 S2
S0
G1 X210.795 S5
S0
G1 X210.922 S90
S0
G1 X211.049 S170
S0
G1 X211.176 S224
S0
G1 X211.303 S262
S0
G1 X211.430 S287
S0
G1 X211.557 S254
S0
G1 X211.684 S98
S0
G1 X211.811 S80
S0
G1 X211.938 S97
S0
G1 X212.065 S95
S0
G1 X212.192 S94
S0
G1 X214.224 S95
S0
G1 X214.351 S94
S0
G1 X214.478 S95
S0
G1 X214.605 S97
S0
G1 X214.732 S90
S0
G1 X214.859 S7
S0
G1 X214.986 S431
S0
G1 X215.113 S488
S0
G1 X215.240 S13
S0
G1 X215.494 S90
S0
G1 X215.621 S247
S0
G1 X215.748 S204
S0
G1 X215.875 S231
S0
G1 X216.002 S201
S0
G1 X216.129 S252
S0
G1 X216.256 S239
S0
G1 X216.383 S115
S0
G1 X216.510 S75
S0
G1 X216.637 S160
S0
G1 X216.764 S234
S0
G1 X216.891 S113
S0
G1 X217.018 S97
S0
G1 X217.145 S113
S0
G1 X217.272 S259
S0
G1 X217.399 S567
S0
G1 X217.526 S632
S0
G1 X217.653 S463
S0
G1 X217.780 S256
S0
G1 X217.907 S373
S0
G1 X218.034 S557
S0
G1 X218.161 S621
S0
G1 X218.288 S710
S0
G1 X218.415 S623
S0
G1 X218.542 S485
S0
G1 X218.669 S717
S0
G1 X218.796 S581
S0
G1 X218.923 S408
S0
G1 X219.050 S863
S0
G1 X219.177 S500
S0
G1 X219.304 S245
S0
G1 X219.431 S334
S0
G1 X219.558 S332
S0
G1 X219.685 S328
S0
G1 X219.812 S330
S0
G1 X219.939 S275
S0
G1 X220.066 S313
S0
G1 X220.193 S348
S0
G1 X220.320 S322
S0
G1 X220.574 S345
S0
G1 X220.701 S220
S0
G1 X220.828 S90
S0
G1 X220.955 S50
S0
G1 X221.082 S149
S0
G1 X221.209 S109
S0
G1 X221.336 S51
S0
G1 X221.463 S105
S0
G1 X221.590 S242
S0
G1 X221.717 S132
S0
G1 X221.844 S74
S0
G1 X221.971 S94
S0
G1 X222.098 S106
S0
G1 X222.225 S95
S0
G1 X222.352 S16
S0
G1 X222.479 S2
S0
G1 X222.606 S5
S0
G1 X238.989 S2
S0
G1 X239.116 S193
S0
G0 Y46.355
G0 X239.116 S0
G1 X238.989 S193
S0
G1 X222.733 S2
S0
G1 X222.479 S5
S0
G1 X222.352 S2
S0
G1 X222.225 S44
S0
G1 X222.098 S114
S0
G1 X221.971 S90
S0
G1 X221.844 S99
S0
G1 X221.717 S79
S0
G1 X221.590 S212
S0
G1 X221.463 S205
S0
G1 X221.336 S59
S0
G1 X221.209 S41
S0
G1 X221.082 S232
S0
G1 X220.955 S217
S0
G1 X220.828 S28
S0
G1 X220.701 S133
S0
G1 X220.574 S291
S0
G1 X220.447 S369
S0
G1 X220.320 S222
S0
G1 X220.193 S276
S0
G1 X220.066 S409
S0
G1 X219.939 S224
S0
G1 X219.812 S187
S0
G1 X219.685 S366
S0
G1 X219.558 S300
S0
G1 X219.431 S330
S0
G1 X219.304 S354
S0
G1 X219.177 S311
S0
G1 X219.050 S428
S0
G1 X218.923 S359
S0
G1 X218.796 S235
S0
G1 X218.669 S248
S0
G1 X218.542 S182
S0
G1 X218.415 S290
S0
G1 X218.288 S243
S0
G1 X218.161 S337
S0
G1 X218.034 S831
S0
G1 X217.907 S654
S0
G1 X217.780 S474
S0
G1 X217.653 S565
S0
G1 X217.526 S583
S0
G1 X217.399 S603
S0
G1 X217.272 S658
S0
G1 X217.145 S627
S0
G1 X217.018 S200
S0
G1 X216.891 S105
S0
G1 X216.764 S130
S0
G1 X216.637 S102
S0
G1 X216.510 S105
S0
G1 X216.383 S145
S0
G1 X216.256 S117
S0
G1 X216.129 S101
S0
G1 X216.002 S131
S0
G1 X215.875 S152
S0
G1 X215.748 S213
S0
G1 X215.621 S255
S0
G1 X215.494 S276
S0
G1 X215.367 S88
S0
G1 X215.240 S213
S0
G1 X215.113 S43
S0
G1 X214.986 S366
S0
G1 X214.859 S451
S0
G1 X214.732 S62
S0
G1 X214.605 S117
S0
G1 X214.478 S87
S0
G1 X214.351 S99
S0
G1 X214.224 S91
S0
G1 X212.065 S95
S0
G1 X211.811 S94
S0
G1 X211.684 S95
S0
G1 X211.557 S87
S0
G1 X211.430 S98
S0
G1 X211.303 S141
S0
G1 X211.176 S181
S0
G1 X211.049 S189
S0
G1 X210.922 S196
S0
G1 X210.795 S215
S0
G1 X210.668 S146
S0
G1 X210.541 S5
S0
G1 X210.414 S1
S0
G1 X210.287 S2
S0
G1 X210.160 S5
S0
G1 X200.127 S2
S0
G1 X200.000 S193
S0
G0 Y46.228
G0 X200.000 S0
G1 X200.127 S193
S0
G1 X210.160 S2
S0
G1 X210.287 S5
S0
G1 X210.414 S2
S0
G1 X210.541 S13
S0
G1 X210.668 S133
S0
G1 X210.795 S172
S0
G1 X210.922 S91
S0
G1 X211.049 S60
S0
G1 X211.176 S70
S0
G1 X211.303 S67
S0
G1 X211.430 S76
S0
G1 X211.557 S86
S0
G1 X211.684 S94
S0
G1 X211.811 S97
S0
G1 X211.938 S91
S0
G1 X214.224 S95
S0
G1 X214.351 S99
S0
G1 X214.478 S87
S0
G1 X214.605 S82
S0
G1 X214.732 S135
S0
G1 X214.859 S131
S0
G1 X214.986 S341
S0
G1 X215.113 S235
S0
G1 X215.240 S185
S0
G1 X215.367 S413
S0
G1 X215.494 S52
S0
G1 X215.621 S318
S0
G1 X215.748 S252
S0
G1 X215.875 S114
S0
G1 X216.002 S374
S0
G1 X216.129 S388
S0
G1 X216.256 S303
S0
G1 X216.383 S121
S0
G1 X216.510 S87
S0
G1 X216.637 S150
S0
G1 X216.764 S142
S0
G1 X216.891 S141
S0
G1 X217.018 S114
S0
G1 X217.145 S173
S0
G1 X217.272 S520
S0
G1 X217.399 S607
S0
G1 X217.526 S549
S0
G1 X217.653 S650
S0
G1 X217.780 S363
S0
G1 X217.907 S28
S0
G1 X218.034 S783
S0
G1 X218.161 S769
S0
G1 X218.288 S207
S0
G1 X218.415 S248
S0
G1 X218.542 S168
S0
G1 X218.669 S116
S0
G1 X218.796 S142
S0
G1 X218.923 S144
S0
G1 X219.050 S122
S0
G1 X219.177 S204
S0
G1 X219.304 S288
S0
G1 X219.431 S358
S0
G1 X219.558 S340
S0
G1 X219.685 S279
S0
G1 X219.812 S318
S0
G1 X219.939 S240
S0
G1 X220.066 S263
S0
G1 X220.193 S428
S0
G1 X220.320 S260
S0
G1 X220.447 S228
S0
G1 X220.574 S357
S0
G1 X220.701 S338
S0
G1 X220.828 S216
S0
G1 X220.955 S80
S0
G1 X221.082 S110
S0
G1 X221.209 S260
S0
G1 X221.336 S81
S0
G1 X221.463 S51
S0
G1 X221.590 S129
S0
G1 X221.717 S251
S0
G1 X221.844 S109
S0
G1 X221.971 S74
S0
G1 X222.098 S94
S0
G1 X222.225 S101
S0
G1 X222.352 S75
S0
G1 X222.987 S2
S0
G1 X223.114 S5
S0
G1 X238.989 S2
S0
G1 X239.116 S193
S0
G0 Y46.101
G0 X239.116 S0
G1 X238.989 S193
S0
G1 X222.479 S2
S0
G1 X222.352 S20
S0
G1 X222.225 S99
S0
G1 X222.098 S101
S0
G1 X221.971 S88
S0
G1 X221.844 S59
S0
G1 X221.717 S169
S0
G1 X221.590 S234
S0
G1 X221.463 S65
S0
G1 X221.336 S43
S0
G1 X221.209 S166
S0
G1 X221.082 S252
S0
G1 X220.955 S39
S0
G1 X220.828 S133
S0
G1 X220.701 S306
S0
G1 X220.574 S363
S0
G1 X220.447 S354
S0
G1 X220.320 S316
S0
G1 X220.193 S248
S0
G1 X220.066 S386
S0
G1 X219.939 S295
S0
G1 X219.812 S261
S0
G1 X219.685 S280
S0
G1 X219.558 S294
S0
G1 X219.431 S339
S0
G1 X219.304 S343
S0
G1 X219.177 S228
S0
G1 X219.050 S150
S0
G1 X218.923 S161
S0
G1 X218.796 S166
S0
G1 X218.669 S168
S0
G1 X218.542 S167
S0
G1 X218.415 S144
S0
G1 X218.288 S224
S0
G1 X218.161 S219
S0
G1 X218.034 S563
S0
G1 X217.907 S846
S0
G1 X217.780 S163
S0
G1 X217.653 S557
S0
G1 X217.526 S659
S0
G1 X217.399 S278
S0
G1 X217.272 S200
S0
G1 X217.145 S146
S0
G1 X217.018 S121
S0
G1 X216.891 S149
S0
G1 X216.764 S146
S0
G1 X216.637 S142
S0
G1 X216.510 S107
S0
G1 X216.383 S161
S0
G1 X216.256 S419
S0
G1 X216.129 S411
S0
G1 X216.002 S333
S0
G1 X215.875 S490
S0
G1 X215.748 S305
S0
G1 X215.621 S373
S0
G1 X215.494 S282
S0
G1 X215.367 S28
S0
G1 X215.240 S382
S0
G1 X215.113 S180
S0
G1 X214.986 S217
S0
G1 X214.859 S334
S0
G1 X214.732 S197
S0
G1 X214.605 S125
S0
G1 X214.478 S85
S0
G1 X212.192 S95
S0
G1 X211.938 S94
S0
G1 X211.811 S95
S0
G1 X211.430 S91
S0
G1 X211.049 S95
S0
G1 X210.922 S90
S0
G1 X210.795 S91
S0
G1 X210.668 S79
S0
G1 X210.541 S129
S0
G1 X210.414 S110
S0
G1 X210.287 S9
S0
G1 X200.127 S2
S0
G1 X200.000 S193
S0
G0 Y45.974
G0 X200.000 S0
G1 X200.127 S193
S0
G1 X209.144 S2
S0
G1 X209.271 S1
S0
G1 X209.398 S5
S0
G1 X209.652 S2
S0
G1 X209.779 S1
S0
G1 X210.160 S2
S0
G1 X210.287 S7
S0
G1 X210.414 S95
S0
G1 X210.541 S103
S0
G1 X210.668 S87
S0
G1 X210.795 S95
S0
G1 X210.922 S91
S0
G1 X211.049 S95
S0
G1 X211.176 S91
S0
G1 X213.462 S95
S0
G1 X213.589 S99
S0
G1 X214.224 S95
S0
G1 X214.351 S94
S0
G1 X214.478 S90
S0
G1 X214.605 S99
S0
G1 X214.732 S62
S0
G1 X214.859 S245
S0
G1 X214.986 S462
S0
G1 X215.113 S220
S0
G1 X215.240 S119
S0
G1 X215.367 S412
S0
G1 X215.494 S122
S0
G1 X215.621 S77
S0
G1 X215.748 S500
S0
G1 X215.875 S541
S0
G1 X216.002 S317
S0
G1 X216.129 S286
S0
G1 X216.256 S376
S0
G1 X216.383 S574
S0
G1 X216.510 S458
S0
G1 X216.637 S107
S0
G1 X216.764 S121
S0
G1 X216.891 S139
S0
G1 X217.018 S142
S0
G1 X217.145 S148
S0
G1 X217.272 S117
S0
G1 X217.399 S87
S0
G1 X217.526 S117
S0
G1 X217.653 S377
S0
G1 X217.780 S744
S0
G1 X217.907 S663
S0
G1 X218.034 S538
S0
G1 X218.161 S248
S0
G1 X218.288 S172
S0
G1 X218.415 S134
S0
G1 X218.542 S161
S0
G1 X218.669 S167
S0
G1 X218.796 S178
S0
G1 X218.923 S128
S0
G1 X219.050 S141
S0
G1 X219.177 S303
S0
G1 X219.304 S309
S0
G1 X219.431 S269
S0
G1 X219.558 S350
S0
G1 X219.685 S279
S0
G1 X219.812 S315
S0
G1 X219.939 S267
S0
G1 X220.066 S271
S0
G1 X220.193 S331
S0
G1 X220.320 S197
S0
G1 X220.447 S196
S0
G1 X220.574 S236
S0
G1 X220.701 S278
S0
G1 X220.828 S255
S0
G1 X220.955 S130
S0
G1 X221.082 S36
S0
G1 X221.209 S201
S0
G1 X221.336 S239
S0
G1 X221.463 S36
S0
G1 X221.590 S51
S0
G1 X221.717 S169
S0
G1 X221.844 S207
S0
G1 X221.971 S65
S0
G1 X222.098 S78
S0
G1 X222.225 S92
S0
G1 X222.352 S114
S0
G1 X222.479 S48
S0
G1 X222.733 S2
S0
G1 X222.860 S5
S0
G1 X222.987 S2
S0
G1 X223.114 S5
S0
G1 X238.989 S2
S0
G1 X239.116 S193
S0
G0 Y45.847
G0 X239.116 S0
G1 X238.989 S193
S0
G1 X222.479 S2
S0
G1 X222.352 S79
S0
G1 X222.225 S104
S0
G1 X222.098 S86
S0
G1 X221.971 S221
S0
G1 X221.844 S279
S0
G1 X221.717 S205
S0
G1 X221.590 S102
S0
G1 X221.463 S62
S0
G1 X221.336 S93
S0
G1 X221.209 S272
S0
G1 X221.082 S118
S0
G1 X220.955 S62
S0
G1 X220.828 S147
S0
G1 X220.701 S94
S0
G1 X220.574 S85
S0
G1 X220.447 S157
S0
G1 X220.320 S192
S0
G1 X220.193 S172
S0
G1 X220.066 S275
S0
G1 X219.939 S261
S0
G1 X219.812 S291
S0
G1 X219.685 S327
S0
G1 X219.558 S267
S0
G1 X219.431 S362
S0
G1 X219.304 S295
S0
G1 X219.177 S168
S0
G1 X219.050 S299
S0
G1 X218.923 S325
S0
G1 X218.796 S205
S0
G1 X218.669 S118
S0
G1 X218.542 S156
S0
G1 X218.415 S158
S0
G1 X218.288 S161
S0
G1 X218.161 S146
S0
G1 X218.034 S99
S0
G1 X217.907 S88
S0
G1 X217.780 S267
S0
G1 X217.653 S223
S0
G1 X217.526 S86
S0
G1 X217.399 S122
S0
G1 X217.272 S146
S0
G1 X217.145 S140
S0
G1 X217.018 S142
S0
G1 X216.764 S138
S0
G1 X216.637 S126
S0
G1 X216.510 S118
S0
G1 X216.383 S369
S0
G1 X216.256 S768
S0
G1 X216.129 S678
S0
G1 X216.002 S544
S0
G1 X215.875 S415
S0
G1 X215.748 S513
S0
G1 X215.621 S309
S0
G1 X215.494 S2
S0
G1 X215.367 S271
S0
G1 X215.240 S313
S0
G1 X215.113 S64
S0
G1 X214.986 S231
S0
G1 X214.859 S563
S0
G1 X214.732 S173
S0
G1 X214.605 S43
S0
G1 X214.478 S95
S0
G1 X214.351 S100
S0
G1 X210.922 S95
S0
G1 X210.795 S91
S0
G1 X210.668 S95
S0
G1 X210.541 S91
S0
G1 X210.414 S95
S0
G1 X210.287 S103
S0
G1 X210.160 S83
S0
G1 X210.033 S5
S0
G1 X209.906 S1
S0
G1 X209.779 S5
S0
G1 X209.525 S1
S0
G1 X209.398 S2
S0
G1 X209.271 S1
S0
G1 X200.127 S2
S0
G1 X200.000 S193
S0
G0 Y45.720
G0 X200.000 S0
G1 X200.127 S193
S0
G1 X209.144 S2
S0
G1 X209.271 S3
S0
G1 X209.398 S1
S0
G1 X209.525 S9
S0
G1 X209.652 S7
S0
G1 X209.779 S5
S0
G1 X209.906 S1
S0
G1 X210.033 S7
S0
G1 X210.160 S84
S0
G1 X210.287 S106
S0
G1 X210.414 S95
S0
G1 X210.541 S91
S0
G1 X213.970 S95
S0
G1 X214.097 S91
S0
G1 X214.478 S95
S0
G1 X214.605 S91
S0
G1 X214.732 S95
S0
G1 X214.859 S40
S0
G1 X214.986 S369
S0
G1 X215.113 S248
S0
G1 X215.240 S126
S0
G1 X215.367 S157
S0
G1 X215.494 S264
S0
G1 X215.621 S30
S0
G1 X215.748 S74
S0
G1 X215.875 S456
S0
G1 X216.002 S792
S0
G1 X216.129 S635
S0
G1 X216.256 S376
S0
G1 X216.383 S412
S0
G1 X216.510 S58
S0
G1 X216.637 S118
S0
G1 X216.764 S133
S0
G1 X216.891 S137
S0
G1 X217.018 S138
S0
G1 X217.145 S139
S0
G1 X217.399 S142
S0
G1 X217.526 S144
S0
G1 X217.653 S142
S0
G1 X217.780 S98
S0
G1 X217.907 S101
S0
G1 X218.034 S142
S0
G1 X218.161 S149
S0
G1 X218.288 S157
S0
G1 X218.415 S156
S0
G1 X218.542 S133
S0
G1 X218.669 S148
S0
G1 X218.796 S257
S0
G1 X218.923 S298
S0
G1 X219.050 S209
S0
G1 X219.177 S110
S0
G1 X219.304 S153
S0
G1 X219.431 S275
S0
G1 X219.558 S310
S0
G1 X219.685 S305
S0
G1 X219.812 S400
S0
G1 X219.939 S408
S0
G1 X220.066 S403
S0
G1 X220.193 S408
S0
G1 X220.320 S474
S0
G1 X220.447 S564
S0
G1 X220.574 S176
S0
G1 X220.701 S1
S0
G1 X220.828 S252
S0
G1 X220.955 S320
S0
G1 X221.082 S71
S0
G1 X221.209 S40
S0
G1 X221.336 S261
S0
G1 X221.463 S177
S0
G1 X221.590 S43
S0
G1 X221.717 S64
S0
G1 X221.844 S263
S0
G1 X221.971 S388
S0
G1 X222.098 S309
S0
G1 X222.225 S99
S0
G1 X222.352 S86
S0
G1 X222.479 S99
S0
G1 X222.606 S12
S0
G1 X222.733 S5
S0
G1 X223.114 S2
S0
G1 X223.241 S5
S0
G1 X238.989 S2
S0
G1 X239.116 S193
S0
G0 Y45.593
G0 X239.116 S0
G1 X238.989 S193
S0
G1 X223.114 S2
S0
G1 X222.987 S5
S0
G1 X222.606 S2
S0
G1 X222.479 S35
S0
G1 X222.352 S114
S0
G1 X222.225 S94
S0
G1 X222.098 S44
S0
G1 X221.971 S220
S0
G1 X221.844 S399
S0
G1 X221.717 S293
S0
G1 X221.590 S61
S0
G1 X221.463 S35
S0
G1 X221.336 S245
S0
G1 X221.209 S202
S0
G1 X221.082 S13
S0
G1 X220.955 S153
S0
G1 X220.828 S366
S0
G1 X220.701 S241
S0
G1 X220.574 S166
S0
G1 X220.447 S13
S0
G1 X220.320 S315
S0
G1 X220.193 S632
S0
G1 X220.066 S576
S0
G1 X219.939 S520
S0
G1 X219.812 S473
S0
G1 X219.685 S454
S0
G1 X219.558 S435
S0
G1 X219.431 S342
S0
G1 X219.304 S376
S0
G1 X219.177 S170
S0
G1 X219.050 S91
S0
G1 X218.796 S129
S0
G1 X218.669 S232
S0
G1 X218.542 S264
S0
G1 X218.415 S200
S0
G1 X218.288 S134
S0
G1 X218.161 S141
S0
G1 X217.907 S153
S0
G1 X217.780 S146
S0
G1 X217.653 S137
S0
G1 X217.526 S140
S0
G1 X217.399 S146
S0
G1 X217.272 S137
S0
G1 X217.145 S139
S0
G1 X217.018 S133
S0
G1 X216.764 S134
S0
G1 X216.637 S135
S0
G1 X216.510 S83
S0
G1 X216.383 S79
S0
G1 X216.256 S44
S0
G1 X216.129 S592
S0
G1 X216.002 S626
S0
G1 X215.875 S294
S0
G1 X215.748 S231
S0
G1 X215.621 S5
S0
G1 X215.494 S137
S0
G1 X215.367 S202
S0
G1 X215.240 S179
S0
G1 X215.113 S165
S0
G1 X214.986 S106
S0
G1 X214.859 S109
S0
G1 X214.732 S69
S0
G1 X214.605 S91
S0
G1 X213.462 S95
S0
G1 X213.335 S91
S0
G1 X210.795 S95
S0
G1 X210.668 S91
S0
G1 X210.414 S95
S0
G1 X210.287 S91
S0
G1 X210.160 S95
S0
G1 X210.033 S109
S0
G1 X209.906 S115
S0
G1 X209.779 S35
S0
G1 X209.652 S2
S0
G1 X209.398 S5
S0
G1 X209.271 S2
S0
G1 X209.144 S1
S0
G1 X200.127 S2
S0
G1 X200.000 S193
S0
G0 Y45.466
G0 X200.000 S0
G1 X200.127 S193
S0
G1 X209.271 S2
S0
G1 X209.398 S5
S0
G1 X209.525 S9
S0
G1 X209.652 S2
S0
G1 X209.779 S82
S0
G1 X209.906 S236
S0
G1 X210.033 S156
S0
G1 X210.922 S95
S0
G1 X211.049 S91
S0
G1 X213.208 S95
S0
G1 X213.335 S91
S0
G1 X213.970 S95
S0
G1 X214.097 S99
S0
G1 X214.224 S91
S0
G1 X214.351 S95
S0
G1 X214.478 S90
S0
G1 X214.605 S94
S0
G1 X214.732 S90
S0
G1 X214.859 S103
S0
G1 X214.986 S75
S0
G1 X215.113 S76
S0
G1 X215.240 S70
S0
G1 X215.367 S122
S0
G1 X215.494 S290
S0
G1 X215.621 S322
S0
G1 X215.748 S247
S0
G1 X215.875 S152
S0
G1 X216.002 S5
S0
G1 X216.129 S269
S0
G1 X216.256 S356
S0
G1 X216.383 S28
S0
G1 X216.510 S209
S0
G1 X216.637 S379
S0
G1 X216.764 S103
S0
G1 X216.891 S130
S0
G1 X217.018 S129
S0
G1 X217.145 S130
S0
G1 X217.272 S134
S0
G1 X217.526 S133
S0
G1 X217.653 S137
S0
G1 X217.780 S149
S0
G1 X217.907 S140
S0
G1 X218.034 S150
S0
G1 X218.161 S145
S0
G1 X218.288 S162
S0
G1 X218.415 S223
S0
G1 X218.542 S229
S0
G1 X218.669 S166
S0
G1 X218.923 S121
S0
G1 X219.050 S74
S0
G1 X219.177 S274
S0
G1 X219.304 S697
S0
G1 X219.431 S674
S0
G1 X219.558 S387
S0
G1 X219.685 S432
S0
G1 X219.812 S478
S0
G1 X219.939 S533
S0
G1 X220.066 S495
S0
G1 X220.193 S631
S0
G1 X220.320 S495
S0
G1 X220.447 S9
S0
G1 X220.574 S166
S0
G1 X220.701 S355
S0
G1 X220.828 S35
S0
G1 X220.955 S227
S0
G1 X221.082 S279
S0
G1 X221.209 S25
S0
G1 X221.336 S114
S0
G1 X221.463 S273
S0
G1 X221.590 S86
S0
G1 X221.717 S35
S0
G1 X221.844 S189
S0
G1 X221.971 S390
S0
G1 X222.098 S288
S0
G1 X222.225 S139
S0
G1 X222.352 S83
S0
G1 X222.479 S105
S0
G1 X222.606 S67
S0
G1 X238.989 S2
S0
G1 X239.116 S193
S0
G0 Y45.339
G0 X239.116 S0
G1 X238.989 S193
S0
G1 X223.241 S2
S0
G1 X223.114 S5
S0
G1 X222.733 S2
S0
G1 X222.606 S5
S0
G1 X222.479 S86
S0
G1 X222.352 S78
S0
G1 X222.225 S138
S0
G1 X222.098 S340
S0
G1 X221.971 S348
S0
G1 X221.844 S315
S0
G1 X221.717 S91
S0
G1 X221.590 S30
S0
G1 X221.463 S174
S0
G1 X221.336 S255
S0
G1 X221.209 S28
S0
G1 X221.082 S115
S0
G1 X220.955 S326
S0
G1 X220.828 S55
S0
G1 X220.701 S160
S0
G1 X220.574 S398
S0
G1 X220.447 S334
S0
G1 X220.320 S17
S0
G1 X220.193 S176
S0
G1 X220.066 S630
S0
G1 X219.939 S528
S0
G1 X219.812 S451
S0
G1 X219.685 S513
S0
G1 X219.558 S443
S0
G1 X219.431 S436
S0
G1 X219.304 S341
S0
G1 X219.177 S535
S0
G1 X219.050 S723
S0
G1 X218.923 S475
S0
G1 X218.796 S145
S0
G1 X218.669 S86
S0
G1 X218.542 S138
S0
G1 X218.415 S126
S0
G1 X218.288 S184
S0
G1 X218.161 S177
S0
G1 X218.034 S122
S0
G1 X217.907 S142
S0
G1 X217.780 S147
S0
G1 X217.526 S137
S0
G1 X217.399 S138
S0
G1 X217.272 S134
S0
G1 X217.145 S135
S0
G1 X217.018 S131
S0
G1 X216.891 S130
S0
G1 X216.764 S122
S0
G1 X216.637 S66
S0
G1 X216.510 S470
S0
G1 X216.383 S477
S0
G1 X216.256 S44
S0
G1 X216.129 S51
S0
G1 X216.002 S70
S0
G1 X215.875 S79
S0
G1 X215.748 S335
S0
G1 X215.621 S514
S0
G1 X215.494 S440
S0
G1 X215.367 S412
S0
G1 X215.240 S185
S0
G1 X215.113 S32
S0
G1 X214.986 S87
S0
G1 X214.859 S95
S0
G1 X214.732 S94
S0
G1 X214.605 S100
S0
G1 X214.478 S91
S0
G1 X214.351 S97
S0
G1 X214.224 S74
S0
G1 X214.097 S87
S0
G1 X213.843 S91
S0
G1 X213.335 S95
S0
G1 X213.208 S91
S0
G1 X210.541 S95
S0
G1 X210.414 S91
S0
G1 X210.033 S95
S0
G1 X209.906 S64
S0
G1 X209.779 S149
S0
G1 X209.652 S279
S0
G1 X209.525 S52
S0
G1 X209.398 S2
S0
G1 X209.271 S5
S0
G1 X200.127 S2
S0
G1 X200.000 S193
S0
G0 Y45.212
G0 X200.000 S0
G1 X200.127 S193
S0
G1 X209.144 S2
S0
G1 X209.271 S9
S0
G1 X209.398 S1
S0
G1 X209.525 S51
S0
G1 X209.652 S290
S0
G1 X209.779 S184
S0
G1 X209.906 S55
S0
G1 X210.033 S99
S0
G1 X210.668 S95
S0
G1 X210.795 S91
S0
G1 X213.970 S95
S0
G1 X214.097 S83
S0
G1 X214.224 S138
S0
G1 X214.351 S125
S0
G1 X214.478 S70
S0
G1 X214.605 S101
S0
G1 X214.732 S95
S0
G1 X214.859 S100
S0
G1 X214.986 S86
S0
G1 X215.113 S40
S0
G1 X215.240 S230
S0
G1 X215.367 S444
S0
G1 X215.494 S408
S0
G1 X215.621 S391
S0
G1 X215.748 S411
S0
G1 X215.875 S393
S0
G1 X216.002 S134
S0
G1 X216.129 S98
S0
G1 X216.256 S51
S0
G1 X216.383 S318
S0
G1 X216.510 S430
S0
G1 X216.637 S79
S0
G1 X216.764 S107
S0
G1 X216.891 S131
S0
G1 X217.018 S126
S0
G1 X217.145 S130
S0
G1 X217.272 S135
S0
G1 X217.399 S134
S0
G1 X217.526 S135
S0
G1 X217.780 S139
S0
G1 X217.907 S141
S0
G1 X218.034 S139
S0
G1 X218.161 S138
S0
G1 X218.288 S130
S0
G1 X218.415 S134
S0
G1 X218.542 S109
S0
G1 X218.669 S101
S0
G1 X218.796 S310
S0
G1 X218.923 S547
S0
G1 X219.050 S542
S0
G1 X219.177 S267
S0
G1 X219.304 S74
S0
G1 X219.431 S332
S0
G1 X219.558 S467
S0
G1 X219.685 S454
S0
G1 X219.812 S474
S0
G1 X219.939 S466
S0
G1 X220.066 S614
S0
G1 X220.193 S391
S0
G1 X220.320 S9
S0
G1 X220.447 S209
S0
G1 X220.574 S373
S0
G1 X220.701 S345
S0
G1 X220.828 S291
S0
G1 X220.955 S20
S0
G1 X221.082 S251
S0
G1 X221.209 S232
S0
G1 X221.336 S11
S0
G1 X221.463 S201
S0
G1 X221.590 S235
S0
G1 X221.717 S43
S0
G1 X221.844 S39
S0
G1 X221.971 S239
S0
G1 X222.098 S333
S0
G1 X222.225 S161
S0
G1 X222.352 S106
S0
G1 X222.479 S87
S0
G1 X222.606 S101
S0
G1 X222.733 S32
S0
G1 X222.860 S2
S0
G1 X222.987 S5
S0
G1 X238.989 S2
S0
G1 X239.116 S193
S0
G0 Y45.085
G0 X239.116 S0
G1 X238.989 S193
S0
G1 X222.733 S2
S0
G1 X222.606 S72
S0
G1 X222.479 S109
S0
G1 X222.352 S91
S0
G1 X222.225 S43
S0
G1 X222.098 S138
S0
G1 X221.971 S338
S0
G1 X221.844 S138
S0
G1 X221.717 S47
S0
G1 X221.590 S78
S0
G1 X221.463 S256
S0
G1 X221.336 S110
S0
G1 X221.209 S55
S0
G1 X221.082 S287
S0
G1 X220.955 S95
S0
G1 X220.828 S123
S0
G1 X220.701 S359
S0
G1 X220.574 S326
S0
G1 X220.447 S333
S0
G1 X220.320 S370
S0
G1 X220.193 S122
S0
G1 X220.066 S47
S0
G1 X219.939 S356
S0
G1 X219.812 S494
S0
G1 X219.685 S516
S0
G1 X219.558 S502
S0
G1 X219.431 S442
S0
G1 X219.304 S454
S0
G1 X219.177 S204
S0
G1 X219.050 S61
S0
G1 X218.923 S98
S0
G1 X218.796 S283
S0
G1 X218.669 S459
S0
G1 X218.542 S385
S0
G1 X218.415 S200
S0
G1 X218.288 S117
S0
G1 X218.161 S139
S0
G1 X217.907 S140
S0
G1 X217.780 S135
S0
G1 X217.653 S134
S0
G1 X217.526 S133
S0
G1 X217.399 S134
S0
G1 X217.145 S130
S0
G1 X217.018 S123
S0
G1 X216.891 S130
S0
G1 X216.764 S122
S0
G1 X216.637 S125
S0
G1 X216.510 S94
S0
G1 X216.383 S28
S0
G1 X216.256 S458
S0
G1 X216.129 S324
S0
G1 X216.002 S12
S0
G1 X215.875 S240
S0
G1 X215.748 S451
S0
G1 X215.621 S397
S0
G1 X215.494 S392
S0
G1 X215.367 S384
S0
G1 X215.240 S401
S0
G1 X215.113 S446
S0
G1 X214.986 S196
S0
G1 X214.859 S43
S0
G1 X214.732 S95
S0
G1 X214.605 S94
S0
G1 X214.478 S82
S0
G1 X214.351 S91
S0
G1 X214.224 S322
S0
G1 X214.097 S181
S0
G1 X213.970 S59
S0
G1 X213.716 S95
S0
G1 X213.589 S91
S0
G1 X213.462 S95
S0
G1 X213.335 S91
S0
G1 X210.033 S95
S0
G1 X209.906 S94
S0
G1 X209.779 S96
S0
G1 X209.652 S74
S0
G1 X209.525 S164
S0
G1 X209.398 S187
S0
G1 X209.271 S15
S0
G1 X200.127 S2
S0
G1 X200.000 S193
S0
G0 Y44.958
G0 X200.000 S0
G1 X200.127 S193
S0
G1 X208.128 S2
S0
G0 X208.255 S0
G1 X209.144 S2
S0
G1 X209.271 S5
S0
G1 X209.398 S87
S0
G1 X209.525 S103
S0
G1 X209.652 S67
S0
G1 X209.779 S90
S0
G1 X209.906 S99
S0
G1 X210.033 S91
S0
G1 X213.208 S95
S0
G1 X213.589 S91
S0
G1 X213.970 S95
S0
G1 X214.097 S75
S0
G1 X214.224 S126
S0
G1 X214.351 S317
S0
G1 X214.478 S154
S0
G1 X214.605 S66
S0
G1 X214.732 S94
S0
G1 X214.859 S72
S0
G1 X214.986 S98
S0
G1 X215.113 S387
S0
G1 X215.240 S415
S0
G1 X215.367 S387
S0
G1 X215.621 S391
S0
G1 X215.748 S393
S0
G1 X215.875 S451
S0
G1 X216.002 S272
S0
G1 X216.129 S21
S0
G1 X216.256 S236
S0
G1 X216.383 S541
S0
G1 X216.510 S228
S0
G1 X216.637 S37
S0
G1 X216.764 S130
S0
G1 X216.891 S122
S0
G1 X217.018 S125
S0
G1 X217.272 S126
S0
G1 X217.399 S130
S0
G1 X217.526 S135
S0
G1 X217.653 S130
S0
G1 X217.780 S133
S0
G1 X217.907 S137
S0
G1 X218.034 S135
S0
G1 X218.161 S134
S0
G1 X218.288 S136
S0
G1 X218.415 S213
S0
G1 X218.542 S337
S0
G1 X218.669 S271
S0
G1 X218.796 S110
S0
G1 X218.923 S92
S0
G1 X219.050 S137
S0
G1 X219.177 S106
S0
G1 X219.304 S310
S0
G1 X219.431 S487
S0
G1 X219.558 S426
S0
G1 X219.685 S314
S0
G1 X219.812 S217
S0
G1 X219.939 S141
S0
G1 X220.066 S31
S0
G1 X220.193 S40
S0
G1 X220.320 S126
S0
G1 X220.447 S216
S0
G1 X220.574 S355
S0
G1 X220.701 S318
S0
G1 X220.828 S370
S0
G1 X220.955 S257
S0
G1 X221.082 S15
S0
G1 X221.209 S256
S0
G1 X221.336 S178
S0
G1 X221.463 S19
S0
G1 X221.590 S229
S0
G1 X221.717 S147
S0
G1 X221.844 S55
S0
G1 X221.971 S59
S0
G1 X222.098 S267
S0
G1 X222.225 S341
S0
G1 X222.352 S181
S0
G1 X222.479 S78
S0
G1 X222.606 S100
S0
G1 X222.733 S87
S0
G1 X222.860 S5
S0
G1 X222.987 S1
S0
G1 X223.114 S5
S0
G1 X223.241 S1
S0
G1 X223.368 S3
S0
G1 X238.989 S2
S0
G1 X239.116 S193
S0
G0 Y44.831
G0 X239.116 S0
G1 X238.989 S193
S0
G1 X223.114 S2
S0
G0 X222.987 S0
G1 X222.733 S2
S0
G1 X222.606 S59
S0
G1 X222.479 S96
S0
G1 X222.352 S180
S0
G1 X222.225 S298
S0
G1 X222.098 S330
S0
G1 X221.971 S156
S0
G1 X221.844 S43
S0
G1 X221.717 S51
S0
G1 X221.590 S193
S0
G1 X221.463 S186
S0
G1 X221.336 S16
S0
G1 X221.209 S245
S0
G1 X221.082 S138
S0
G1 X220.955 S85
S0
G1 X220.828 S339
S0
G1 X220.701 S330
S0
G1 X220.574 S331
S0
G1 X220.447 S343
S0
G1 X220.320 S106
S0
G1 X220.193 S18
S0
G1 X220.066 S188
S0
G1 X219.939 S121
S0
G1 X219.812 S7
S0
G1 X219.685 S16
S0
G1 X219.558 S24
S0
G1 X219.431 S387
S0
G1 X219.304 S497
S0
G1 X219.177 S388
S0
G1 X219.050 S145
S0
G1 X218.923 S133
S0
G1 X218.796 S153
S0
G1 X218.669 S142
S0
G1 X218.542 S101
S0
G1 X218.415 S126
S0
G1 X218.288 S188
S0
G1 X218.161 S169
S0
G1 X218.034 S138
S0
G1 X217.907 S131
S0
G1 X217.780 S135
S0
G1 X217.653 S131
S0
G1 X217.526 S126
S0
G1 X217.399 S127
S0
G1 X217.272 S125
S0
G1 X217.018 S122
S0
G1 X216.891 S121
S0
G1 X216.764 S126
S0
G1 X216.637 S58
S0
G1 X216.510 S271
S0
G1 X216.383 S670
S0
G1 X216.256 S211
S0
G1 X216.129 S33
S0
G1 X216.002 S71
S0
G1 X215.875 S278
S0
G1 X215.748 S445
S0
G1 X215.621 S389
S0
G1 X215.494 S392
S0
G1 X215.367 S388
S0
G1 X215.240 S389
S0
G1 X215.113 S376
S0
G1 X214.986 S439
S0
G1 X214.859 S244
S0
G1 X214.732 S43
S0
G1 X214.605 S94
S0
G1 X214.478 S91
S0
G1 X214.351 S97
S0
G1 X214.224 S82
S0
G1 X214.097 S95
S0
G1 X213.970 S91
S0
G1 X213.843 S99
S0
G1 X213.716 S91
S0
G1 X213.589 S95
S0
G1 X213.462 S99
S0
G1 X209.652 S95
S0
G1 X209.525 S99
S0
G1 X209.398 S87
S0
G1 X209.271 S111
S0
G1 X209.144 S72
S0
G1 X208.763 S2
S0
G1 X208.636 S5
S0
G1 X208.509 S2
S0
G1 X208.382 S5
S0
G1 X200.127 S2
S0
G1 X200.000 S193
S0
G0 Y44.704
G0 X200.000 S0
G1 X200.127 S193
S0
G1 X209.017 S2
S0
G1 X209.144 S55
S0
G1 X209.271 S110
S0
G1 X209.398 S95
S0
G1 X209.525 S99
S0
G1 X209.652 S91
S0
G1 X209.779 S99
S0
G1 X209.906 S91
S0
G1 X213.208 S95
S0
G1 X213.335 S99
S0
G1 X213.462 S95
S0
G1 X213.589 S91
S0
G1 X213.716 S95
S0
G1 X213.843 S99
S0
G1 X213.970 S91
S0
G1 X214.097 S99
S0
G1 X214.224 S91
S0
G1 X214.351 S88
S0
G1 X214.478 S90
S0
G1 X214.605 S103
S0
G1 X214.732 S74
S0
G1 X214.859 S97
S0
G1 X214.986 S368
S0
G1 X215.113 S412
S0
G1 X215.240 S380
S0
G1 X215.367 S388
S0
G1 X215.494 S384
S0
G1 X215.748 S393
S0
G1 X215.875 S444
S0
G1 X216.002 S274
S0
G1 X216.129 S60
S0
G1 X216.256 S118
S0
G1 X216.383 S16
S0
G1 X216.510 S367
S0
G1 X216.637 S648
S0
G1 X216.764 S101
S0
G1 X216.891 S94
S0
G1 X217.145 S117
S0
G1 X217.272 S126
S0
G1 X217.399 S122
S0
G1 X217.526 S126
S0
G1 X217.653 S127
S0
G1 X217.780 S131
S0
G1 X218.034 S130
S0
G1 X218.161 S131
S0
G1 X218.415 S126
S0
G1 X218.542 S129
S0
G1 X218.669 S142
S0
G1 X218.796 S138
S0
G1 X218.923 S146
S0
G1 X219.050 S103
S0
G1 X219.177 S203
S0
G1 X219.304 S455
S0
G1 X219.431 S458
S0
G1 X219.558 S412
S0
G1 X219.685 S106
S0
G1 X219.812 S55
S0
G1 X219.939 S129
S0
G1 X220.066 S241
S0
G1 X220.193 S126
S0
G1 X220.320 S64
S0
G1 X220.447 S55
S0
G1 X220.574 S271
S0
G1 X220.701 S363
S0
G1 X220.828 S315
S0
G1 X220.955 S379
S0
G1 X221.082 S221
S0
G1 X221.209 S16
S0
G1 X221.336 S237
S0
G1 X221.463 S113
S0
G1 X221.590 S110
S0
G1 X221.717 S209
S0
G1 X221.844 S58
S0
G1 X221.971 S74
S0
G1 X222.098 S78
S0
G1 X222.225 S270
S0
G1 X222.352 S301
S0
G1 X222.479 S195
S0
G1 X222.606 S88
S0
G1 X222.733 S35
S0
G1 X222.860 S2
S0
G1 X222.987 S5
S0
G0 X223.114 S0
G1 X223.241 S5
S0
G1 X238.989 S2
S0
G1 X239.116 S193
S0
G0 Y44.577
G0 X239.116 S0
G1 X238.989 S193
S0
G1 X223.368 S2
S0
G1 X223.241 S1
S0
G1 X222.987 S2
S0
G1 X222.860 S5
S0
G0 X222.733 S0
G1 X222.606 S15
S0
G1 X222.479 S109
S0
G1 X222.352 S215
S0
G1 X222.225 S314
S0
G1 X222.098 S184
S0
G1 X221.971 S43
S0
G1 X221.844 S71
S0
G1 X221.717 S127
S0
G1 X221.590 S217
S0
G1 X221.463 S16
S0
G1 X221.336 S202
S0
G1 X221.209 S158
S0
G1 X221.082 S47
S0
G1 X220.955 S320
S0
G1 X220.828 S339
S0
G1 X220.701 S327
S0
G1 X220.574 S359
S0
G1 X220.447 S157
S0
G1 X220.320 S28
S0
G1 X220.193 S89
S0
G1 X220.066 S27
S0
G1 X219.939 S209
S0
G1 X219.812 S383
S0
G1 X219.685 S275
S0
G1 X219.558 S393
S0
G1 X219.431 S520
S0
G1 X219.304 S416
S0
G1 X219.177 S482
S0
G1 X219.050 S298
S0
G1 X218.923 S95
S0
G1 X218.796 S141
S0
G1 X218.669 S133
S0
G1 X218.542 S136
S0
G1 X218.415 S137
S0
G1 X218.288 S133
S0
G1 X218.161 S129
S0
G1 X218.034 S131
S0
G1 X217.907 S134
S0
G1 X217.780 S130
S0
G1 X217.653 S125
S0
G1 X217.526 S117
S0
G1 X217.272 S121
S0
G1 X217.145 S98
S0
G1 X217.018 S90
S0
G1 X216.891 S93
S0
G1 X216.764 S107
S0
G1 X216.637 S125
S0
G1 X216.510 S220
S0
G1 X216.383 S91
S0
G1 X216.256 S103
S0
G1 X216.129 S105
S0
G1 X216.002 S46
S0
G1 X215.875 S244
S0
G1 X215.748 S444
S0
G1 X215.621 S400
S0
G1 X215.494 S388
S0
G1 X215.367 S389
S0
G1 X215.240 S385
S0
G1 X215.113 S383
S0
G1 X214.986 S385
S0
G1 X214.859 S411
S0
G1 X214.732 S176
S0
G1 X214.605 S50
S0
G1 X214.478 S97
S0
G1 X214.224 S95
S0
G1 X214.097 S99
S0
G1 X213.970 S95
S0
G1 X213.843 S91
S0
G1 X213.716 S99
S0
G1 X213.589 S91
S0
G1 X209.398 S95
S0
G1 X209.271 S91
S0
G1 X209.144 S99
S0
G1 X209.017 S110
S0
G1 X208.890 S39
S0
G1 X208.763 S5
S0
G1 X208.636 S2
S0
G1 X208.509 S5
S0
G1 X208.382 S2
S0
G1 X208.255 S5
S0
G1 X200.127 S2
S0
G1 X200.000 S193
S0
G0 Y44.450
G0 X200.000 S0
G1 X200.127 S193
S0
G1 X208.763 S2
S0
G1 X208.890 S19
S0
G1 X209.017 S106
S0
G1 X209.144 S101
S0
G1 X209.271 S91
S0
G1 X209.398 S99
S0
G1 X209.525 S87
S0
G1 X209.652 S99
S0
G1 X214.351 S95
S0
G1 X214.478 S99
S0
G1 X214.605 S90
S0
G1 X214.732 S53
S0
G1 X214.859 S209
S0
G1 X214.986 S418
S0
G1 X215.113 S380
S0
G1 X215.240 S379
S0
G1 X215.367 S385
S0
G1 X215.494 S387
S0
G1 X215.621 S391
S0
G1 X215.748 S392
S0
G1 X215.875 S432
S0
G1 X216.002 S212
S0
G1 X216.129 S43
S0
G1 X216.256 S106
S0
G1 X216.383 S109
S0
G1 X216.510 S97
S0
G1 X216.637 S64
S0
G1 X216.764 S75
S0
G1 X216.891 S87
S0
G1 X217.018 S175
S0
G1 X217.145 S196
S0
G1 X217.272 S173
S0
G1 X217.399 S133
S0
G1 X217.526 S109
S0
G1 X217.653 S117
S0
G1 X217.780 S125
S0
G1 X217.907 S122
S0
G1 X218.034 S134
S0
G1 X218.288 S127
S0
G1 X218.415 S133
S0
G1 X218.542 S134
S0
G1 X218.669 S129
S0
G1 X218.796 S137
S0
G1 X218.923 S115
S0
G1 X219.050 S137
S0
G1 X219.177 S413
S0
G1 X219.304 S436
S0
G1 X219.431 S434
S0
G1 X219.558 S698
S0
G1 X219.685 S562
S0
G1 X219.812 S297
S0
G1 X219.939 S366
S0
G1 X220.066 S259
S0
G1 X220.193 S56
S0
G1 X220.320 S87
S0
G1 X220.447 S133
S0
G1 X220.574 S67
S0
G1 X220.701 S297
S0
G1 X220.828 S350
S0
G1 X220.955 S318
S0
G1 X221.082 S365
S0
G1 X221.209 S181
S0
G1 X221.336 S37
S0
G1 X221.463 S197
S0
G1 X221.590 S60
S0
G1 X221.717 S181
S0
G1 X221.844 S194
S0
G1 X221.971 S43
S0
G1 X222.098 S63
S0
G1 X222.225 S107
S0
G1 X222.352 S276
S0
G1 X222.479 S286
S0
G1 X222.606 S176
S0
G1 X222.733 S26
S0
G1 X222.860 S1
S0
G1 X222.987 S2
S0
G1 X223.241 S5
S0
G1 X223.368 S3
S0
G1 X238.989 S2
S0
G1 X239.116 S193
S0
G0 Y44.323
G0 X239.116 S0
G1 X238.989 S193
S0
G1 X223.114 S2
S0
G1 X222.860 S5
S0
G1 X222.733 S39
S0
G1 X222.606 S99
S0
G1 X222.479 S98
S0
G1 X222.352 S220
S0
G1 X222.225 S192
S0
G1 X222.098 S61
S0
G1 X221.971 S82
S0
G1 X221.844 S65
S0
G1 X221.717 S232
S0
G1 X221.590 S102
S0
G1 X221.463 S126
S0
G1 X221.336 S125
S0
G1 X221.209 S37
S0
G1 X221.082 S289
S0
G1 X220.955 S355
S0
G1 X220.828 S322
S0
G1 X220.701 S366
S0
G1 X220.574 S162
S0
G1 X220.447 S103
S0
G1 X220.320 S228
S0
G1 X220.193 S30
S0
G1 X220.066 S101
S0
G1 X219.939 S323
S0
G1 X219.812 S333
S0
G1 X219.685 S264
S0
G1 X219.558 S546
S0
G1 X219.431 S732
S0
G1 X219.304 S543
S0
G1 X219.177 S395
S0
G1 X219.050 S477
S0
G1 X218.923 S275
S0
G1 X218.796 S76
S0
G1 X218.669 S137
S0
G1 X218.542 S134
S0
G1 X218.415 S130
S0
G1 X218.161 S126
S0
G1 X217.907 S125
S0
G1 X217.780 S122
S0
G1 X217.653 S118
S0
G1 X217.526 S126
S0
G1 X217.399 S162
S0
G1 X217.272 S190
S0
G1 X217.145 S145
S0
G1 X217.018 S125
S0
G1 X216.891 S244
S0
G1 X216.764 S306
S0
G1 X216.637 S165
S0
G1 X216.510 S87
S0
G1 X216.383 S98
S0
G1 X216.256 S99
S0
G1 X216.129 S95
S0
G1 X216.002 S40
S0
G1 X215.875 S180
S0
G1 X215.748 S419
S0
G1 X215.621 S401
S0
G1 X215.494 S389
S0
G1 X215.367 S388
S0
G1 X215.240 S384
S0
G1 X215.113 S382
S0
G1 X214.986 S377
S0
G1 X214.859 S421
S0
G1 X214.732 S204
S0
G1 X214.605 S48
S0
G1 X214.478 S94
S0
G1 X214.351 S91
S0
G1 X214.224 S94
S0
G1 X213.589 S95
S0
G1 X213.462 S91
S0
G1 X210.033 S95
S0
G1 X209.906 S91
S0
G1 X209.652 S95
S0
G1 X209.525 S91
S0
G1 X209.398 S99
S0
G1 X209.271 S91
S0
G1 X209.144 S99
S0
G1 X209.017 S91
S0
G1 X208.890 S109
S0
G1 X208.763 S90
S0
G1 X208.636 S5
S0
G1 X200.127 S2
S0
G1 X200.000 S193
S0
G0 Y44.196
G0 X200.000 S0
G1 X200.127 S193
S0
G1 X208.382 S2
S0
G1 X208.509 S9
S0
G1 X208.636 S2
S0
G1 X208.763 S58
S0
G1 X208.890 S114
S0
G1 X209.017 S91
S0
G1 X210.033 S95
S0
G1 X210.160 S91
S0
G1 X213.208 S95
S0
G1 X213.335 S91
S0
G1 X213.462 S99
S0
G1 X213.589 S91
S0
G1 X214.224 S95
S0
G1 X214.351 S90
S0
G1 X214.478 S95
S0
G1 X214.605 S94
S0
G1 X214.732 S48
S0
G1 X214.859 S196
S0
G1 X214.986 S413
S0
G1 X215.113 S385
S0
G1 X215.367 S384
S0
G1 X215.494 S389
S0
G1 X215.621 S387
S0
G1 X215.748 S408
S0
G1 X215.875 S409
S0
G1 X216.002 S150
S0
G1 X216.129 S42
S0
G1 X216.256 S98
S0
G1 X216.383 S94
S0
G1 X216.510 S101
S0
G1 X216.637 S91
S0
G1 X216.764 S185
S0
G1 X216.891 S174
S0
G1 X217.018 S126
S0
G1 X217.145 S238
S0
G1 X217.272 S125
S0
G1 X217.399 S75
S0
G1 X217.526 S142
S0
G1 X217.653 S134
S0
G1 X217.780 S113
S0
G1 X217.907 S122
S0
G1 X218.034 S121
S0
G1 X218.161 S122
S0
G1 X218.288 S123
S0
G1 X218.415 S134
S0
G1 X218.542 S121
S0
G1 X218.669 S138
S0
G1 X218.796 S90
S0
G1 X218.923 S145
S0
G1 X219.050 S434
S0
G1 X219.177 S419
S0
G1 X219.304 S465
S0
G1 X219.431 S646
S0
G1 X219.558 S726
S0
G1 X219.685 S554
S0
G1 X219.812 S246
S0
G1 X219.939 S350
S0
G1 X220.066 S366
S0
G1 X220.193 S174
S0
G1 X220.320 S9
S0
G1 X220.447 S213
S0
G1 X220.574 S243
S0
G1 X220.701 S55
S0
G1 X220.828 S330
S0
G1 X220.955 S333
S0
G1 X221.082 S327
S0
G1 X221.209 S357
S0
G1 X221.336 S137
S0
G1 X221.463 S47
S0
G1 X221.590 S123
S0
G1 X221.717 S47
S0
G1 X221.844 S236
S0
G1 X221.971 S153
S0
G1 X222.098 S63
S0
G1 X222.225 S74
S0
G1 X222.352 S79
S0
G1 X222.606 S87
S0
G1 X222.733 S99
S0
G1 X222.860 S122
S0
G1 X222.987 S75
S0
G1 X223.114 S16
S0
G1 X223.241 S2
S0
G1 X223.368 S5
S0
G1 X238.989 S2
S0
G1 X239.116 S193
S0
G0 Y44.069
G0 X239.116 S0
G1 X238.989 S193
S0
G1 X223.368 S2
S0
G0 X223.241 S0
G1 X223.114 S43
S0
G1 X222.987 S102
S0
G1 X222.860 S109
S0
G1 X222.733 S90
S0
G1 X222.606 S94
S0
G1 X222.479 S95
S0
G1 X222.352 S86
S0
G1 X222.225 S74
S0
G1 X222.098 S90
S0
G1 X221.971 S31
S0
G1 X221.844 S235
S0
G1 X221.717 S200
S0
G1 X221.590 S47
S0
G1 X221.463 S86
S0
G1 X221.336 S35
S0
G1 X221.209 S248
S0
G1 X221.082 S365
S0
G1 X220.955 S319
S0
G1 X220.828 S366
S0
G1 X220.701 S205
S0
G1 X220.574 S78
S0
G1 X220.447 S322
S0
G1 X220.320 S104
S0
G1 X220.193 S32
S0
G1 X220.066 S253
S0
G1 X219.939 S379
S0
G1 X219.812 S326
S0
G1 X219.685 S186
S0
G1 X219.558 S585
S0
G1 X219.431 S748
S0
G1 X219.304 S658
S0
G1 X219.177 S602
S0
G1 X219.050 S400
S0
G1 X218.923 S454
S0
G1 X218.796 S348
S0
G1 X218.669 S82
S0
G1 X218.542 S111
S0
G1 X218.415 S135
S0
G1 X218.288 S117
S0
G1 X218.161 S123
S0
G1 X217.907 S121
S0
G1 X217.780 S118
S0
G1 X217.653 S121
S0
G1 X217.526 S111
S0
G1 X217.399 S86
S0
G1 X217.272 S74
S0
G1 X217.145 S571
S0
G1 X217.018 S759
S0
G1 X216.891 S270
S0
G1 X216.764 S21
S0
G1 X216.637 S79
S0
G1 X216.510 S111
S0
G1 X216.383 S72
S0
G1 X216.256 S134
S0
G1 X216.129 S150
S0
G1 X216.002 S31
S0
G1 X215.875 S133
S0
G1 X215.748 S391
S0
G1 X215.621 S405
S0
G1 X215.494 S389
S0
G1 X215.367 S384
S0
G1 X215.113 S385
S0
G1 X214.986 S384
S0
G1 X214.859 S400
S0
G1 X214.732 S177
S0
G1 X214.605 S54
S0
G1 X214.478 S94
S0
G1 X214.224 S91
S0
G1 X213.462 S95
S0
G1 X213.335 S91
S0
G1 X210.033 S95
S0
G1 X209.906 S91
S0
G1 X209.525 S95
S0
G1 X209.017 S91
S0
G1 X208.890 S90
S0
G1 X208.763 S94
S0
G1 X208.636 S109
S0
G1 X208.509 S27
S0
G1 X208.382 S2
S0
G1 X208.255 S9
S0
G1 X200.127 S2
S0
G1 X200.000 S193
S0
G0 Y43.942
G0 X200.000 S0
G1 X200.127 S193
S0
G1 X208.382 S2
S0
G1 X208.509 S5
S0
G1 X208.636 S82
S0
G1 X208.763 S110
S0
G1 X208.890 S91
S0
G1 X213.589 S95
S0
G1 X213.716 S90
S0
G1 X213.970 S94
S0
G1 X214.097 S90
S0
G1 X214.224 S94
S0
G1 X214.351 S95
S0
G1 X214.478 S94
S0
G1 X214.605 S95
S0
G1 X214.732 S59
S0
G1 X214.859 S150
S0
G1 X214.986 S392
S0
G1 X215.113 S381
S0
G1 X215.240 S379
S0
G1 X215.367 S383
S0
G1 X215.494 S385
S0
G1 X215.621 S388
S0
G1 X215.748 S405
S0
G1 X215.875 S393
S0
G1 X216.002 S138
S0
G1 X216.129 S27
S0
G1 X216.256 S123
S0
G1 X216.383 S272
S0
G1 X216.510 S90
S0
G1 X216.637 S73
S0
G1 X216.764 S109
S0
G1 X216.891 S93
S0
G1 X217.018 S105
S0
G1 X217.145 S183
S0
G1 X217.272 S275
S0
G1 X217.399 S117
S0
G1 X217.526 S97
S0
G1 X217.653 S111
S0
G1 X217.780 S113
S0
G1 X218.161 S122
S0
G1 X218.288 S117
S0
G1 X218.415 S122
S0
G1 X218.542 S110
S0
G1 X218.669 S70
S0
G1 X218.796 S284
S0
G1 X218.923 S469
S0
G1 X219.050 S380
S0
G1 X219.177 S537
S0
G1 X219.304 S674
S0
G1 X219.431 S665
S0
G1 X219.558 S769
S0
G1 X219.685 S681
S0
G1 X219.812 S322
S0
G1 X219.939 S166
S0
G1 X220.066 S261
S0
G1 X220.193 S359
S0
G1 X220.320 S94
S0
G1 X220.447 S16
S0
G1 X220.574 S252
S0
G1 X220.701 S236
S0
G1 X220.828 S83
S0
G1 X220.955 S351
S0
G1 X221.082 S322
S0
G1 X221.209 S335
S0
G1 X221.336 S333
S0
G1 X221.463 S109
S0
G1 X221.590 S56
S0
G1 X221.717 S74
S0
G1 X221.844 S99
S0
G1 X221.971 S281
S0
G1 X222.098 S98
S0
G1 X222.225 S71
S0
G1 X222.352 S78
S0
G1 X222.479 S86
S0
G1 X222.606 S99
S0
G1 X222.733 S94
S0
G1 X222.860 S91
S0
G1 X222.987 S92
S0
G1 X223.114 S94
S0
G1 X223.241 S112
S0
G1 X223.368 S66
S0
G1 X238.989 S2
S0
G1 X239.116 S193
S0
G0 Y43.815
G0 X239.116 S0
G1 X238.989 S193
S0
G1 X224.130 S2
S0
G1 X224.003 S1
S0
G1 X223.876 S5
S0
G1 X223.749 S2
S0
G1 X223.622 S1
S0
G1 X223.495 S5
S0
G1 X223.368 S86
S0
G1 X223.241 S74
S0
G1 X223.114 S51
S0
G1 X222.987 S90
S0
G1 X222.860 S89
S0
G1 X222.733 S87
S0
G1 X222.606 S91
S0
G1 X222.479 S90
S0
G1 X222.352 S87
S0
G1 X222.225 S84
S0
G1 X222.098 S31
S0
G1 X221.971 S221
S0
G1 X221.844 S241
S0
G1 X221.717 S37
S0
G1 X221.590 S86
S0
G1 X221.463 S31
S0
G1 X221.336 S208
S0
G1 X221.209 S377
S0
G1 X221.082 S322
S0
G1 X220.955 S345
S0
G1 X220.828 S263
S0
G1 X220.701 S138
S0
G1 X220.574 S326
S0
G1 X220.447 S91
S0
G1 X220.320 S24
S0
G1 X220.193 S169
S0
G1 X220.066 S394
S0
G1 X219.939 S133
S0
G1 X219.812 S161
S0
G1 X219.685 S279
S0
G1 X219.558 S724
S0
G1 X219.431 S748
S0
G1 X219.304 S707
S0
G1 X219.177 S666
S0
G1 X219.050 S670
S0
G1 X218.923 S486
S0
G1 X218.796 S377
S0
G1 X218.669 S466
S0
G1 X218.542 S255
S0
G1 X218.415 S60
S0
G1 X218.288 S106
S0
G1 X218.161 S122
S0
G1 X218.034 S117
S0
G1 X217.907 S119
S0
G1 X217.780 S109
S0
G1 X217.653 S113
S0
G1 X217.526 S107
S0
G1 X217.399 S113
S0
G1 X217.272 S105
S0
G1 X217.145 S36
S0
G1 X217.018 S51
S0
G1 X216.891 S94
S0
G1 X216.764 S107
S0
G1 X216.637 S83
S0
G1 X216.510 S56
S0
G1 X216.383 S309
S0
G1 X216.256 S274
S0
G1 X216.129 S15
S0
G1 X216.002 S40
S0
G1 X215.875 S173
S0
G1 X215.748 S416
S0
G1 X215.621 S400
S0
G1 X215.494 S383
S0
G1 X215.367 S389
S0
G1 X215.240 S380
S0
G1 X215.113 S377
S0
G1 X214.986 S393
S0
G1 X214.859 S370
S0
G1 X214.732 S126
S0
G1 X214.605 S66
S0
G1 X214.478 S95
S0
G1 X214.351 S90
S0
G1 X214.224 S94
S0
G1 X214.097 S90
S0
G1 X213.970 S99
S0
G1 X213.716 S95
S0
G1 X213.589 S97
S0
G1 X213.462 S90
S0
G1 X213.335 S91
S0
G1 X208.890 S95
S0
G1 X208.763 S91
S0
G1 X208.636 S95
S0
G1 X208.509 S109
S0
G1 X208.382 S35
S0
G1 X200.127 S2
S0
G1 X200.000 S193
S0
G0 Y43.688
G0 X200.000 S0
G1 X200.127 S193
S0
G1 X208.128 S2
S0
G1 X208.255 S5
S0
G1 X208.382 S2
S0
G1 X208.509 S63
S0
G1 X208.636 S113
S0
G1 X208.763 S90
S0
G1 X208.890 S95
S0
G1 X209.017 S91
S0
G1 X209.144 S94
S0
G1 X213.208 S95
S0
G1 X213.462 S94
S0
G1 X213.716 S95
S0
G1 X213.843 S94
S0
G1 X213.970 S95
S0
G1 X214.097 S92
S0
G1 X214.224 S97
S0
G1 X214.351 S95
S0
G1 X214.478 S94
S0
G1 X214.605 S92
S0
G1 X214.732 S82
S0
G1 X214.859 S94
S0
G1 X214.986 S341
S0
G1 X215.113 S401
S0
G1 X215.240 S375
S0
G1 X215.367 S384
S0
G1 X215.494 S381
S0
G1 X215.621 S389
S0
G1 X215.748 S392
S0
G1 X215.875 S424
S0
G1 X216.002 S239
S0
G1 X216.129 S63
S0
G1 X216.256 S138
S0
G1 X216.383 S153
S0
G1 X216.510 S417
S0
G1 X216.637 S241
S0
G1 X216.764 S54
S0
G1 X216.891 S83
S0
G1 X217.018 S102
S0
G1 X217.145 S99
S0
G1 X217.272 S102
S0
G1 X217.399 S97
S0
G1 X217.526 S107
S0
G1 X217.653 S110
S0
G1 X217.780 S105
S0
G1 X217.907 S109
S0
G1 X218.034 S110
S0
G1 X218.161 S118
S0
G1 X218.288 S80
S0
G1 X218.415 S78
S0
G1 X218.542 S288
S0
G1 X218.669 S445
S0
G1 X218.796 S376
S0
G1 X218.923 S486
S0
G1 X219.050 S669
S0
G1 X219.177 S671
S0
G1 X219.304 S683
S0
G1 X219.431 S703
S0
G1 X219.558 S745
S0
G1 X219.685 S753
S0
G1 X219.812 S166
S0
G1 X219.939 S193
S0
G1 X220.066 S107
S0
G1 X220.193 S263
S0
G1 X220.320 S302
S0
G1 X220.447 S52
S0
G1 X220.574 S29
S0
G1 X220.701 S224
S0
G1 X220.828 S302
S0
G1 X220.955 S257
S0
G1 X221.082 S347
S0
G1 X221.209 S324
S0
G1 X221.336 S347
S0
G1 X221.463 S311
S0
G1 X221.590 S75
S0
G1 X221.717 S74
S0
G1 X221.844 S58
S0
G1 X221.971 S129
S0
G1 X222.098 S276
S0
G1 X222.225 S76
S0
G1 X222.352 S73
S0
G1 X222.479 S82
S0
G1 X222.606 S88
S0
G1 X222.733 S47
S0
G1 X222.860 S87
S0
G1 X222.987 S26
S0
G1 X223.114 S244
S0
G1 X223.241 S388
S0
G1 X223.368 S170
S0
G1 X223.495 S66
S0
G1 X223.622 S100
S0
G1 X223.749 S19
S0
G1 X238.989 S2
S0
G1 X239.116 S193
S0
G0 Y43.561
G0 X239.116 S0
G1 X238.989 S193
S0
G1 X224.130 S2
S0
G1 X224.003 S5
S0
G1 X223.876 S2
S0
G1 X223.749 S19
S0
G1 X223.622 S90
S0
G1 X223.495 S68
S0
G1 X223.368 S168
S0
G1 X223.241 S484
S0
G1 X223.114 S446
S0
G1 X222.987 S109
S0
G1 X222.860 S237
S0
G1 X222.733 S368
S0
G1 X222.606 S344
S0
G1 X222.479 S180
S0
G1 X222.352 S40
S0
G1 X222.225 S46
S0
G1 X222.098 S178
S0
G1 X221.971 S256
S0
G1 X221.844 S48
S0
G1 X221.717 S86
S0
G1 X221.590 S36
S0
G1 X221.463 S165
S0
G1 X221.336 S370
S0
G1 X221.209 S338
S0
G1 X221.082 S322
S0
G1 X220.955 S324
S0
G1 X220.828 S354
S0
G1 X220.701 S311
S0
G1 X220.574 S63
S0
G1 X220.447 S40
S0
G1 X220.320 S134
S0
G1 X220.193 S358
S0
G1 X220.066 S66
S0
G1 X219.939 S174
S0
G1 X219.812 S136
S0
G1 X219.685 S207
S0
G1 X219.558 S797
S0
G1 X219.431 S733
S0
G1 X219.304 S698
S0
G1 X219.177 S679
S0
G1 X218.923 S658
S0
G1 X218.796 S670
S0
G1 X218.669 S528
S0
G1 X218.542 S393
S0
G1 X218.415 S403
S0
G1 X218.288 S337
S0
G1 X218.161 S136
S0
G1 X218.034 S56
S0
G1 X217.907 S91
S0
G1 X217.780 S111
S0
G1 X217.653 S103
S0
G1 X217.526 S107
S0
G1 X217.399 S98
S0
G1 X217.272 S101
S0
G1 X217.145 S103
S0
G1 X217.018 S99
S0
G1 X216.891 S82
S0
G1 X216.764 S57
S0
G1 X216.637 S224
S0
G1 X216.510 S396
S0
G1 X216.383 S257
S0
G1 X216.256 S208
S0
G1 X216.129 S347
S0
G1 X216.002 S24
S0
G1 X215.875 S313
S0
G1 X215.748 S423
S0
G1 X215.621 S388
S0
G1 X215.494 S385
S0
G1 X215.367 S384
S0
G1 X215.240 S382
S0
G1 X215.113 S379
S0
G1 X214.986 S408
S0
G1 X214.859 S320
S0
G1 X214.732 S79
S0
G1 X214.605 S90
S0
G1 X214.478 S92
S0
G1 X214.224 S94
S0
G1 X214.097 S91
S0
G1 X213.970 S94
S0
G1 X213.843 S90
S0
G1 X213.716 S94
S0
G1 X213.462 S95
S0
G1 X213.208 S94
S0
G1 X209.144 S95
S0
G1 X209.017 S94
S0
G1 X208.890 S91
S0
G1 X208.763 S95
S0
G1 X208.636 S94
S0
G1 X208.509 S105
S0
G1 X208.382 S74
S0
G1 X200.127 S2
S0
G1 X200.000 S193
S0
G0 Y43.434
G0 X200.000 S0
G1 X200.127 S193
S0
G1 X208.382 S2
S0
G1 X208.509 S67
S0
G1 X208.636 S109
S0
G1 X208.763 S98
S0
G1 X208.890 S91
S0
G1 X209.017 S95
S0
G1 X209.144 S94
S0
G1 X213.335 S95
S0
G1 X213.462 S91
S0
G1 X213.589 S96
S0
G1 X213.716 S95
S0
G1 X213.843 S93
S0
G1 X213.970 S96
S0
G1 X214.097 S91
S0
G1 X214.224 S95
S0
G1 X214.351 S92
S0
G1 X214.478 S90
S0
G1 X214.605 S99
S0
G1 X214.732 S88
S0
G1 X214.859 S79
S0
G1 X214.986 S323
S0
G1 X215.113 S407
S0
G1 X215.240 S378
S0
G1 X215.367 S380
S0
G1 X215.621 S384
S0
G1 X215.748 S389
S0
G1 X215.875 S400
S0
G1 X216.002 S403
S0
G1 X216.129 S52
S0
G1 X216.256 S307
S0
G1 X216.383 S352
S0
G1 X216.510 S65
S0
G1 X216.637 S311
S0
G1 X216.764 S370
S0
G1 X216.891 S212
S0
G1 X217.018 S55
S0
G1 X217.145 S93
S0
G1 X217.399 S98
S0
G1 X217.526 S101
S0
G1 X217.653 S102
S0
G1 X217.780 S77
S0
G1 X217.907 S51
S0
G1 X218.034 S99
S0
G1 X218.161 S232
S0
G1 X218.288 S368
S0
G1 X218.415 S408
S0
G1 X218.542 S456
S0
G1 X218.669 S584
S0
G1 X218.796 S662
S0
G1 X218.923 S628
S0
G1 X219.050 S644
S0
G1 X219.177 S663
S0
G1 X219.304 S686
S0
G1 X219.431 S702
S0
G1 X219.558 S721
S0
G1 X219.685 S824
S0
G1 X219.812 S311
S0
G1 X219.939 S52
S0
G1 X220.066 S239
S0
G1 X220.193 S12
S0
G1 X220.320 S252
S0
G1 X220.447 S272
S0
G1 X220.574 S35
S0
G1 X220.701 S37
S0
G1 X220.828 S165
S0
G1 X220.955 S371
S0
G1 X221.082 S326
S0
G1 X221.209 S314
S0
G1 X221.336 S291
S0
G1 X221.463 S377
S0
G1 X221.590 S272
S0
G1 X221.717 S52
S0
G1 X221.844 S80
S0
G1 X221.971 S54
S0
G1 X222.098 S158
S0
G1 X222.225 S264
S0
G1 X222.352 S47
S0
G1 X222.479 S43
S0
G1 X222.606 S138
S0
G1 X222.733 S458
S0
G1 X222.860 S455
S0
G1 X222.987 S470
S0
G1 X223.114 S215
S0
G1 X223.241 S260
S0
G1 X223.368 S518
S0
G1 X223.495 S346
S0
G1 X223.622 S59
S0
G1 X223.749 S97
S0
G1 X223.876 S91
S0
G1 X224.003 S11
S0
G1 X238.989 S2
S0
G1 X239.116 S193
S0
G0 Y43.307
G0 X239.116 S0
G1 X238.989 S193
S0
G1 X224.384 S2
S0
G1 X224.130 S1
S0
G1 X224.003 S5
S0
G1 X223.876 S90
S0
G1 X223.749 S115
S0
G1 X223.622 S78
S0
G1 X223.495 S75
S0
G1 X223.368 S349
S0
G1 X223.241 S457
S0
G1 X223.114 S408
S0
G1 X222.987 S439
S0
G1 X222.860 S411
S0
G1 X222.733 S458
S0
G1 X222.606 S287
S0
G1 X222.479 S26
S0
G1 X222.352 S59
S0
G1 X222.225 S177
S0
G1 X222.098 S264
S0
G1 X221.971 S52
S0
G1 X221.844 S83
S0
G1 X221.717 S42
S0
G1 X221.590 S129
S0
G1 X221.463 S402
S0
G1 X221.336 S236
S0
G1 X221.209 S198
S0
G1 X221.082 S346
S0
G1 X220.955 S366
S0
G1 X220.828 S260
S0
G1 X220.701 S39
S0
G1 X220.574 S56
S0
G1 X220.447 S117
S0
G1 X220.320 S285
S0
G1 X220.193 S73
S0
G1 X220.066 S87
S0
G1 X219.939 S173
S0
G1 X219.812 S20
S0
G1 X219.685 S537
S0
G1 X219.558 S879
S0
G1 X219.431 S710
S0
G1 X219.304 S698
S0
G1 X219.177 S682
S0
G1 X219.050 S667
S0
G1 X218.923 S646
S0
G1 X218.796 S620
S0
G1 X218.669 S599
S0
G1 X218.542 S622
S0
G1 X218.415 S615
S0
G1 X218.288 S532
S0
G1 X218.161 S474
S0
G1 X218.034 S430
S0
G1 X217.907 S322
S0
G1 X217.780 S203
S0
G1 X217.653 S126
S0
G1 X217.526 S63
S0
G1 X217.399 S55
S0
G1 X217.272 S76
S0
G1 X217.145 S86
S0
G1 X217.018 S56
S0
G1 X216.891 S197
S0
G1 X216.764 S406
S0
G1 X216.637 S265
S0
G1 X216.510 S162
S0
G1 X216.383 S59
S0
G1 X216.256 S538
S0
G1 X216.129 S145
S0
G1 X216.002 S212
S0
G1 X215.875 S439
S0
G1 X215.748 S393
S0
G1 X215.621 S379
S0
G1 X215.240 S380
S0
G1 X215.113 S377
S0
G1 X214.986 S405
S0
G1 X214.859 S325
S0
G1 X214.732 S87
S0
G1 X214.605 S84
S0
G1 X214.478 S92
S0
G1 X214.351 S94
S0
G1 X214.224 S90
S0
G1 X214.097 S78
S0
G1 X213.970 S91
S0
G1 X213.843 S99
S0
G1 X213.716 S95
S0
G1 X213.589 S92
S0
G1 X213.462 S94
S0
G1 X213.335 S90
S0
G1 X213.208 S99
S0
G1 X209.144 S95
S0
G1 X209.017 S94
S0
G1 X208.763 S95
S0
G1 X208.636 S94
S0
G1 X208.509 S105
S0
G1 X208.382 S47
S0
G1 X200.127 S2
S0
G1 X200.000 S193
S0
G0 Y43.180
G0 X200.000 S0
G1 X200.127 S193
S0
G1 X208.382 S2
S0
G1 X208.509 S39
S0
G1 X208.636 S101
S0
G1 X208.763 S95
S0
G1 X208.890 S99
S0
G1 X209.017 S91
S0
G1 X213.335 S95
S0
G1 X213.462 S94
S0
G1 X213.589 S91
S0
G1 X213.716 S95
S0
G1 X213.843 S90
S0
G1 X213.970 S92
S0
G1 X214.097 S123
S0
G1 X214.224 S118
S0
G1 X214.351 S72
S0
G1 X214.478 S87
S0
G1 X214.605 S99
S0
G1 X214.732 S70
S0
G1 X214.859 S115
S0
G1 X214.986 S366
S0
G1 X215.113 S395
S0
G1 X215.240 S372
S0
G1 X215.367 S373
S0
G1 X215.748 S384
S0
G1 X215.875 S388
S0
G1 X216.002 S411
S0
G1 X216.129 S380
S0
G1 X216.256 S40
S0
G1 X216.383 S608
S0
G1 X216.510 S311
S0
G1 X216.637 S5
S0
G1 X216.764 S208
S0
G1 X216.891 S261
S0
G1 X217.018 S417
S0
G1 X217.145 S185
S0
G1 X217.272 S52
S0
G1 X217.399 S118
S0
G1 X217.526 S212
S0
G1 X217.653 S267
S0
G1 X217.780 S309
S0
G1 X217.907 S418
S0
G1 X218.034 S483
S0
G1 X218.161 S518
S0
G1 X218.415 S581
S0
G1 X218.542 S569
S0
G1 X218.669 S588
S0
G1 X218.796 S605
S0
G1 X218.923 S623
S0
G1 X219.050 S648
S0
G1 X219.177 S666
S0
G1 X219.304 S679
S0
G1 X219.431 S738
S0
G1 X219.558 S799
S0
G1 X219.685 S662
S0
G1 X219.812 S428
S0
G1 X219.939 S168
S0
G1 X220.066 S191
S0
G1 X220.193 S161
S0
G1 X220.320 S13
S0
G1 X220.447 S186
S0
G1 X220.574 S245
S0
G1 X220.701 S52
S0
G1 X220.828 S51
S0
G1 X220.955 S106
S0
G1 X221.082 S338
S0
G1 X221.209 S361
S0
G1 X221.336 S282
S0
G1 X221.463 S66
S0
G1 X221.590 S332
S0
G1 X221.717 S301
S0
G1 X221.844 S42
S0
G1 X221.971 S78
S0
G1 X222.098 S40
S0
G1 X222.225 S186
S0
G1 X222.352 S231
S0
G1 X222.479 S44
S0
G1 X222.606 S28
S0
G1 X222.733 S169
S0
G1 X222.860 S443
S0
G1 X222.987 S399
S0
G1 X223.114 S411
S0
G1 X223.241 S420
S0
G1 X223.368 S467
S0
G1 X223.495 S292
S0
G1 X223.622 S35
S0
G1 X223.749 S94
S0
G1 X223.876 S87
S0
G1 X224.003 S109
S0
G1 X224.130 S68
S0
G1 X238.989 S2
S0
G1 X239.116 S193
S0
G0 Y43.053
G0 X239.116 S0
G1 X238.989 S193
S0
G1 X224.384 S2
S0
G1 X224.257 S5
S0
G1 X224.130 S39
S0
G1 X224.003 S110
S0
G1 X223.749 S98
S0
G1 X223.622 S58
S0
G1 X223.495 S86
S0
G1 X223.368 S383
S0
G1 X223.241 S439
S0
G1 X223.114 S411
S0
G1 X222.987 S404
S0
G1 X222.860 S439
S0
G1 X222.733 S356
S0
G1 X222.606 S59
S0
G1 X222.479 S78
S0
G1 X222.352 S71
S0
G1 X222.225 S133
S0
G1 X222.098 S95
S0
G1 X221.971 S82
S0
G1 X221.844 S35
S0
G1 X221.717 S182
S0
G1 X221.590 S369
S0
G1 X221.463 S52
S0
G1 X221.336 S153
S0
G1 X221.209 S373
S0
G1 X221.082 S379
S0
G1 X220.955 S204
S0
G1 X220.828 S31
S0
G1 X220.701 S70
S0
G1 X220.574 S129
S0
G1 X220.447 S213
S0
G1 X220.320 S66
S0
G1 X220.193 S30
S0
G1 X220.066 S165
S0
G1 X219.939 S523
S0
G1 X219.812 S443
S0
G1 X219.685 S217
S0
G1 X219.558 S250
S0
G1 X219.431 S471
S0
G1 X219.304 S686
S0
G1 X219.177 S765
S0
G1 X219.050 S694
S0
G1 X218.923 S638
S0
G1 X218.796 S628
S0
G1 X218.669 S609
S0
G1 X218.542 S589
S0
G1 X218.415 S567
S0
G1 X218.288 S552
S0
G1 X218.161 S525
S0
G1 X218.034 S524
S0
G1 X217.907 S525
S0
G1 X217.780 S487
S0
G1 X217.653 S446
S0
G1 X217.526 S301
S0
G1 X217.399 S250
S0
G1 X217.272 S266
S0
G1 X217.145 S260
S0
G1 X217.018 S359
S0
G1 X216.891 S216
S0
G1 X216.764 S181
S0
G1 X216.637 S40
S0
G1 X216.510 S164
S0
G1 X216.383 S821
S0
G1 X216.256 S326
S0
G1 X216.129 S153
S0
G1 X216.002 S451
S0
G1 X215.875 S388
S0
G1 X215.748 S387
S0
G1 X215.621 S383
S0
G1 X215.494 S384
S0
G1 X215.367 S378
S0
G1 X215.240 S373
S0
G1 X215.113 S377
S0
G1 X214.986 S369
S0
G1 X214.859 S411
S0
G1 X214.732 S189
S0
G1 X214.605 S50
S0
G1 X214.351 S90
S0
G1 X214.224 S207
S0
G1 X214.097 S267
S0
G1 X213.970 S134
S0
G1 X213.843 S76
S0
G1 X213.716 S95
S0
G1 X213.589 S91
S0
G1 X209.017 S95
S0
G1 X208.763 S91
S0
G1 X208.636 S95
S0
G1 X208.509 S109
S0
G1 X208.382 S51
S0
G1 X200.127 S2
S0
G1 X200.000 S193
S0
G0 Y42.926
G0 X200.000 S0
G1 X200.127 S193
S0
G1 X208.128 S2
S0
G1 X208.255 S5
S0
G1 X208.382 S8
S0
G1 X208.509 S99
S0
G1 X208.636 S100
S0
G1 X208.763 S94
S0
G1 X208.890 S90
S0
G1 X209.017 S91
S0
G1 X209.271 S94
S0
G1 X209.398 S97
S0
G1 X209.525 S90
S0
G1 X209.652 S94
S0
G1 X209.906 S95
S0
G1 X210.160 S94
S0
G1 X210.287 S95
S0
G1 X210.414 S90
S0
G1 X210.541 S95
S0
G1 X210.668 S94
S0
G1 X210.922 S95
S0
G1 X211.049 S94
S0
G1 X213.208 S95
S0
G1 X213.335 S94
S0
G1 X213.589 S95
S0
G1 X213.716 S90
S0
G1 X213.843 S96
S0
G1 X213.970 S82
S0
G1 X214.097 S106
S0
G1 X214.224 S187
S0
G1 X214.351 S157
S0
G1 X214.478 S99
S0
G1 X214.605 S78
S0
G1 X214.732 S75
S0
G1 X214.859 S314
S0
G1 X214.986 S407
S0
G1 X215.113 S369
S0
G1 X215.240 S377
S0
G1 X215.367 S382
S0
G1 X215.494 S380
S0
G1 X215.621 S385
S0
G1 X215.748 S388
S0
G1 X215.875 S383
S0
G1 X216.002 S389
S0
G1 X216.129 S407
S0
G1 X216.256 S413
S0
G1 X216.383 S44
S0
G1 X216.510 S550
S0
G1 X216.637 S867
S0
G1 X216.764 S189
S0
G1 X216.891 S21
S0
G1 X217.018 S149
S0
G1 X217.145 S181
S0
G1 X217.272 S327
S0
G1 X217.399 S377
S0
G1 X217.526 S150
S0
G1 X217.653 S199
S0
G1 X217.780 S537
S0
G1 X217.907 S483
S0
G1 X218.034 S490
S0
G1 X218.161 S516
S0
G1 X218.288 S534
S0
G1 X218.415 S551
S0
G1 X218.542 S572
S0
G1 X218.669 S588
S0
G1 X218.796 S603
S0
G1 X218.923 S640
S0
G1 X219.050 S719
S0
G1 X219.177 S675
S0
G1 X219.304 S491
S0
G1 X219.431 S303
S0
G1 X219.558 S184
S0
G1 X219.685 S216
S0
G1 X219.812 S251
S0
G1 X219.939 S494
S0
G1 X220.066 S745
S0
G1 X220.193 S323
S0
G1 X220.320 S83
S0
G1 X220.447 S34
S0
G1 X220.574 S87
S0
G1 X220.701 S107
S0
G1 X220.828 S75
S0
G1 X220.955 S70
S0
G1 X221.082 S58
S0
G1 X221.209 S291
S0
G1 X221.336 S387
S0
G1 X221.463 S304
S0
G1 X221.590 S19
S0
G1 X221.717 S138
S0
G1 X221.844 S300
S0
G1 X221.971 S78
S0
G1 X222.098 S69
S0
G1 X222.225 S79
S0
G1 X222.352 S74
S0
G1 X222.479 S90
S0
G1 X222.606 S82
S0
G1 X222.733 S22
S0
G1 X222.860 S236
S0
G1 X222.987 S462
S0
G1 X223.114 S399
S0
G1 X223.241 S416
S0
G1 X223.368 S412
S0
G1 X223.495 S467
S0
G1 X223.622 S318
S0
G1 X223.749 S39
S0
G1 X223.876 S78
S0
G1 X224.003 S94
S0
G1 X224.130 S106
S0
G1 X224.257 S82
S0
G1 X224.384 S2
S0
G1 X224.638 S5
S0
G1 X238.989 S2
S0
G1 X239.116 S193
S0
G0 Y42.799
G0 X239.116 S0
G1 X238.989 S193
S0
G1 X224.638 S2
S0
G1 X224.511 S5
S0
G1 X224.384 S2
S0
G1 X224.257 S23
S0
G1 X224.130 S101
S0
G1 X224.003 S100
S0
G1 X223.876 S86
S0
G1 X223.749 S44
S0
G1 X223.622 S279
S0
G1 X223.495 S475
S0
G1 X223.368 S416
S0
G1 X223.241 S411
S0
G1 X223.114 S420
S0
G1 X222.987 S423
S0
G1 X222.860 S415
S0
G1 X222.733 S113
S0
G1 X222.606 S49
S0
G1 X222.479 S83
S0
G1 X222.352 S79
S0
G1 X222.225 S83
S0
G1 X222.098 S77
S0
G1 X221.971 S55
S0
G1 X221.844 S185
S0
G1 X221.717 S174
S0
G1 X221.590 S6
S0
G1 X221.463 S182
S0
G1 X221.336 S382
S0
G1 X221.209 S350
S0
G1 X221.082 S129
S0
G1 X220.955 S39
S0
G1 X220.828 S71
S0
G1 X220.701 S77
S0
G1 X220.574 S84
S0
G1 X220.447 S63
S0
G1 X220.320 S35
S0
G1 X220.193 S228
S0
G1 X220.066 S569
S0
G1 X219.939 S602
S0
G1 X219.812 S254
S0
G1 X219.685 S422
S0
G1 X219.558 S668
S0
G1 X219.431 S393
S0
G1 X219.304 S208
S0
G1 X219.177 S196
S0
G1 X219.050 S295
S0
G1 X218.923 S506
S0
G1 X218.796 S677
S0
G1 X218.669 S660
S0
G1 X218.542 S580
S0
G1 X218.415 S577
S0
G1 X218.288 S548
S0
G1 X218.161 S532
S0
G1 X218.034 S517
S0
G1 X217.907 S494
S0
G1 X217.780 S479
S0
G1 X217.653 S509
S0
G1 X217.526 S172
S0
G1 X217.399 S210
S0
G1 X217.272 S358
S0
G1 X217.145 S73
S0
G1 X217.018 S66
S0
G1 X216.891 S2
S0
G1 X216.764 S251
S0
G1 X216.637 S897
S0
G1 X216.510 S703
S0
G1 X216.383 S19
S0
G1 X216.256 S306
S0
G1 X216.129 S443
S0
G1 X216.002 S388
S0
G1 X215.875 S387
S0
G1 X215.748 S383
S0
G1 X215.621 S382
S0
G1 X215.494 S390
S0
G1 X215.367 S381
S0
G1 X215.240 S375
S0
G1 X215.113 S366
S0
G1 X214.986 S384
S0
G1 X214.859 S439
S0
G1 X214.732 S321
S0
G1 X214.605 S84
S0
G1 X214.478 S91
S0
G1 X214.351 S90
S0
G1 X214.224 S70
S0
G1 X214.097 S71
S0
G1 X213.970 S90
S0
G1 X213.843 S95
S0
G1 X213.716 S92
S0
G1 X213.589 S91
S0
G1 X213.335 S95
S0
G1 X213.208 S91
S0
G1 X211.049 S95
S0
G1 X210.922 S96
S0
G1 X210.795 S90
S0
G1 X210.541 S94
S0
G1 X210.414 S91
S0
G1 X210.287 S90
S0
G1 X210.160 S86
S0
G1 X210.033 S95
S0
G1 X209.906 S90
S0
G1 X209.779 S97
S0
G1 X209.652 S88
S0
G1 X209.525 S59
S0
G1 X209.398 S65
S0
G1 X209.271 S83
S0
G1 X209.144 S99
S0
G1 X209.017 S94
S0
G1 X208.890 S79
S0
G1 X208.763 S88
S0
G1 X208.636 S94
S0
G1 X208.509 S91
S0
G1 X208.382 S109
S0
G1 X208.255 S47
S0
G1 X200.127 S2
S0
G1 X200.000 S193
S0
G0 Y42.672
G0 X200.000 S0
G1 X200.127 S193
S0
G1 X208.128 S2
S0
G0 X208.255 S0
G1 X208.382 S72
S0
G1 X208.509 S99
S0
G1 X208.636 S87
S0
G1 X208.763 S92
S0
G1 X208.890 S99
S0
G1 X209.017 S134
S0
G1 X209.144 S79
S0
G1 X209.271 S67
S0
G1 X209.398 S91
S0
G1 X209.525 S205
S0
G1 X209.652 S209
S0
G1 X209.779 S75
S0
G1 X209.906 S74
S0
G1 X210.033 S99
S0
G1 X210.287 S91
S0
G1 X210.414 S95
S0
G1 X210.541 S91
S0
G1 X210.668 S100
S0
G1 X210.795 S90
S0
G1 X210.922 S95
S0
G1 X211.049 S91
S0
G1 X213.208 S95
S0
G1 X213.462 S94
S0
G1 X213.589 S87
S0
G1 X213.716 S95
S0
G1 X213.843 S99
S0
G1 X213.970 S94
S0
G1 X214.224 S96
S0
G1 X214.351 S99
S0
G1 X214.478 S96
S0
G1 X214.605 S95
S0
G1 X214.732 S76
S0
G1 X214.859 S94
S0
G1 X214.986 S264
S0
G1 X215.113 S408
S0
G1 X215.240 S405
S0
G1 X215.367 S373
S0
G1 X215.494 S379
S0
G1 X215.621 S380
S0
G1 X215.748 S389
S0
G1 X215.875 S384
S0
G1 X216.002 S387
S0
G1 X216.129 S389
S0
G1 X216.256 S401
S0
G1 X216.383 S464
S0
G1 X216.510 S177
S0
G1 X216.637 S69
S0
G1 X216.764 S817
S0
G1 X216.891 S932
S0
G1 X217.018 S519
S0
G1 X217.145 S154
S0
G1 X217.272 S29
S0
G1 X217.399 S249
S0
G1 X217.526 S94
S0
G1 X217.653 S195
S0
G1 X217.780 S510
S0
G1 X217.907 S474
S0
G1 X218.034 S497
S0
G1 X218.161 S519
S0
G1 X218.288 S528
S0
G1 X218.415 S548
S0
G1 X218.542 S588
S0
G1 X218.669 S666
S0
G1 X218.796 S572
S0
G1 X218.923 S349
S0
G1 X219.050 S195
S0
G1 X219.177 S189
S0
G1 X219.304 S216
S0
G1 X219.431 S259
S0
G1 X219.558 S391
S0
G1 X219.685 S757
S0
G1 X219.812 S485
S0
G1 X219.939 S225
S0
G1 X220.066 S445
S0
G1 X220.193 S653
S0
G1 X220.320 S347
S0
G1 X220.447 S213
S0
G1 X220.574 S37
S0
G1 X220.701 S67
S0
G1 X220.828 S118
S0
G1 X220.955 S126
S0
G1 X221.082 S50
S0
G1 X221.209 S32
S0
G1 X221.336 S217
S0
G1 X221.463 S397
S0
G1 X221.590 S328
S0
G1 X221.717 S89
S0
G1 X221.844 S30
S0
G1 X221.971 S130
S0
G1 X222.098 S98
S0
G1 X222.225 S79
S0
G1 X222.352 S78
S0
G1 X222.479 S82
S0
G1 X222.606 S83
S0
G1 X222.733 S79
S0
G1 X222.860 S41
S0
G1 X222.987 S295
S0
G1 X223.114 S462
S0
G1 X223.241 S408
S0
G1 X223.368 S415
S0
G1 X223.495 S405
S0
G1 X223.622 S436
S0
G1 X223.749 S487
S0
G1 X223.876 S197
S0
G1 X224.003 S45
S0
G1 X224.130 S99
S0
G1 X224.257 S115
S0
G1 X224.384 S47
S0
G1 X238.989 S2
S0
G1 X239.116 S193
S0
G0 Y42.545
G0 X239.116 S0
G1 X238.989 S193
S0
G1 X224.384 S2
S0
G1 X224.257 S63
S0
G1 X224.130 S114
S0
G1 X224.003 S72
S0
G1 X223.876 S14
S0
G1 X223.749 S346
S0
G1 X223.622 S486
S0
G1 X223.368 S407
S0
G1 X223.241 S411
S0
G1 X223.114 S415
S0
G1 X222.987 S458
S0
G1 X222.860 S181
S0
G1 X222.733 S29
S0
G1 X222.606 S82
S0
G1 X222.352 S83
S0
G1 X222.225 S79
S0
G1 X222.098 S83
S0
G1 X221.971 S78
S0
G1 X221.844 S79
S0
G1 X221.717 S31
S0
G1 X221.590 S226
S0
G1 X221.463 S409
S0
G1 X221.336 S300
S0
G1 X221.209 S59
S0
G1 X221.082 S17
S0
G1 X220.955 S146
S0
G1 X220.828 S245
S0
G1 X220.701 S86
S0
G1 X220.574 S35
S0
G1 X220.447 S146
S0
G1 X220.320 S391
S0
G1 X220.193 S404
S0
G1 X220.066 S601
S0
G1 X219.939 S633
S0
G1 X219.812 S233
S0
G1 X219.685 S276
S0
G1 X219.558 S248
S0
G1 X219.431 S217
S0
G1 X219.304 S249
S0
G1 X219.177 S618
S0
G1 X219.050 S505
S0
G1 X218.923 S199
S0
G1 X218.796 S178
S0
G1 X218.669 S218
S0
G1 X218.542 S439
S0
G1 X218.415 S615
S0
G1 X218.288 S602
S0
G1 X218.161 S533
S0
G1 X218.034 S516
S0
G1 X217.907 S493
S0
G1 X217.780 S474
S0
G1 X217.653 S504
S0
G1 X217.526 S283
S0
G1 X217.399 S5
S0
G1 X217.272 S21
S0
G1 X217.145 S66
S0
G1 X217.018 S412
S0
G1 X216.891 S546
S0
G1 X216.764 S393
S0
G1 X216.637 S125
S0
G1 X216.510 S127
S0
G1 X216.383 S447
S0
G1 X216.256 S409
S0
G1 X216.129 S393
S0
G1 X216.002 S388
S0
G1 X215.875 S393
S0
G1 X215.748 S387
S0
G1 X215.621 S379
S0
G1 X215.494 S380
S0
G1 X215.367 S374
S0
G1 X215.240 S419
S0
G1 X215.113 S375
S0
G1 X214.986 S162
S0
G1 X214.859 S39
S0
G1 X214.732 S67
S0
G1 X214.605 S99
S0
G1 X214.478 S95
S0
G1 X214.351 S90
S0
G1 X214.224 S91
S0
G1 X214.097 S93
S0
G1 X213.970 S95
S0
G1 X213.716 S96
S0
G1 X213.462 S95
S0
G1 X213.335 S94
S0
G1 X213.208 S96
S0
G1 X211.176 S95
S0
G1 X211.049 S94
S0
G1 X210.922 S95
S0
G1 X210.795 S96
S0
G1 X210.541 S94
S0
G1 X210.414 S71
S0
G1 X210.287 S184
S0
G1 X210.160 S259
S0
G1 X210.033 S99
S0
G1 X209.906 S63
S0
G1 X209.779 S44
S0
G1 X209.652 S236
S0
G1 X209.525 S344
S0
G1 X209.398 S340
S0
G1 X209.271 S252
S0
G1 X209.144 S91
S0
G1 X209.017 S63
S0
G1 X208.890 S252
S0
G1 X208.763 S181
S0
G1 X208.636 S106
S0
G1 X208.509 S185
S0
G1 X208.382 S82
S0
G1 X208.255 S86
S0
G1 X208.128 S11
S0
G1 X200.127 S2
S0
G1 X200.000 S193
S0
G0 Y42.418
G0 X200.000 S0
G1 X200.127 S193
S0
G1 X208.128 S2
S0
G1 X208.255 S25
S0
G1 X208.382 S80
S0
G1 X208.509 S189
S0
G1 X208.636 S279
S0
G1 X208.763 S184
S0
G1 X208.890 S264
S0
G1 X209.017 S292
S0
G1 X209.144 S245
S0
G1 X209.271 S274
S0
G1 X209.398 S317
S0
G1 X209.525 S299
S0
G1 X209.652 S318
S0
G1 X209.779 S369
S0
G1 X209.906 S315
S0
G1 X210.033 S200
S0
G1 X210.160 S91
S0
G1 X210.287 S157
S0
G1 X210.414 S134
S0
G1 X210.541 S80
S0
G1 X210.668 S97
S0
G1 X211.049 S95
S0
G1 X211.176 S90
S0
G1 X213.208 S95
S0
G1 X213.335 S99
S0
G1 X213.462 S91
S0
G1 X213.589 S95
S0
G1 X213.716 S99
S0
G1 X214.224 S95
S0
G1 X214.351 S90
S0
G1 X214.605 S95
S0
G1 X214.732 S91
S0
G1 X214.859 S99
S0
G1 X214.986 S90
S0
G1 X215.113 S35
S0
G1 X215.240 S102
S0
G1 X215.367 S367
S0
G1 X215.494 S409
S0
G1 X215.621 S375
S0
G1 X215.748 S381
S0
G1 X215.875 S384
S0
G1 X216.002 S388
S0
G1 X216.129 S387
S0
G1 X216.256 S395
S0
G1 X216.383 S391
S0
G1 X216.510 S420
S0
G1 X216.637 S439
S0
G1 X216.764 S146
S0
G1 X216.891 S17
S0
G1 X217.018 S67
S0
G1 X217.145 S58
S0
G1 X217.272 S252
S0
G1 X217.399 S283
S0
G1 X217.526 S507
S0
G1 X217.653 S541
S0
G1 X217.780 S435
S0
G1 X217.907 S471
S0
G1 X218.034 S485
S0
G1 X218.161 S531
S0
G1 X218.288 S597
S0
G1 X218.415 S501
S0
G1 X218.542 S289
S0
G1 X218.669 S172
S0
G1 X218.796 S188
S0
G1 X218.923 S221
S0
G1 X219.050 S245
S0
G1 X219.177 S409
S0
G1 X219.304 S792
S0
G1 X219.431 S637
S0
G1 X219.558 S464
S0
G1 X219.685 S475
S0
G1 X219.812 S451
S0
G1 X219.939 S604
S0
G1 X220.066 S726
S0
G1 X220.193 S398
S0
G1 X220.320 S753
S0
G1 X220.447 S488
S0
G1 X220.574 S312
S0
G1 X220.701 S106
S0
G1 X220.828 S24
S0
G1 X220.955 S127
S0
G1 X221.082 S300
S0
G1 X221.209 S161
S0
G1 X221.336 S12
S0
G1 X221.463 S99
S0
G1 X221.590 S366
S0
G1 X221.717 S379
S0
G1 X221.844 S131
S0
G1 X221.971 S39
S0
G1 X222.225 S86
S0
G1 X222.733 S83
S0
G1 X222.860 S67
S0
G1 X222.987 S68
S0
G1 X223.114 S377
S0
G1 X223.241 S451
S0
G1 X223.368 S412
S0
G1 X223.495 S413
S0
G1 X223.622 S416
S0
G1 X223.749 S428
S0
G1 X223.876 S427
S0
G1 X224.003 S280
S0
G1 X224.130 S106
S0
G1 X224.257 S92
S0
G1 X224.384 S78
S0
G1 X224.511 S5
S0
G1 X238.989 S2
S0
G1 X239.116 S193
S0
G0 Y42.291
G0 X239.116 S0
G1 X238.989 S193
S0
G1 X224.511 S2
S0
G1 X224.384 S9
S0
G1 X224.257 S92
S0
G1 X224.130 S60
S0
G1 X224.003 S170
S0
G1 X223.876 S518
S0
G1 X223.749 S468
S0
G1 X223.622 S448
S0
G1 X223.495 S432
S0
G1 X223.368 S409
S0
G1 X223.241 S407
S0
G1 X223.114 S482
S0
G1 X222.987 S247
S0
G1 X222.860 S18
S0
G1 X222.733 S91
S0
G1 X222.606 S83
S0
G1 X222.479 S78
S0
G1 X222.352 S82
S0
G1 X222.225 S78
S0
G1 X222.098 S82
S0
G1 X221.971 S67
S0
G1 X221.844 S48
S0
G1 X221.717 S299
S0
G1 X221.590 S409
S0
G1 X221.463 S127
S0
G1 X221.336 S23
S0
G1 X221.209 S256
S0
G1 X221.082 S302
S0
G1 X220.955 S94
S0
G1 X220.828 S16
S0
G1 X220.701 S85
S0
G1 X220.574 S274
S0
G1 X220.447 S440
S0
G1 X220.320 S719
S0
G1 X220.193 S811
S0
G1 X220.066 S561
S0
G1 X219.939 S484
S0
G1 X219.812 S746
S0
G1 X219.685 S660
S0
G1 X219.558 S648
S0
G1 X219.431 S646
S0
G1 X219.304 S626
S0
G1 X219.177 S307
S0
G1 X219.050 S224
S0
G1 X218.923 S245
S0
G1 X218.796 S506
S0
G1 X218.669 S460
S0
G1 X218.542 S172
S0
G1 X218.415 S160
S0
G1 X218.288 S186
S0
G1 X218.161 S376
S0
G1 X218.034 S549
S0
G1 X217.907 S544
S0
G1 X217.780 S474
S0
G1 X217.653 S395
S0
G1 X217.526 S584
S0
G1 X217.399 S899
S0
G1 X217.272 S517
S0
G1 X217.145 S388
S0
G1 X217.018 S168
S0
G1 X216.891 S224
S0
G1 X216.764 S467
S0
G1 X216.637 S415
S0
G1 X216.510 S416
S0
G1 X216.383 S397
S0
G1 X216.256 S396
S0
G1 X216.129 S391
S0
G1 X216.002 S387
S0
G1 X215.875 S385
S0
G1 X215.748 S388
S0
G1 X215.621 S385
S0
G1 X215.494 S393
S0
G1 X215.367 S396
S0
G1 X215.240 S138
S0
G1 X215.113 S44
S0
G1 X214.986 S99
S0
G1 X214.859 S100
S0
G1 X214.732 S97
S0
G1 X214.605 S94
S0
G1 X214.351 S95
S0
G1 X214.097 S92
S0
G1 X213.970 S94
S0
G1 X213.843 S99
S0
G1 X213.716 S95
S0
G1 X213.589 S90
S0
G1 X213.462 S94
S0
G1 X213.335 S97
S0
G1 X213.208 S91
S0
G1 X211.049 S95
S0
G1 X210.922 S91
S0
G1 X210.795 S94
S0
G1 X210.668 S95
S0
G1 X210.541 S94
S0
G1 X210.414 S100
S0
G1 X210.287 S74
S0
G1 X210.160 S70
S0
G1 X210.033 S72
S0
G1 X209.906 S164
S0
G1 X209.779 S300
S0
G1 X209.652 S310
S0
G1 X209.525 S342
S0
G1 X209.398 S341
S0
G1 X209.271 S342
S0
G1 X209.144 S345
S0
G1 X209.017 S317
S0
G1 X208.890 S274
S0
G1 X208.763 S283
S0
G1 X208.636 S270
S0
G1 X208.509 S262
S0
G1 X208.382 S286
S0
G1 X208.255 S176
S0
G1 X208.128 S25
S0
G1 X200.127 S2
S0
G1 X200.000 S193
S0
G0 Y42.164
G0 X200.000 S0
G1 X200.127 S193
S0
G1 X208.128 S2
S0
G1 X208.255 S91
S0
G1 X208.382 S287
S0
G1 X208.509 S271
S0
G1 X208.636 S268
S0
G1 X208.763 S279
S0
G1 X208.890 S283
S0
G1 X209.017 S317
S0
G1 X209.144 S319
S0
G1 X209.271 S220
S0
G1 X209.398 S189
S0
G1 X209.525 S185
S0
G1 X209.652 S145
S0
G1 X209.779 S110
S0
G1 X209.906 S54
S0
G1 X210.033 S66
S0
G1 X210.160 S97
S0
G1 X210.287 S95
S0
G1 X210.414 S91
S0
G1 X210.541 S99
S0
G1 X210.668 S87
S0
G1 X211.049 S94
S0
G1 X211.176 S92
S0
G1 X213.208 S95
S0
G1 X213.589 S94
S0
G1 X213.716 S97
S0
G1 X213.843 S94
S0
G1 X213.970 S90
S0
G1 X214.351 S95
S0
G1 X214.478 S90
S0
G1 X214.732 S95
S0
G1 X214.859 S91
S0
G1 X214.986 S99
S0
G1 X215.113 S92
S0
G1 X215.240 S94
S0
G1 X215.367 S40
S0
G1 X215.494 S267
S0
G1 X215.621 S428
S0
G1 X215.748 S381
S0
G1 X215.875 S385
S0
G1 X216.129 S384
S0
G1 X216.256 S387
S0
G1 X216.383 S397
S0
G1 X216.510 S427
S0
G1 X216.637 S419
S0
G1 X216.891 S437
S0
G1 X217.018 S95
S0
G1 X217.145 S271
S0
G1 X217.272 S224
S0
G1 X217.399 S356
S0
G1 X217.526 S768
S0
G1 X217.653 S517
S0
G1 X217.780 S427
S0
G1 X217.907 S533
S0
G1 X218.034 S477
S0
G1 X218.161 S259
S0
G1 X218.288 S145
S0
G1 X218.415 S131
S0
G1 X218.542 S158
S0
G1 X218.669 S219
S0
G1 X218.796 S398
S0
G1 X218.923 S676
S0
G1 X219.050 S369
S0
G1 X219.177 S259
S0
G1 X219.304 S263
S0
G1 X219.431 S187
S0
G1 X219.558 S209
S0
G1 X219.685 S216
S0
G1 X219.812 S228
S0
G1 X219.939 S224
S0
G1 X220.066 S288
S0
G1 X220.193 S650
S0
G1 X220.320 S772
S0
G1 X220.447 S764
S0
G1 X220.574 S730
S0
G1 X220.701 S449
S0
G1 X220.828 S294
S0
G1 X220.955 S197
S0
G1 X221.082 S40
S0
G1 X221.209 S15
S0
G1 X221.336 S251
S0
G1 X221.463 S304
S0
G1 X221.590 S50
S0
G1 X221.717 S126
S0
G1 X221.844 S410
S0
G1 X221.971 S200
S0
G1 X222.098 S27
S0
G1 X222.225 S81
S0
G1 X222.352 S79
S0
G1 X222.479 S83
S0
G1 X222.606 S79
S0
G1 X222.733 S83
S0
G1 X222.860 S75
S0
G1 X222.987 S56
S0
G1 X223.114 S98
S0
G1 X223.241 S424
S0
G1 X223.368 S508
S0
G1 X223.495 S479
S0
G1 X223.622 S439
S0
G1 X223.749 S385
S0
G1 X223.876 S463
S0
G1 X224.003 S362
S0
G1 X224.130 S79
S0
G1 X224.257 S91
S0
G1 X224.384 S95
S0
G1 X224.511 S16
S0
G1 X238.989 S2
S0
G1 X239.116 S193
S0
G0 Y42.037
G0 X239.116 S0
G1 X238.989 S193
S0
G1 X224.511 S2
S0
G1 X224.384 S24
S0
G1 X224.257 S106
S0
G1 X224.130 S98
S0
G1 X224.003 S78
S0
G1 X223.876 S115
S0
G1 X223.749 S133
S0
G1 X223.622 S52
S0
G1 X223.495 S106
S0
G1 X223.368 S244
S0
G1 X223.241 S275
S0
G1 X223.114 S142
S0
G1 X222.987 S55
S0
G1 X222.860 S91
S0
G1 X222.733 S83
S0
G1 X222.606 S82
S0
G1 X222.479 S83
S0
G1 X222.352 S82
S0
G1 X222.225 S83
S0
G1 X222.098 S34
S0
G1 X221.971 S154
S0
G1 X221.844 S390
S0
G1 X221.717 S209
S0
G1 X221.590 S98
S0
G1 X221.463 S334
S0
G1 X221.336 S204
S0
G1 X221.209 S43
S0
G1 X221.082 S149
S0
G1 X220.955 S268
S0
G1 X220.828 S323
S0
G1 X220.701 S484
S0
G1 X220.574 S744
S0
G1 X220.447 S769
S0
G1 X220.320 S765
S0
G1 X220.193 S608
S0
G1 X220.066 S265
S0
G1 X219.939 S257
S0
G1 X219.812 S425
S0
G1 X219.685 S444
S0
G1 X219.558 S427
S0
G1 X219.431 S441
S0
G1 X219.304 S392
S0
G1 X219.177 S261
S0
G1 X219.050 S222
S0
G1 X218.923 S503
S0
G1 X218.796 S566
S0
G1 X218.669 S153
S0
G1 X218.542 S299
S0
G1 X218.415 S769
S0
G1 X218.288 S544
S0
G1 X218.161 S151
S0
G1 X218.034 S134
S0
G1 X217.907 S169
S0
G1 X217.780 S369
S0
G1 X217.653 S491
S0
G1 X217.526 S514
S0
G1 X217.399 S674
S0
G1 X217.272 S196
S0
G1 X217.145 S186
S0
G1 X217.018 S258
S0
G1 X216.891 S4
S0
G1 X216.764 S95
S0
G1 X216.637 S401
S0
G1 X216.510 S325
S0
G1 X216.383 S282
S0
G1 X216.256 S432
S0
G1 X216.129 S434
S0
G1 X216.002 S385
S0
G1 X215.875 S383
S0
G1 X215.748 S382
S0
G1 X215.621 S386
S0
G1 X215.494 S424
S0
G1 X215.367 S205
S0
G1 X215.240 S44
S0
G1 X215.113 S95
S0
G1 X214.986 S94
S0
G1 X214.859 S95
S0
G1 X214.732 S90
S0
G1 X214.478 S94
S0
G1 X214.224 S95
S0
G1 X214.097 S90
S0
G1 X213.335 S95
S0
G1 X213.208 S91
S0
G1 X211.049 S95
S0
G1 X210.922 S94
S0
G1 X210.541 S95
S0
G1 X210.414 S90
S0
G1 X210.287 S96
S0
G1 X210.160 S94
S0
G1 X210.033 S91
S0
G1 X209.906 S95
S0
G1 X209.779 S87
S0
G1 X209.652 S78
S0
G1 X209.525 S68
S0
G1 X209.271 S61
S0
G1 X209.144 S58
S0
G1 X209.017 S121
S0
G1 X208.890 S299
S0
G1 X208.763 S326
S0
G1 X208.636 S282
S0
G1 X208.509 S283
S0
G1 X208.382 S275
S0
G1 X208.255 S303
S0
G1 X208.128 S185
S0
G1 X200.127 S2
S0
G1 X200.000 S193
S0
G0 Y41.910
G0 X200.000 S0
G1 X200.127 S193
S0
G1 X207.366 S2
S0
G1 X207.493 S1
S0
G1 X208.128 S2
S0
G1 X208.255 S227
S0
G1 X208.382 S307
S0
G1 X208.509 S283
S0
G1 X208.636 S290
S0
G1 X208.763 S335
S0
G1 X208.890 S313
S0
G1 X209.017 S100
S0
G1 X209.144 S52
S0
G1 X214.224 S95
S0
G1 X214.351 S94
S0
G1 X214.478 S95
S0
G1 X214.605 S94
S0
G1 X214.732 S91
S0
G1 X214.986 S95
S0
G1 X215.113 S94
S0
G1 X215.240 S95
S0
G1 X215.367 S47
S0
G1 X215.494 S188
S0
G1 X215.621 S412
S0
G1 X215.748 S381
S0
G1 X216.002 S385
S0
G1 X216.129 S448
S0
G1 X216.256 S295
S0
G1 X216.383 S37
S0
G1 X216.510 S228
S0
G1 X216.637 S483
S0
G1 X216.764 S161
S0
G1 X216.891 S29
S0
G1 X217.018 S40
S0
G1 X217.145 S235
S0
G1 X217.272 S180
S0
G1 X217.399 S99
S0
G1 X217.526 S607
S0
G1 X217.653 S470
S0
G1 X217.780 S251
S0
G1 X217.907 S122
S0
G1 X218.034 S130
S0
G1 X218.161 S170
S0
G1 X218.288 S173
S0
G1 X218.415 S577
S0
G1 X218.542 S648
S0
G1 X218.669 S182
S0
G1 X218.796 S330
S0
G1 X218.923 S631
S0
G1 X219.050 S306
S0
G1 X219.177 S192
S0
G1 X219.304 S413
S0
G1 X219.431 S785
S0
G1 X219.558 S696
S0
G1 X219.685 S683
S0
G1 X219.812 S711
S0
G1 X219.939 S757
S0
G1 X220.066 S664
S0
G1 X220.193 S323
S0
G1 X220.320 S245
S0
G1 X220.447 S566
S0
G1 X220.574 S722
S0
G1 X220.701 S756
S0
G1 X220.828 S781
S0
G1 X220.955 S557
S0
G1 X221.082 S394
S0
G1 X221.209 S327
S0
G1 X221.336 S261
S0
G1 X221.463 S236
S0
G1 X221.590 S332
S0
G1 X221.717 S323
S0
G1 X221.844 S253
S0
G1 X221.971 S351
S0
G1 X222.098 S354
S0
G1 X222.225 S127
S0
G1 X222.352 S36
S0
G1 X222.479 S87
S0
G1 X222.606 S82
S0
G1 X222.733 S86
S0
G1 X222.860 S82
S0
G1 X223.114 S79
S0
G1 X223.241 S18
S0
G1 X223.368 S2
S0
G1 X223.495 S4
S0
G1 X223.622 S13
S0
G1 X223.749 S35
S0
G1 X223.876 S16
S0
G1 X224.003 S32
S0
G1 X224.130 S98
S0
G1 X224.257 S99
S0
G1 X224.384 S107
S0
G1 X224.511 S33
S0
G1 X224.638 S2
S0
G0 X224.765 S0
G1 X224.892 S5
S0
G1 X225.146 S1
S0
G1 X225.273 S5
S0
G1 X225.400 S1
S0
G1 X238.989 S2
S0
G1 X239.116 S193
S0
G0 Y41.783
G0 X239.116 S0
G1 X238.989 S193
S0
G1 X225.146 S2
S0
G1 X225.019 S5
S0
G1 X224.892 S2
S0
G1 X224.765 S4
S0
G1 X224.511 S5
S0
G1 X224.384 S38
S0
G1 X224.257 S114
S0
G1 X224.130 S83
S0
G1 X224.003 S47
S0
G1 X223.876 S56
S0
G1 X223.749 S72
S0
G1 X223.368 S67
S0
G1 X223.241 S71
S0
G1 X223.114 S63
S0
G1 X222.860 S59
S0
G1 X222.733 S63
S0
G1 X222.606 S71
S0
G1 X222.479 S78
S0
G1 X222.352 S58
S0
G1 X222.225 S162
S0
G1 X222.098 S367
S0
G1 X221.971 S350
S0
G1 X221.844 S303
S0
G1 X221.717 S341
S0
G1 X221.590 S292
S0
G1 X221.463 S300
S0
G1 X221.336 S425
S0
G1 X221.209 S559
S0
G1 X221.082 S663
S0
G1 X220.955 S765
S0
G1 X220.828 S807
S0
G1 X220.701 S733
S0
G1 X220.574 S727
S0
G1 X220.447 S679
S0
G1 X220.320 S260
S0
G1 X220.193 S432
S0
G1 X220.066 S828
S0
G1 X219.939 S746
S0
G1 X219.685 S583
S0
G1 X219.558 S575
S0
G1 X219.431 S505
S0
G1 X219.304 S651
S0
G1 X219.177 S692
S0
G1 X219.050 S275
S0
G1 X218.923 S176
S0
G1 X218.796 S523
S0
G1 X218.669 S632
S0
G1 X218.542 S233
S0
G1 X218.415 S116
S0
G1 X218.288 S109
S0
G1 X218.161 S226
S0
G1 X218.034 S499
S0
G1 X217.907 S378
S0
G1 X217.780 S120
S0
G1 X217.653 S8
S0
G1 X217.526 S89
S0
G1 X217.399 S416
S0
G1 X217.272 S169
S0
G1 X217.145 S236
S0
G1 X217.018 S220
S0
G1 X216.891 S48
S0
G1 X216.764 S92
S0
G1 X216.637 S2
S0
G1 X216.510 S227
S0
G1 X216.383 S671
S0
G1 X216.256 S309
S0
G1 X216.129 S2
S0
G1 X216.002 S225
S0
G1 X215.875 S444
S0
G1 X215.748 S380
S0
G1 X215.621 S392
S0
G1 X215.494 S396
S0
G1 X215.367 S158
S0
G1 X215.240 S59
S0
G1 X215.113 S95
S0
G1 X214.986 S97
S0
G1 X214.859 S94
S0
G1 X214.732 S91
S0
G1 X214.605 S94
S0
G1 X214.351 S91
S0
G1 X209.144 S95
S0
G1 X209.017 S99
S0
G1 X208.890 S57
S0
G1 X208.763 S118
S0
G1 X208.636 S321
S0
G1 X208.509 S359
S0
G1 X208.382 S313
S0
G1 X208.255 S307
S0
G1 X208.128 S262
S0
G1 X208.001 S25
S0
G1 X207.620 S2
S0
G1 X207.493 S5
S0
G1 X200.127 S2
S0
G1 X200.000 S193
S0
G0 Y41.656
G0 X200.000 S0
G1 X200.127 S193
S0
G1 X208.001 S2
S0
G1 X208.128 S59
S0
G1 X208.255 S321
S0
G1 X208.382 S342
S0
G1 X208.509 S282
S0
G1 X208.636 S227
S0
G1 X208.763 S113
S0
G1 X208.890 S65
S0
G1 X209.017 S100
S0
G1 X209.144 S99
S0
G1 X212.319 S95
S0
G1 X212.446 S91
S0
G1 X214.478 S95
S0
G1 X214.605 S91
S0
G1 X214.732 S94
S0
G1 X214.859 S96
S0
G1 X214.986 S97
S0
G1 X215.113 S91
S0
G1 X215.240 S94
S0
G1 X215.367 S78
S0
G1 X215.494 S106
S0
G1 X215.621 S354
S0
G1 X215.748 S401
S0
G1 X215.875 S432
S0
G1 X216.002 S275
S0
G1 X216.129 S63
S0
G1 X216.256 S470
S0
G1 X216.383 S748
S0
G1 X216.510 S255
S0
G1 X216.637 S1
S0
G1 X216.764 S90
S0
G1 X216.891 S82
S0
G1 X217.018 S62
S0
G1 X217.145 S126
S0
G1 X217.272 S337
S0
G1 X217.399 S243
S0
G1 X217.526 S27
S0
G1 X217.653 S7
S0
G1 X217.780 S150
S0
G1 X217.907 S173
S0
G1 X218.034 S314
S0
G1 X218.161 S586
S0
G1 X218.288 S527
S0
G1 X218.415 S404
S0
G1 X218.542 S515
S0
G1 X218.669 S604
S0
G1 X218.796 S640
S0
G1 X218.923 S296
S0
G1 X219.050 S193
S0
G1 X219.177 S546
S0
G1 X219.304 S655
S0
G1 X219.431 S464
S0
G1 X219.558 S538
S0
G1 X219.685 S622
S0
G1 X219.812 S586
S0
G1 X219.939 S547
S0
G1 X220.066 S570
S0
G1 X220.193 S835
S0
G1 X220.320 S447
S0
G1 X220.447 S393
S0
G1 X220.574 S748
S0
G1 X220.701 S739
S0
G1 X220.828 S732
S0
G1 X220.955 S691
S0
G1 X221.082 S660
S0
G1 X221.209 S714
S0
G1 X221.336 S756
S0
G1 X221.463 S768
S0
G1 X221.590 S687
S0
G1 X221.717 S453
S0
G1 X221.844 S331
S0
G1 X221.971 S403
S0
G1 X222.098 S365
S0
G1 X222.225 S311
S0
G1 X222.352 S190
S0
G1 X222.479 S44
S0
G1 X222.606 S65
S0
G1 X222.860 S63
S0
G1 X222.987 S67
S0
G1 X223.114 S74
S0
G1 X223.368 S71
S0
G1 X223.622 S75
S0
G1 X223.749 S71
S0
G1 X224.003 S67
S0
G1 X224.130 S66
S0
G1 X224.257 S58
S0
G1 X224.384 S102
S0
G1 X224.511 S43
S0
G1 X224.638 S6
S0
G1 X224.765 S2
S0
G1 X224.892 S1
S0
G1 X225.019 S2
S0
G1 X225.273 S1
S0
G1 X238.989 S2
S0
G1 X239.116 S193
S0
G0 Y41.529
G0 X239.116 S0
G1 X238.989 S193
S0
G1 X225.400 S2
S0
G1 X225.273 S5
S0
G1 X225.146 S3
S0
G0 X225.019 S0
G1 X224.892 S7
S0
G1 X224.765 S24
S0
G1 X224.638 S56
S0
G1 X224.511 S78
S0
G1 X224.384 S131
S0
G1 X224.257 S78
S0
G1 X224.130 S64
S0
G1 X223.876 S68
S0
G1 X223.749 S66
S0
G1 X223.622 S71
S0
G1 X223.368 S76
S0
G1 X223.241 S71
S0
G1 X223.114 S77
S0
G1 X222.987 S75
S0
G1 X222.860 S71
S0
G1 X222.733 S79
S0
G1 X222.606 S74
S0
G1 X222.479 S78
S0
G1 X222.352 S83
S0
G1 X222.225 S44
S0
G1 X222.098 S43
S0
G1 X221.971 S154
S0
G1 X221.844 S281
S0
G1 X221.717 S562
S0
G1 X221.590 S859
S0
G1 X221.463 S823
S0
G1 X221.336 S582
S0
G1 X221.209 S521
S0
G1 X221.082 S506
S0
G1 X220.955 S502
S0
G1 X220.828 S514
S0
G1 X220.701 S561
S0
G1 X220.574 S612
S0
G1 X220.447 S707
S0
G1 X220.320 S656
S0
G1 X220.193 S308
S0
G1 X220.066 S709
S0
G1 X219.939 S696
S0
G1 X219.812 S489
S0
G1 X219.685 S496
S0
G1 X219.558 S507
S0
G1 X219.431 S480
S0
G1 X219.304 S435
S0
G1 X219.177 S601
S0
