; GCODE generated by Laserweb
; Laser Min: 0%
; Laser Max: 100%
; Black Speed: 200mm/min
; White Speed: 800mm/min
; Resolution (mm per pixel): 0.12699999999999187mm
; Laser Spot Size: NaNmm
; Laser Feedrate: 2000mm/min
; X Offset: 200mm
; Y Offset: 0mm 

G1 F1000
; Start GCode
G92
G90
G1Z0
M3S0

G0 Y49.911
G0 X200.000 S0
G1 X219.939 S2
S0
G1 X220.066 S5
S0
G1 X220.320 S9
S0
G1 X220.447 S8
S0
G1 X220.574 S2
S0
G1 X220.955 S5
S0
G1 X221.082 S9
S0
G1 X221.336 S5
S0
G1 X221.463 S16
S0
G1 X221.590 S11
S0
G1 X221.844 S16
S0
G1 X221.971 S4
S0
G1 X222.098 S24
S0
G1 X222.225 S129
S0
G1 X222.352 S328
S0
G1 X222.479 S553
S0
G1 X222.606 S655
S0
G1 X222.733 S658
S0
G1 X222.860 S592
S0
G1 X222.987 S556
S0
G1 X223.114 S560
S0
G1 X223.241 S564
S0
G1 X223.368 S572
S0
G1 X223.495 S573
S0
G1 X223.622 S572
S0
G1 X223.749 S574
S0
G1 X223.876 S564
S0
G1 X224.003 S571
S0
G1 X224.130 S565
S0
G1 X224.257 S559
S0
G1 X224.511 S572
S0
G1 X224.638 S556
S0
G1 X224.765 S557
S0
G1 X224.892 S564
S0
G1 X225.019 S568
S0
G1 X225.146 S563
S0
G1 X225.273 S567
S0
G1 X225.400 S560
S0
G1 X225.527 S561
S0
G1 X225.781 S553
S0
G1 X225.908 S544
S0
G1 X226.035 S539
S0
G1 X226.162 S552
S0
G1 X226.289 S565
S0
G1 X226.416 S579
S0
G1 X226.543 S591
S0
G1 X226.670 S606
S0
G1 X226.797 S626
S0
G1 X226.924 S654
S0
G1 X227.051 S681
S0
G1 X227.178 S709
S0
G1 X227.305 S736
S0
G1 X227.432 S772
S0
G1 X227.559 S799
S0
G1 X227.686 S822
S0
G1 X227.813 S849
S0
G1 X227.940 S862
S0
G1 X228.067 S879
S0
G1 X228.194 S890
S0
G1 X228.575 S891
S0
G1 X228.702 S887
S0
G1 X228.829 S882
S0
G1 X228.956 S878
S0
G1 X229.083 S883
S0
G1 X229.210 S882
S0
G1 X229.464 S875
S0
G1 X229.591 S870
S0
G1 X229.718 S843
S0
G1 X229.845 S836
S0
G1 X229.972 S815
S0
G1 X230.099 S776
S0
G1 X230.226 S740
S0
G1 X230.353 S706
S0
G1 X230.480 S673
S0
G1 X230.607 S634
S0
G1 X230.734 S601
S0
G1 X230.861 S581
S0
G1 X230.988 S568
S0
G1 X231.115 S540
S0
G1 X231.242 S544
S0
G1 X231.369 S563
S0
G1 X231.496 S559
S0
G1 X231.623 S557
S0
G1 X231.750 S563
S0
G1 X231.877 S568
S0
G1 X232.004 S563
S0
G1 X232.131 S571
S0
G1 X232.258 S575
S0
G1 X232.385 S567
S0
G1 X232.512 S568
S0
G1 X232.639 S577
S0
G1 X232.766 S580
S0
G1 X232.893 S564
S0
G1 X233.020 S579
S0
G1 X233.147 S551
S0
G1 X233.274 S532
S0
G1 X233.401 S555
S0
G1 X233.528 S627
S0
G1 X233.655 S732
S0
G1 X233.782 S769
S0
G1 X233.909 S634
S0
G1 X234.036 S383
S0
G1 X234.163 S114
S0
G1 X234.290 S25
S0
G1 X234.417 S8
S0
G1 X234.544 S7
S0
G1 X234.671 S28
S0
G1 X234.798 S12
S0
G1 X234.925 S5
S0
G1 X235.052 S9
S0
G1 X235.179 S13
S0
G1 X235.306 S1
S0
G1 X235.433 S9
S0
G1 X235.687 S5
S0
G1 X235.814 S2
S0
G1 X235.941 S15
S0
G1 X236.068 S3
S0
G1 X236.703 S2
S0
G0 X236.957 S0
G1 X237.084 S5
S0
G1 X237.338 S2
S0
G1 X237.465 S3
S0
G1 X237.592 S8
S0
G1 X237.846 S5
S0
G1 X237.973 S13
S0
G1 X238.100 S10
S0
G1 X238.227 S11
S0
G1 X238.354 S9
S0
G1 X238.481 S12
S0
G1 X238.608 S21
S0
G1 X238.735 S3
S0
G1 X238.862 S5
S0
G1 X238.989 S393
S0
G1 X239.116 S646
S0
G1 X239.243 S598
S0
G1 X239.370 S574
S0
G1 X239.497 S586
S0
G1 X239.624 S571
S0
G1 X239.751 S583
S0
G1 X239.878 S808
S0
G1 X240.005 S889
S0
G1 X240.132 S866
S0
G1 X240.259 S874
S0
G1 X240.386 S868
S0
G1 X240.513 S870
S0
G1 X240.640 S866
S0
G1 X240.767 S863
S0
G1 X240.894 S866
S0
G1 X241.148 S871
S0
G1 X241.275 S875
S0
G1 X241.402 S862
S0
G1 X241.529 S870
S0
G1 X241.656 S866
S0
G1 X241.783 S871
S0
G1 X241.910 S863
S0
G1 X242.037 S872
S0
G1 X242.164 S878
S0
G1 X242.291 S709
S0
G1 X242.418 S559
S0
G1 X242.545 S592
S0
G1 X242.672 S607
S0
G1 X242.799 S458
S0
G1 X242.926 S46
S0
G1 X243.053 S24
S0
G1 X243.180 S31
S0
G1 X243.307 S13
S0
G1 X243.688 S1
S0
G1 X243.815 S2
S0
G1 X244.069 S5
S0
G1 X250.038 S2
S0
G0 Y49.784
G0 X250.038 S0
G1 X244.577 S2
S0
G1 X244.450 S5
S0
G1 X244.196 S2
S0
G1 X244.069 S9
S0
G1 X243.942 S5
S0
G1 X243.815 S2
S0
G1 X243.688 S9
S0
G1 X243.561 S5
S0
G1 X243.434 S2
S0
G1 X243.307 S3
S0
G1 X243.180 S13
S0
G1 X243.053 S32
S0
G1 X242.926 S5
S0
G1 X242.799 S356
S0
G1 X242.672 S612
S0
G1 X242.545 S593
S0
G1 X242.418 S571
S0
G1 X242.291 S647
S0
G1 X242.164 S871
S0
G1 X242.037 S883
S0
G1 X241.910 S879
S0
G1 X241.783 S874
S0
G1 X241.656 S867
S0
G1 X241.529 S871
S0
G1 X241.402 S873
S0
G1 X241.275 S866
S0
G1 X241.148 S871
S0
G1 X241.021 S875
S0
G1 X240.894 S869
S0
G1 X240.767 S865
S0
G1 X240.640 S866
S0
G1 X240.513 S863
S0
G1 X240.386 S866
S0
G1 X240.259 S870
S0
G1 X240.132 S871
S0
G1 X240.005 S867
S0
G1 X239.878 S879
S0
G1 X239.751 S866
S0
G1 X239.624 S677
S0
G1 X239.497 S545
S0
G1 X239.370 S592
S0
G1 X239.243 S584
S0
G1 X239.116 S581
S0
G1 X238.989 S639
S0
G1 X238.862 S526
S0
G1 X238.735 S98
S0
G1 X238.608 S5
S0
G1 X238.481 S16
S0
G1 X238.354 S14
S0
G1 X238.227 S10
S0
G1 X238.100 S13
S0
G1 X237.846 S16
S0
G1 X237.719 S12
S0
G1 X237.592 S1
S0
G1 X237.465 S6
S0
G1 X237.338 S3
S0
G1 X237.211 S5
S0
G1 X237.084 S2
S0
G1 X236.322 S5
S0
G1 X236.195 S3
S0
G1 X236.068 S2
S0
G1 X235.941 S9
S0
G1 X235.814 S2
S0
G1 X235.687 S9
S0
G1 X235.560 S1
S0
G1 X235.433 S4
S0
G1 X235.306 S5
S0
G1 X235.179 S9
S0
G1 X235.052 S20
S0
G1 X234.925 S36
S0
G1 X234.798 S31
S0
G1 X234.671 S16
S0
G1 X234.544 S11
S0
G1 X234.417 S43
S0
G1 X234.290 S239
S0
G1 X234.163 S492
S0
G1 X234.036 S670
S0
G1 X233.909 S708
S0
G1 X233.782 S647
S0
G1 X233.655 S576
S0
G1 X233.528 S540
S0
G1 X233.401 S567
S0
G1 X233.274 S564
S0
G1 X233.147 S573
S0
G1 X233.020 S580
S0
G1 X232.893 S575
S0
G1 X232.766 S560
S0
G1 X232.639 S567
S0
G1 X232.512 S572
S0
G1 X232.385 S573
S0
G1 X232.258 S568
S0
G1 X232.131 S576
S0
G1 X231.877 S559
S0
G1 X231.750 S560
S0
G1 X231.623 S540
S0
G1 X231.496 S565
S0
G1 X231.369 S605
S0
G1 X231.242 S635
S0
G1 X231.115 S695
S0
G1 X230.988 S733
S0
G1 X230.861 S784
S0
G1 X230.734 S827
S0
G1 X230.607 S851
S0
G1 X230.480 S874
S0
G1 X230.353 S886
S0
G1 X230.226 S889
S0
G1 X230.099 S895
S0
G1 X229.972 S887
S0
G1 X229.845 S882
S0
G1 X229.591 S875
S0
G1 X229.464 S882
S0
G1 X229.337 S876
S0
G1 X229.210 S871
S0
G1 X228.956 S872
S0
G1 X228.829 S868
S0
G1 X228.702 S863
S0
G1 X228.575 S859
S0
G1 X228.448 S863
S0
G1 X228.194 S864
S0
G1 X228.067 S867
S0
G1 X227.940 S871
S0
G1 X227.813 S870
S0
G1 X227.559 S866
S0
G1 X227.432 S883
S0
G1 X227.305 S882
S0
G1 X227.178 S883
S0
G1 X227.051 S890
S0
G1 X226.924 S886
S0
G1 X226.797 S875
S0
G1 X226.670 S859
S0
G1 X226.543 S852
S0
G1 X226.416 S846
S0
G1 X226.289 S821
S0
G1 X226.162 S792
S0
G1 X226.035 S772
S0
G1 X225.908 S736
S0
G1 X225.781 S701
S0
G1 X225.654 S674
S0
G1 X225.527 S638
S0
G1 X225.400 S618
S0
G1 X225.273 S592
S0
G1 X225.146 S568
S0
G1 X225.019 S552
S0
G1 X224.892 S556
S0
G1 X224.765 S555
S0
G1 X224.638 S565
S0
G1 X224.511 S569
S0
G1 X224.384 S575
S0
G1 X224.257 S570
S0
G1 X224.130 S569
S0
G1 X224.003 S568
S0
G1 X223.876 S571
S0
G1 X223.622 S568
S0
G1 X223.495 S564
S0
G1 X223.368 S573
S0
G1 X223.241 S569
S0
G1 X223.114 S572
S0
G1 X222.987 S577
S0
G1 X222.860 S572
S0
G1 X222.733 S573
S0
G1 X222.606 S554
S0
G1 X222.479 S567
S0
G1 X222.352 S630
S0
G1 X222.225 S640
S0
G1 X222.098 S620
S0
G1 X221.971 S495
S0
G1 X221.844 S279
S0
G1 X221.717 S70
S0
G0 X221.590 S0
G1 X221.463 S2
S0
G1 X221.336 S9
S0
G1 X221.209 S20
S0
G1 X220.828 S12
S0
G1 X220.701 S2
S0
G1 X220.574 S9
S0
G1 X220.447 S2
S0
G1 X220.320 S9
S0
G1 X220.066 S12
S0
G1 X219.812 S9
S0
G1 X219.685 S2
S0
G1 X219.558 S5
S0
G1 X219.431 S9
S0
G1 X219.177 S2
S0
G1 X218.923 S5
S0
G1 X200.000 S2
S0
G0 Y49.657
G0 X200.000 S0
G1 X218.542 S2
S0
G1 X218.796 S5
S0
G1 X219.050 S2
S0
G1 X219.431 S5
S0
G1 X219.685 S2
S0
G1 X219.812 S9
S0
G1 X219.939 S5
S0
G1 X220.066 S2
S0
G1 X220.193 S16
S0
G1 X220.447 S9
S0
G1 X220.574 S16
S0
G1 X220.701 S2
S0
G1 X220.955 S9
S0
G1 X221.336 S1
S0
G1 X221.463 S29
S0
G1 X221.590 S176
S0
G1 X221.717 S416
S0
G1 X221.844 S580
S0
G1 X221.971 S643
S0
G1 X222.098 S603
S0
G1 X222.225 S565
S0
G1 X222.352 S563
S0
G1 X222.479 S556
S0
G1 X222.606 S563
S0
G1 X222.733 S565
S0
G1 X222.860 S564
S0
G1 X222.987 S568
S0
G1 X223.114 S565
S0
G1 X223.241 S567
S0
G1 X223.368 S563
S0
G1 X223.876 S568
S0
G1 X224.003 S556
S0
G1 X224.130 S560
S0
G1 X224.257 S556
S0
G1 X224.384 S550
S0
G1 X224.511 S558
S0
G1 X224.638 S567
S0
G1 X224.765 S592
S0
G1 X224.892 S639
S0
G1 X225.019 S696
S0
G1 X225.146 S749
S0
G1 X225.273 S812
S0
G1 X225.400 S843
S0
G1 X225.527 S863
S0
G1 X225.654 S883
S0
G1 X225.781 S890
S0
G1 X225.908 S899
S0
G1 X226.035 S892
S0
G1 X226.289 S886
S0
G1 X226.416 S887
S0
G1 X226.670 S882
S0
G1 X226.797 S879
S0
G1 X226.924 S878
S0
G1 X227.051 S869
S0
G1 X227.178 S872
S0
G1 X227.305 S871
S0
G1 X227.432 S866
S0
G1 X227.559 S869
S0
G1 X227.686 S862
S0
G1 X227.813 S871
S0
G1 X227.940 S875
S0
G1 X228.067 S870
S0
G1 X228.194 S862
S0
G1 X228.321 S866
S0
G1 X228.448 S870
S0
G1 X228.575 S866
S0
G1 X228.702 S871
S0
G1 X228.829 S875
S0
G1 X228.956 S874
S0
G1 X229.083 S875
S0
G1 X229.210 S878
S0
G1 X229.337 S874
S0
G1 X229.464 S870
S0
G1 X229.591 S874
S0
G1 X229.718 S870
S0
G1 X229.845 S862
S0
G1 X229.972 S867
S0
G1 X230.099 S871
S0
G1 X230.226 S867
S0
G1 X230.353 S866
S0
G1 X230.480 S874
S0
G1 X230.607 S882
S0
G1 X230.734 S879
S0
G1 X230.861 S873
S0
G1 X230.988 S878
S0
G1 X231.115 S885
S0
G1 X231.242 S895
S0
G1 X231.369 S878
S0
G1 X231.496 S854
S0
G1 X231.623 S807
S0
G1 X231.750 S737
S0
G1 X231.877 S671
S0
G1 X232.004 S636
S0
G1 X232.131 S592
S0
G1 X232.258 S556
S0
G1 X232.385 S548
S0
G1 X232.512 S560
S0
G1 X232.639 S544
S0
G1 X232.766 S560
S0
G1 X232.893 S575
S0
G1 X233.020 S556
S0
G1 X233.147 S580
S0
G1 X233.274 S563
S0
G1 X233.401 S572
S0
G1 X233.528 S581
S0
G1 X233.655 S559
S0
G1 X233.782 S563
S0
G1 X233.909 S553
S0
G1 X234.036 S541
S0
G1 X234.163 S609
S0
G1 X234.290 S675
S0
G1 X234.417 S683
S0
G1 X234.544 S524
S0
G1 X234.671 S291
S0
G1 X234.798 S83
S0
G1 X234.925 S15
S0
G1 X235.052 S10
S0
G1 X235.179 S12
S0
G1 X235.306 S13
S0
G1 X235.433 S16
S0
G1 X235.560 S7
S0
G1 X235.687 S9
S0
G1 X235.814 S2
S0
G1 X235.941 S5
S0
G1 X236.068 S2
S0
G1 X236.195 S5
S0
G1 X236.322 S9
S0
G0 X236.449 S0
G1 X236.576 S5
S0
G1 X236.957 S2
S0
G1 X237.211 S5
S0
G1 X237.465 S2
S0
G1 X237.719 S5
S0
G1 X237.846 S13
S0
G1 X237.973 S9
S0
G1 X238.100 S8
S0
G1 X238.227 S11
S0
G1 X238.354 S9
S0
G1 X238.481 S14
S0
G1 X238.608 S16
S0
G1 X238.735 S3
S0
G1 X238.862 S246
S0
G1 X238.989 S615
S0
G1 X239.116 S614
S0
G1 X239.243 S576
S0
G1 X239.370 S583
S0
G1 X239.497 S571
S0
G1 X239.624 S561
S0
G1 X239.751 S780
S0
G1 X239.878 S886
S0
G1 X240.005 S872
S0
G1 X240.132 S867
S0
G1 X240.259 S865
S0
G1 X240.386 S875
S0
G1 X240.513 S865
S0
G1 X240.640 S867
S0
G1 X240.767 S868
S0
G1 X240.894 S866
S0
G1 X241.021 S865
S0
G1 X241.148 S873
S0
G1 X241.275 S865
S0
G1 X241.402 S866
S0
G1 X241.529 S870
S0
G1 X241.656 S867
S0
G1 X241.783 S874
S0
G1 X241.910 S863
S0
G1 X242.037 S867
S0
G1 X242.164 S870
S0
G1 X242.291 S882
S0
G1 X242.418 S823
S0
G1 X242.545 S614
S0
G1 X242.672 S583
S0
G1 X242.799 S584
S0
G1 X242.926 S592
S0
G1 X243.053 S223
S0
G1 X243.180 S6
S0
G1 X243.307 S24
S0
G1 X243.434 S2
S0
G1 X243.561 S13
S0
G1 X243.688 S2
S0
G1 X243.815 S5
S0
G1 X244.069 S2
S0
G1 X244.196 S5
S0
G1 X244.450 S2
S0
G1 X244.577 S5
S0
G1 X250.038 S2
S0
G0 Y49.530
G0 X250.038 S0
G1 X244.196 S2
S0
G1 X244.069 S5
S0
G1 X243.942 S2
S0
G1 X243.815 S5
S0
G1 X243.688 S2
S0
G0 X243.561 S0
G1 X243.434 S1
S0
G1 X243.307 S15
S0
G1 X243.180 S1
S0
G1 X243.053 S112
S0
G1 X242.926 S545
S0
G1 X242.799 S609
S0
G1 X242.672 S593
S0
G1 X242.545 S580
S0
G1 X242.418 S787
S0
G1 X242.291 S898
S0
G1 X242.164 S862
S0
G1 X242.037 S873
S0
G1 X241.910 S870
S0
G1 X241.783 S871
S0
G1 X241.656 S870
S0
G1 X241.529 S871
S0
G1 X241.402 S875
S0
G1 X241.275 S870
S0
G1 X241.021 S869
S0
G1 X240.894 S865
S0
G1 X240.767 S866
S0
G1 X240.640 S868
S0
G1 X240.513 S867
S0
G1 X240.386 S866
S0
G1 X240.259 S871
S0
G1 X240.132 S875
S0
G1 X240.005 S874
S0
G1 X239.878 S870
S0
G1 X239.751 S879
S0
G1 X239.624 S850
S0
G1 X239.497 S639
S0
G1 X239.370 S552
S0
G1 X239.243 S584
S0
G1 X239.116 S581
S0
G1 X238.989 S601
S0
G1 X238.862 S639
S0
G1 X238.735 S396
S0
G1 X238.608 S7
S0
G1 X238.481 S2
S0
G1 X238.354 S24
S0
G1 X238.227 S10
S0
G1 X238.100 S9
S0
G1 X237.973 S16
S0
G1 X237.846 S12
S0
G1 X237.592 S5
S0
G1 X237.465 S9
S0
G1 X237.338 S5
S0
G1 X237.211 S3
S0
G1 X237.084 S5
S0
G1 X236.703 S2
S0
G1 X236.576 S5
S0
G1 X236.449 S1
S0
G1 X236.322 S7
S0
G1 X236.195 S2
S0
G1 X236.068 S9
S0
G1 X235.941 S1
S0
G1 X235.814 S5
S0
G1 X235.687 S9
S0
G1 X235.560 S7
S0
G1 X235.433 S17
S0
G1 X235.306 S28
S0
G1 X235.179 S5
S0
G1 X235.052 S13
S0
G1 X234.925 S102
S0
G1 X234.798 S337
S0
G1 X234.671 S552
S0
G1 X234.544 S664
S0
G1 X234.417 S649
S0
G1 X234.290 S568
S0
G1 X234.163 S560
S0
G1 X234.036 S564
S0
G1 X233.909 S569
S0
G1 X233.782 S567
S0
G1 X233.655 S579
S0
G1 X233.528 S567
S0
G1 X233.401 S563
S0
G1 X233.274 S577
S0
G1 X233.147 S555
S0
G1 X233.020 S558
S0
G1 X232.893 S560
S0
G1 X232.766 S571
S0
G1 X232.639 S569
S0
G1 X232.512 S599
S0
G1 X232.385 S652
S0
G1 X232.258 S707
S0
G1 X232.131 S776
S0
G1 X232.004 S833
S0
G1 X231.877 S866
S0
G1 X231.750 S886
S0
G1 X231.623 S897
S0
G1 X231.496 S887
S0
G1 X231.369 S882
S0
G1 X231.242 S875
S0
G1 X231.115 S876
S0
G1 X230.988 S866
S0
G1 X230.861 S875
S0
G1 X230.734 S882
S0
G1 X230.607 S871
S0
G1 X230.480 S866
S0
G1 X230.353 S874
S0
G1 X230.226 S866
S0
G1 X230.099 S869
S0
G1 X229.972 S878
S0
G1 X229.845 S875
S0
G1 X229.718 S871
S0
G1 X229.591 S877
S0
G1 X229.464 S883
S0
G1 X229.337 S867
S0
G1 X229.210 S866
S0
G1 X229.083 S867
S0
G1 X228.956 S862
S0
G1 X228.829 S863
S0
G1 X228.575 S867
S0
G1 X228.448 S875
S0
G1 X228.321 S867
S0
G1 X228.194 S868
S0
G1 X228.067 S875
S0
G1 X227.940 S882
S0
G1 X227.813 S874
S0
G1 X227.686 S868
S0
G1 X227.559 S863
S0
G1 X227.432 S870
S0
G1 X227.305 S871
S0
G1 X227.178 S875
S0
G1 X226.924 S874
S0
G1 X226.797 S878
S0
G1 X226.670 S874
S0
G1 X226.543 S878
S0
G1 X226.416 S886
S0
G1 X226.162 S879
S0
G1 X226.035 S875
S0
G1 X225.908 S859
S0
G1 X225.781 S865
S0
G1 X225.527 S870
S0
G1 X225.273 S886
S0
G1 X225.146 S889
S0
G1 X225.019 S897
S0
G1 X224.892 S890
S0
G1 X224.765 S874
S0
G1 X224.638 S852
S0
G1 X224.511 S777
S0
G1 X224.384 S725
S0
G1 X224.257 S678
S0
G1 X224.130 S619
S0
G1 X224.003 S567
S0
G1 X223.749 S561
S0
G1 X223.622 S556
S0
G1 X223.495 S565
S0
G1 X223.368 S572
S0
G1 X223.241 S564
S0
G1 X223.114 S569
S0
G1 X222.987 S564
S0
G1 X222.860 S561
S0
G1 X222.733 S552
S0
G1 X222.479 S556
S0
G1 X222.352 S565
S0
G1 X222.225 S587
S0
G1 X222.098 S621
S0
G1 X221.971 S681
S0
G1 X221.844 S736
S0
G1 X221.717 S827
S0
G1 X221.590 S926
S0
G1 X221.463 S886
S0
G1 X221.336 S623
S0
G1 X221.209 S282
S0
G1 X221.082 S78
S0
G1 X220.955 S9
S0
G1 X220.828 S1
S0
G1 X220.701 S5
S0
G1 X220.574 S9
S0
G1 X220.447 S16
S0
G1 X220.320 S12
S0
G1 X220.193 S16
S0
G1 X219.939 S5
S0
G1 X219.812 S12
S0
G1 X219.558 S9
S0
G1 X218.796 S5
S0
G1 X200.000 S2
S0
G0 Y49.403
G0 X200.000 S0
G1 X218.161 S2
S0
G1 X218.288 S5
S0
G1 X218.669 S2
S0
G1 X218.796 S5
S0
G1 X219.050 S2
S0
G1 X219.177 S1
S0
G1 X219.431 S5
S0
G1 X219.558 S9
S0
G1 X219.685 S1
S0
G1 X219.812 S9
S0
G1 X219.939 S13
S0
G1 X220.066 S5
S0
G1 X220.193 S16
S0
G1 X220.447 S20
S0
G1 X220.574 S12
S0
G1 X220.701 S2
S0
G1 X220.828 S24
S0
G1 X220.955 S169
S0
G1 X221.082 S467
S0
G1 X221.209 S756
S0
G1 X221.336 S925
S0
G1 X221.463 S938
S0
G1 X221.590 S886
S0
G1 X221.717 S874
S0
G1 X221.844 S909
S0
G1 X221.971 S930
S0
G1 X222.098 S902
S0
G1 X222.225 S881
S0
G1 X222.352 S842
S0
G1 X222.479 S768
S0
G1 X222.606 S706
S0
G1 X222.733 S655
S0
G1 X222.860 S599
S0
G1 X222.987 S572
S0
G1 X223.114 S556
S0
G1 X223.241 S553
S0
G1 X223.368 S539
S0
G1 X223.495 S556
S0
G1 X223.622 S545
S0
G1 X223.749 S573
S0
G1 X223.876 S631
S0
G1 X224.003 S703
S0
G1 X224.130 S785
S0
G1 X224.257 S862
S0
G1 X224.384 S877
S0
G1 X224.511 S899
S0
G1 X224.638 S893
S0
G1 X224.765 S882
S0
G1 X224.892 S874
S0
G1 X225.019 S871
S0
G1 X225.146 S862
S0
G1 X225.273 S870
S0
G1 X225.400 S876
S0
G1 X225.527 S871
S0
G1 X225.654 S862
S0
G1 X225.781 S878
S0
G1 X225.908 S875
S0
G1 X226.035 S863
S0
G1 X226.162 S872
S0
G1 X226.289 S874
S0
G1 X226.416 S869
S0
G1 X226.543 S875
S0
G1 X226.670 S867
S0
G1 X226.797 S871
S0
G1 X226.924 S875
S0
G1 X227.051 S867
S0
G1 X227.178 S872
S0
G1 X227.305 S874
S0
G1 X227.432 S872
S0
G1 X227.559 S870
S0
G1 X227.686 S871
S0
G1 X227.813 S870
S0
G1 X228.067 S871
S0
G1 X228.194 S867
S0
G1 X228.448 S866
S0
G1 X228.575 S871
S0
G1 X228.702 S866
S0
G1 X228.829 S871
S0
G1 X228.956 S875
S0
G1 X229.083 S871
S0
G1 X229.337 S870
S0
G1 X229.845 S871
S0
G1 X229.972 S867
S0
G1 X230.099 S870
S0
G1 X230.353 S875
S0
G1 X230.480 S870
S0
G1 X230.607 S871
S0
G1 X230.861 S866
S0
G1 X230.988 S867
S0
G1 X231.115 S875
S0
G1 X231.242 S878
S0
G1 X231.369 S862
S0
G1 X231.496 S870
S0
G1 X231.623 S863
S0
G1 X231.877 S867
S0
G1 X232.004 S878
S0
G1 X232.131 S891
S0
G1 X232.258 S889
S0
G1 X232.385 S882
S0
G1 X232.512 S877
S0
G1 X232.639 S839
S0
G1 X232.766 S796
S0
G1 X232.893 S717
S0
G1 X233.020 S662
S0
G1 X233.147 S600
S0
G1 X233.274 S564
S0
G1 X233.401 S552
S0
G1 X233.655 S555
S0
G1 X233.782 S556
S0
G1 X233.909 S563
S0
G1 X234.036 S559
S0
G1 X234.163 S576
S0
G1 X234.290 S583
S0
G1 X234.417 S568
S0
G1 X234.544 S555
S0
G1 X234.671 S556
S0
G1 X234.798 S612
S0
G1 X234.925 S639
S0
G1 X235.052 S548
S0
G1 X235.179 S334
S0
G1 X235.306 S122
S0
G1 X235.433 S20
S0
G1 X235.560 S16
S0
G1 X235.687 S6
S0
G1 X235.814 S12
S0
G1 X235.941 S9
S0
G1 X236.068 S11
S0
G1 X236.195 S20
S0
G1 X236.322 S22
S0
G1 X236.449 S5
S0
G1 X236.576 S9
S0
G1 X236.703 S12
S0
G1 X236.830 S8
S0
G1 X236.957 S5
S0
G1 X237.084 S2
S0
G1 X237.211 S1
S0
G1 X237.338 S9
S0
G1 X237.592 S8
S0
G1 X237.719 S9
S0
G1 X237.846 S3
S0
G1 X237.973 S7
S0
G1 X238.227 S12
S0
G1 X238.354 S7
S0
G1 X238.481 S20
S0
G1 X238.608 S2
S0
G1 X238.735 S94
S0
G1 X238.862 S517
S0
G1 X238.989 S630
S0
G1 X239.116 S583
S0
G1 X239.243 S588
S0
G1 X239.370 S587
S0
G1 X239.497 S564
S0
G1 X239.624 S730
S0
G1 X239.751 S886
S0
G1 X239.878 S881
S0
G1 X240.005 S863
S0
G1 X240.132 S868
S0
G1 X240.259 S879
S0
G1 X240.386 S861
S0
G1 X240.513 S871
S0
G1 X240.767 S866
S0
G1 X240.894 S867
S0
G1 X241.021 S865
S0
G1 X241.148 S867
S0
G1 X241.275 S870
S0
G1 X241.402 S865
S0
G1 X241.656 S870
S0
G1 X241.783 S866
S0
G1 X241.910 S873
S0
G1 X242.037 S865
S0
G1 X242.164 S858
S0
G1 X242.418 S870
S0
G1 X242.545 S890
S0
G1 X242.672 S737
S0
G1 X242.799 S572
S0
G1 X242.926 S591
S0
G1 X243.053 S628
S0
G1 X243.180 S463
S0
G1 X243.307 S55
S0
G1 X243.434 S2
S0
G1 X243.561 S9
S0
G1 X244.069 S5
S0
G1 X244.196 S9
S0
G1 X244.450 S2
S0
G1 X244.577 S9
S0
G1 X250.038 S2
S0
G0 Y49.276
G0 X250.038 S0
G1 X244.577 S2
S0
G1 X244.450 S5
S0
G1 X244.196 S2
S0
G1 X243.942 S5
S0
G1 X243.688 S9
S0
G1 X243.561 S1
S0
G1 X243.434 S15
S0
G1 X243.307 S5
S0
G1 X243.180 S181
S0
G1 X243.053 S632
S0
G1 X242.926 S613
S0
G1 X242.799 S557
S0
G1 X242.672 S677
S0
G1 X242.545 S890
S0
G1 X242.291 S869
S0
G1 X242.164 S870
S0
G1 X242.037 S871
S0
G1 X241.910 S870
S0
G1 X241.783 S874
S0
G1 X241.656 S862
S0
G1 X241.529 S863
S0
G1 X241.275 S865
S0
G1 X241.148 S874
S0
G1 X241.021 S867
S0
G1 X240.894 S871
S0
G1 X240.767 S865
S0
G1 X240.640 S866
S0
G1 X240.513 S864
S0
G1 X240.386 S866
S0
G1 X240.132 S870
S0
G1 X240.005 S866
S0
G1 X239.878 S874
S0
G1 X239.751 S887
S0
G1 X239.624 S894
S0
G1 X239.497 S830
S0
G1 X239.370 S600
S0
G1 X239.243 S548
S0
G1 X239.116 S603
S0
G1 X238.989 S584
S0
G1 X238.862 S627
S0
G1 X238.735 S603
S0
G1 X238.608 S236
S0
G1 X238.481 S2
S0
G1 X238.354 S11
S0
G1 X238.227 S8
S0
G1 X238.100 S14
S0
G1 X237.973 S13
S0
G1 X237.846 S11
S0
G1 X237.719 S12
S0
G1 X237.592 S4
S0
G1 X237.465 S7
S0
G1 X237.338 S9
S0
G1 X237.211 S6
S0
G1 X236.830 S5
S0
G1 X236.703 S8
S0
G1 X236.576 S13
S0
G1 X236.449 S16
S0
G1 X236.322 S5
S0
G1 X236.195 S27
S0
G1 X236.068 S44
S0
G1 X235.941 S36
S0
G1 X235.814 S19
S0
G1 X235.687 S3
S0
G1 X235.560 S9
S0
G1 X235.433 S115
S0
G1 X235.306 S357
S0
G1 X235.179 S584
S0
G1 X235.052 S622
S0
G1 X234.925 S590
S0
G1 X234.798 S560
S0
G1 X234.671 S544
S0
G1 X234.544 S565
S0
G1 X234.417 S569
S0
G1 X234.163 S567
S0
G1 X234.036 S552
S0
G1 X233.909 S548
S0
G1 X233.782 S549
S0
G1 X233.655 S557
S0
G1 X233.528 S577
S0
G1 X233.401 S647
S0
G1 X233.274 S701
S0
G1 X233.147 S781
S0
G1 X233.020 S847
S0
G1 X232.893 S883
S0
G1 X232.766 S890
S0
G1 X232.639 S889
S0
G1 X232.512 S883
S0
G1 X232.385 S884
S0
G1 X232.258 S874
S0
G1 X232.131 S868
S0
G1 X232.004 S872
S0
G1 X231.877 S869
S0
G1 X231.750 S871
S0
G1 X231.623 S870
S0
G1 X231.369 S867
S0
G1 X231.242 S869
S0
G1 X230.861 S871
S0
G1 X230.734 S867
S0
G1 X230.607 S870
S0
G1 X230.226 S866
S0
G1 X230.099 S862
S0
G1 X229.972 S863
S0
G1 X229.210 S866
S0
G1 X229.083 S867
S0
G1 X228.956 S862
S0
G1 X228.829 S866
S0
G1 X228.575 S869
S0
G1 X228.448 S866
S0
G1 X228.321 S867
S0
G1 X228.194 S871
S0
G1 X227.940 S864
S0
G1 X227.686 S866
S0
G1 X227.559 S862
S0
G1 X227.432 S867
S0
G1 X227.305 S863
S0
G1 X227.178 S870
S0
G1 X227.051 S869
S0
G1 X226.924 S867
S0
G1 X226.797 S870
S0
G1 X226.670 S867
S0
G1 X226.543 S863
S0
G1 X226.416 S871
S0
G1 X226.289 S862
S0
G1 X226.162 S874
S0
G1 X226.035 S862
S0
G1 X225.908 S869
S0
G1 X225.781 S880
S0
G1 X225.654 S869
S0
G1 X225.400 S875
S0
G1 X225.273 S873
S0
G1 X225.146 S875
S0
G1 X225.019 S878
S0
G1 X224.892 S870
S0
G1 X224.765 S871
S0
G1 X224.638 S882
S0
G1 X224.511 S870
S0
G1 X224.384 S876
S0
G1 X224.257 S872
S0
G1 X224.130 S883
S0
G1 X224.003 S888
S0
G1 X223.876 S895
S0
G1 X223.749 S862
S0
G1 X223.622 S821
S0
G1 X223.495 S751
S0
G1 X223.368 S682
S0
G1 X223.241 S658
S0
G1 X223.114 S685
S0
G1 X222.987 S742
S0
G1 X222.860 S815
S0
G1 X222.733 S855
S0
G1 X222.606 S882
S0
G1 X222.479 S898
S0
G1 X222.352 S893
S0
G1 X222.225 S894
S0
G1 X222.098 S881
S0
G1 X221.971 S869
S0
G1 X221.844 S871
S0
G1 X221.717 S869
S0
G1 X221.590 S873
S0
G1 X221.463 S874
S0
G1 X221.336 S870
S0
G1 X221.209 S879
S0
G1 X221.082 S925
S0
G1 X220.955 S941
S0
G1 X220.828 S859
S0
G1 X220.701 S607
S0
G1 X220.574 S258
S0
G1 X220.447 S60
S0
G1 X220.320 S9
S0
G1 X220.193 S5
S0
G1 X220.066 S13
S0
G1 X219.939 S16
S0
G1 X219.812 S24
S0
G1 X219.685 S28
S0
G1 X219.558 S9
S0
G1 X219.050 S5
S0
G1 X218.923 S2
S0
G1 X218.796 S5
S0
G1 X218.288 S2
S0
G1 X218.161 S5
S0
G1 X200.000 S2
S0
G0 Y49.149
G0 X200.000 S0
G1 X218.034 S2
S0
G1 X218.288 S5
S0
G1 X218.415 S2
S0
G1 X218.669 S5
S0
G1 X218.923 S9
S0
G1 X219.050 S5
S0
G1 X219.177 S12
S0
G1 X219.431 S16
S0
G1 X219.558 S12
S0
G1 X219.685 S20
S0
G1 X219.812 S9
S0
G1 X219.939 S2
S0
G0 X220.066 S0
G1 X220.193 S7
S0
G1 X220.320 S89
S0
G1 X220.447 S346
S0
G1 X220.574 S705
S0
G1 X220.701 S925
S0
G1 X220.828 S945
S0
G1 X220.955 S894
S0
G1 X221.082 S877
S0
G1 X221.209 S874
S0
G1 X221.336 S870
S0
G1 X221.463 S871
S0
G1 X221.590 S874
S0
G1 X221.717 S878
S0
G1 X221.844 S871
S0
G1 X221.971 S866
S0
G1 X222.098 S871
S0
G1 X222.225 S877
S0
G1 X222.352 S865
S0
G1 X222.479 S871
S0
G1 X222.606 S859
S0
G1 X222.733 S869
S0
G1 X222.860 S877
S0
G1 X222.987 S898
S0
G1 X223.114 S929
S0
G1 X223.241 S958
S0
G1 X223.368 S960
S0
G1 X223.495 S976
S0
G1 X223.622 S994
S0
G1 X223.749 S974
S0
G1 X223.876 S937
S0
G1 X224.003 S913
S0
G1 X224.130 S890
S0
G1 X224.257 S881
S0
G1 X224.384 S878
S0
G1 X224.511 S871
S0
G1 X224.638 S864
S0
G1 X224.765 S866
S0
G1 X224.892 S874
S0
G1 X225.019 S869
S0
G1 X225.146 S863
S0
G1 X225.527 S871
S0
G1 X225.654 S867
S0
G1 X225.781 S874
S0
G1 X225.908 S871
S0
G1 X226.162 S867
S0
G1 X226.289 S870
S0
G1 X226.416 S866
S0
G1 X226.543 S870
S0
G1 X226.670 S863
S0
G1 X226.797 S866
S0
G1 X227.051 S867
S0
G1 X227.178 S871
S0
G1 X227.305 S870
S0
G1 X227.432 S867
S0
G1 X227.559 S874
S0
G1 X227.686 S864
S0
G1 X227.813 S870
S0
G1 X227.940 S871
S0
G1 X228.067 S870
S0
G1 X228.194 S867
S0
G1 X228.321 S866
S0
G1 X228.956 S871
S0
G1 X229.083 S875
S0
G1 X229.337 S871
S0
G1 X229.464 S875
S0
G1 X229.591 S870
S0
G1 X229.718 S863
S0
G1 X229.845 S867
S0
G1 X229.972 S869
S0
G1 X230.226 S867
S0
G1 X230.353 S866
S0
G1 X230.480 S873
S0
G1 X230.607 S866
S0
G1 X230.734 S858
S0
G1 X230.861 S867
S0
G1 X230.988 S862
S0
G1 X231.115 S859
S0
G1 X231.242 S870
S0
G1 X231.369 S867
S0
G1 X231.496 S866
S0
G1 X231.623 S869
S0
G1 X231.750 S866
S0
G1 X231.877 S875
S0
G1 X232.004 S867
S0
G1 X232.131 S874
S0
G1 X232.258 S886
S0
G1 X232.385 S866
S0
G1 X232.512 S867
S0
G1 X232.639 S876
S0
G1 X232.766 S867
S0
G1 X233.020 S870
S0
G1 X233.147 S894
S0
G1 X233.274 S893
S0
G1 X233.401 S897
S0
G1 X233.528 S875
S0
G1 X233.655 S821
S0
G1 X233.782 S745
S0
G1 X233.909 S658
S0
G1 X234.036 S595
S0
G1 X234.163 S553
S0
G1 X234.290 S555
S0
G1 X234.417 S556
S0
G1 X234.544 S560
S0
G1 X234.671 S579
S0
G1 X234.798 S576
S0
G1 X234.925 S561
S0
G1 X235.052 S555
S0
G1 X235.179 S560
S0
G1 X235.306 S592
S0
G1 X235.433 S633
S0
G1 X235.560 S560
S0
G1 X235.687 S344
S0
G1 X235.814 S113
S0
G1 X236.068 S20
S0
G1 X236.195 S28
S0
G1 X236.322 S23
S0
G1 X236.449 S15
S0
G1 X236.576 S11
S0
G1 X236.703 S12
S0
G1 X236.830 S13
S0
G1 X236.957 S4
S0
G1 X237.211 S7
S0
G1 X237.338 S5
S0
G1 X237.465 S9
S0
G1 X237.719 S12
S0
G1 X237.846 S8
S0
G1 X237.973 S9
S0
G1 X238.100 S7
S0
G1 X238.354 S12
S0
G1 X238.481 S1
S0
G1 X238.608 S3
S0
G1 X238.735 S375
S0
G1 X238.862 S630
S0
G1 X238.989 S611
S0
G1 X239.116 S593
S0
G1 X239.243 S598
S0
G1 X239.370 S540
S0
G1 X239.497 S695
S0
G1 X239.624 S890
S0
G1 X239.751 S878
S0
G1 X239.878 S871
S0
G1 X240.005 S878
S0
G1 X240.132 S869
S0
G1 X240.259 S871
S0
G1 X240.386 S873
S0
G1 X240.513 S867
S0
G1 X240.767 S862
S0
G1 X240.894 S865
S0
G1 X241.021 S866
S0
G1 X241.148 S871
S0
G1 X241.275 S870
S0
G1 X241.402 S865
S0
G1 X241.529 S867
S0
G1 X241.783 S863
S0
G1 X241.910 S874
S0
G1 X242.037 S866
S0
G1 X242.164 S878
S0
G1 X242.291 S871
S0
G1 X242.418 S862
S0
G1 X242.545 S883
S0
G1 X242.672 S878
S0
G1 X242.799 S859
S0
G1 X242.926 S634
S0
G1 X243.053 S611
S0
G1 X243.180 S356
S0
G1 X243.307 S10
S0
G1 X243.434 S6
S0
G1 X243.561 S5
S0
G1 X243.688 S2
S0
G1 X243.815 S5
S0
G1 X243.942 S9
S0
G1 X244.323 S5
S0
G1 X250.038 S2
S0
G0 Y49.022
G0 X250.038 S0
G1 X244.577 S2
S0
G1 X244.450 S5
S0
G1 X244.196 S2
S0
G1 X244.069 S9
S0
G1 X243.815 S5
S0
G1 X243.688 S9
S0
G1 X243.561 S3
S0
G0 X243.434 S0
G1 X243.307 S13
S0
G1 X243.180 S12
S0
G1 X243.053 S31
S0
G1 X242.926 S432
S0
G1 X242.799 S859
S0
G1 X242.672 S897
S0
G1 X242.545 S866
S0
G1 X242.418 S883
S0
G1 X242.291 S871
S0
G1 X242.164 S875
S0
G1 X242.037 S867
S0
G1 X241.910 S869
S0
G1 X241.783 S866
S0
G1 X241.656 S865
S0
G1 X241.529 S863
S0
G1 X241.402 S866
S0
G1 X241.275 S865
S0
G1 X241.021 S866
S0
G1 X240.894 S865
S0
G1 X240.640 S866
S0
G1 X240.513 S863
S0
G1 X240.386 S870
S0
G1 X240.259 S859
S0
G1 X240.132 S874
S0
G1 X240.005 S866
S0
G1 X239.878 S870
S0
G1 X239.751 S871
S0
G1 X239.624 S879
S0
G1 X239.497 S907
S0
G1 X239.370 S815
S0
G1 X239.243 S588
S0
G1 X239.116 S569
S0
G1 X238.989 S591
S0
G1 X238.862 S602
S0
G1 X238.735 S636
S0
G1 X238.608 S504
S0
G1 X238.481 S99
S0
G1 X238.354 S3
S0
G1 X238.100 S12
S0
G1 X237.592 S9
S0
G1 X237.465 S7
S0
G1 X237.338 S9
S0
G1 X237.084 S5
S0
G1 X236.830 S4
S0
G1 X236.703 S14
S0
G1 X236.449 S16
S0
G1 X236.322 S5
S0
G1 X236.195 S2
S0
G1 X236.068 S20
S0
G1 X235.941 S132
S0
G1 X235.814 S368
S0
G1 X235.687 S575
S0
G1 X235.560 S634
S0
G1 X235.433 S596
S0
G1 X235.306 S564
S0
G1 X235.179 S557
S0
G1 X235.052 S581
S0
G1 X234.925 S580
S0
G1 X234.798 S571
S0
G1 X234.671 S565
S0
G1 X234.544 S544
S0
G1 X234.417 S568
S0
G1 X234.290 S564
S0
G1 X234.163 S640
S0
G1 X234.036 S757
S0
G1 X233.909 S836
S0
G1 X233.782 S894
S0
G1 X233.655 S901
S0
G1 X233.528 S887
S0
G1 X233.401 S883
S0
G1 X233.147 S879
S0
G1 X233.020 S878
S0
G1 X232.766 S876
S0
G1 X232.639 S868
S0
G1 X232.512 S855
S0
G1 X232.385 S867
S0
G1 X232.258 S871
S0
G1 X232.131 S867
S0
G1 X232.004 S870
S0
G1 X231.877 S875
S0
G1 X231.750 S871
S0
G1 X231.623 S866
S0
G1 X231.496 S862
S0
G1 X231.369 S866
S0
G1 X231.242 S867
S0
G1 X231.115 S862
S0
G1 X230.988 S866
S0
G1 X230.861 S865
S0
G1 X230.734 S868
S0
G1 X230.607 S871
S0
G1 X230.480 S863
S0
G1 X230.226 S866
S0
G1 X230.099 S870
S0
G1 X229.972 S866
S0
G1 X229.845 S868
S0
G1 X229.718 S867
S0
G1 X229.591 S863
S0
G1 X229.464 S867
S0
G1 X229.337 S866
S0
G1 X229.210 S867
S0
G1 X229.083 S868
S0
G1 X228.702 S867
S0
G1 X228.575 S872
S0
G1 X228.321 S867
S0
G1 X228.194 S862
S0
G1 X228.067 S866
S0
G1 X227.940 S871
S0
G1 X227.813 S867
S0
G1 X227.686 S871
S0
G1 X227.559 S870
S0
G1 X227.305 S867
S0
G1 X227.178 S863
S0
G1 X227.051 S866
S0
G1 X226.924 S863
S0
G1 X226.797 S867
S0
G1 X226.670 S871
S0
G1 X226.543 S862
S0
G1 X226.289 S867
S0
G1 X226.162 S875
S0
G1 X226.035 S867
S0
G1 X225.908 S863
S0
G1 X225.781 S866
S0
G1 X225.400 S871
S0
G1 X225.273 S870
S0
G1 X225.146 S862
S0
G1 X225.019 S867
S0
G1 X224.892 S871
S0
G1 X224.765 S868
S0
G1 X224.638 S874
S0
G1 X224.511 S890
S0
G1 X224.384 S918
S0
G1 X224.257 S939
S0
G1 X224.130 S958
S0
G1 X224.003 S965
S0
G1 X223.876 S977
S0
G1 X223.749 S984
S0
G1 X223.622 S964
S0
G1 X223.495 S972
S0
G1 X223.368 S971
S0
G1 X223.241 S966
S0
G1 X223.114 S985
S0
G1 X222.987 S977
S0
G1 X222.860 S955
S0
G1 X222.733 S929
S0
G1 X222.606 S899
S0
G1 X222.479 S886
S0
G1 X222.352 S879
S0
G1 X222.098 S875
S0
G1 X221.971 S870
S0
G1 X221.717 S867
S0
G1 X221.590 S869
S0
G1 X221.463 S881
S0
G1 X221.336 S879
S0
G1 X221.082 S871
S0
G1 X220.955 S886
S0
G1 X220.828 S903
S0
G1 X220.701 S872
S0
G1 X220.574 S887
S0
G1 X220.447 S952
S0
G1 X220.320 S965
S0
G1 X220.193 S781
S0
G1 X220.066 S436
S0
G1 X219.939 S134
S0
G1 X219.812 S9
S0
G1 X219.558 S2
S0
G1 X219.304 S12
S0
G1 X219.177 S9
S0
G1 X219.050 S5
S0
G1 X218.923 S2
S0
G1 X218.669 S5
S0
G1 X218.542 S2
S0
G1 X218.034 S5
S0
G1 X200.000 S2
S0
G0 Y48.895
G0 X200.000 S0
G1 X217.907 S2
S0
G1 X218.034 S5
S0
G1 X218.288 S12
S0
G1 X218.415 S5
S0
G1 X218.542 S7
S0
G1 X218.796 S5
S0
G1 X218.923 S20
S0
G1 X219.050 S11
S0
G1 X219.177 S5
S0
G1 X219.558 S2
S0
G1 X219.685 S12
S0
G1 X219.812 S176
S0
G1 X219.939 S503
S0
G1 X220.066 S827
S0
G1 X220.193 S962
S0
G1 X220.320 S918
S0
G1 X220.447 S867
S0
G1 X220.574 S859
S0
G1 X220.701 S877
S0
G1 X220.828 S876
S0
G1 X220.955 S872
S0
G1 X221.082 S886
S0
G1 X221.336 S882
S0
G1 X221.463 S883
S0
G1 X221.590 S874
S0
G1 X221.717 S867
S0
G1 X221.844 S870
S0
G1 X221.971 S866
S0
G1 X222.098 S863
S0
G1 X222.225 S891
S0
G1 X222.352 S902
S0
G1 X222.479 S924
S0
G1 X222.606 S961
S0
G1 X222.733 S978
S0
G1 X222.860 S980
S0
G1 X222.987 S976
S0
G1 X223.114 S961
S0
G1 X223.241 S965
S0
G1 X223.368 S970
S0
G1 X223.622 S969
S0
G1 X223.876 S965
S0
G1 X224.003 S960
S0
G1 X224.130 S968
S0
G1 X224.257 S982
S0
G1 X224.384 S972
S0
G1 X224.511 S982
S0
G1 X224.638 S973
S0
G1 X224.765 S953
S0
G1 X224.892 S927
S0
G1 X225.019 S905
S0
G1 X225.146 S895
S0
G1 X225.273 S871
S0
G1 X225.527 S875
S0
G1 X225.654 S866
S0
G1 X225.781 S871
S0
G1 X225.908 S872
S0
G1 X226.035 S869
S0
G1 X226.289 S871
S0
G1 X226.416 S869
S0
G1 X226.543 S874
S0
G1 X226.670 S867
S0
G1 X226.924 S871
S0
G1 X227.432 S867
S0
G1 X227.559 S866
S0
G1 X227.686 S867
S0
G1 X227.813 S866
S0
G1 X228.067 S867
S0
G1 X228.194 S866
S0
G1 X228.321 S867
S0
G1 X228.448 S866
S0
G1 X228.575 S867
S0
G1 X228.702 S863
S0
G1 X230.480 S867
S0
G1 X230.607 S863
S0
G1 X231.496 S867
S0
G1 X231.623 S863
S0
G1 X231.750 S871
S0
G1 X231.877 S866
S0
G1 X232.004 S871
S0
G1 X232.131 S867
S0
G1 X232.258 S862
S0
G1 X232.385 S867
S0
G1 X232.512 S874
S0
G1 X232.639 S867
S0
G1 X232.893 S871
S0
G1 X233.020 S877
S0
G1 X233.147 S870
S0
G1 X233.274 S876
S0
G1 X233.401 S880
S0
G1 X233.528 S877
S0
G1 X233.655 S867
S0
G1 X233.782 S862
S0
G1 X233.909 S863
S0
G1 X234.036 S894
S0
G1 X234.163 S905
S0
G1 X234.290 S884
S0
G1 X234.417 S791
S0
G1 X234.544 S663
S0
G1 X234.671 S575
S0
G1 X234.798 S543
S0
G1 X234.925 S555
S0
G1 X235.179 S568
S0
G1 X235.306 S571
S0
G1 X235.433 S567
S0
G1 X235.560 S553
S0
G1 X235.687 S548
S0
G1 X235.814 S583
S0
G1 X235.941 S631
S0
G1 X236.068 S559
S0
G1 X236.195 S359
S0
G1 X236.322 S133
S0
G1 X236.449 S16
S0
G1 X236.576 S5
S0
G1 X236.703 S7
S0
G1 X236.830 S5
S0
G0 X236.957 S0
G1 X237.084 S7
S0
G1 X237.211 S16
S0
G1 X237.338 S8
S0
G1 X237.465 S7
S0
G1 X237.592 S12
S0
G1 X237.719 S8
S0
G1 X237.973 S12
S0
G1 X238.100 S7
S0
G1 X238.354 S9
S0
G1 X238.481 S3
S0
G1 X238.608 S258
S0
G1 X238.735 S602
S0
G1 X238.862 S610
S0
G1 X238.989 S579
S0
G1 X239.116 S587
S0
G1 X239.243 S559
S0
G1 X239.370 S646
S0
G1 X239.497 S875
S0
G1 X239.624 S886
S0
G1 X239.751 S875
S0
G1 X239.878 S873
S0
G1 X240.005 S870
S0
G1 X240.132 S863
S0
G1 X240.259 S873
S0
G1 X240.386 S871
S0
G1 X240.513 S867
S0
G1 X240.640 S863
S0
G1 X240.767 S866
S0
G1 X240.894 S863
S0
G1 X241.021 S866
S0
G1 X241.148 S864
S0
G1 X241.275 S866
S0
G1 X241.529 S868
S0
G1 X241.783 S866
S0
G1 X241.910 S863
S0
G1 X242.037 S870
S0
G1 X242.164 S859
S0
G1 X242.291 S867
S0
G1 X242.418 S877
S0
G1 X242.545 S874
S0
G1 X242.672 S875
S0
G1 X242.799 S933
S0
G1 X242.926 S768
S0
G1 X243.053 S106
S0
G1 X243.180 S5
S0
G1 X243.307 S31
S0
G1 X243.434 S5
S0
G1 X243.561 S13
S0
G1 X243.688 S2
S0
G1 X243.942 S5
S0
G1 X244.069 S2
S0
G1 X244.196 S5
S0
G1 X244.450 S2
S0
G1 X244.577 S5
S0
G1 X244.704 S2
S0
G0 X244.831 S0
G1 X250.038 S2
S0
G0 Y48.768
G0 X250.038 S0
G1 X245.466 S2
S0
G1 X245.085 S5
S0
G1 X244.958 S2
S0
G1 X244.704 S5
S0
G1 X244.577 S2
S0
G1 X244.450 S5
S0
G1 X244.323 S2
S0
G1 X244.069 S3
S0
G1 X243.942 S2
S0
G1 X243.688 S3
S0
G1 X243.561 S2
S0
G1 X243.434 S5
S0
G0 X243.307 S0
G1 X243.180 S12
S0
G1 X243.053 S28
S0
G1 X242.926 S5
S0
G1 X242.799 S197
S0
G1 X242.672 S828
S0
G1 X242.545 S925
S0
G1 X242.418 S851
S0
G1 X242.291 S867
S0
G1 X242.164 S858
S0
G1 X241.783 S870
S0
G1 X241.656 S860
S0
G1 X241.529 S864
S0
G1 X241.402 S865
S0
G1 X241.148 S866
S0
G1 X241.021 S863
S0
G1 X240.894 S866
S0
G1 X240.767 S861
S0
G1 X240.513 S866
S0
G1 X240.386 S869
S0
G1 X240.132 S865
S0
G1 X240.005 S869
S0
G1 X239.878 S870
S0
G1 X239.751 S865
S0
G1 X239.624 S866
S0
G1 X239.497 S871
S0
G1 X239.370 S899
S0
G1 X239.243 S766
S0
G1 X239.116 S552
S0
G1 X238.989 S584
S0
G1 X238.862 S585
S0
G1 X238.735 S600
S0
G1 X238.608 S646
S0
G1 X238.481 S415
S0
G1 X238.354 S12
S0
G1 X238.227 S1
S0
G1 X238.100 S9
S0
G1 X237.973 S2
S0
G1 X237.846 S12
S0
G1 X237.719 S7
S0
G1 X237.465 S1
S0
G1 X237.338 S5
S0
G1 X237.211 S23
S0
G1 X237.084 S44
S0
G1 X236.957 S21
S0
G1 X236.830 S13
S0
G1 X236.703 S4
S0
G1 X236.576 S8
S0
G1 X236.449 S130
S0
G1 X236.322 S368
S0
G1 X236.195 S568
S0
G1 X236.068 S628
S0
G1 X235.941 S583
S0
G1 X235.814 S544
S0
G1 X235.687 S560
S0
G1 X235.560 S575
S0
G1 X235.433 S568
S0
G1 X235.306 S563
S0
G1 X235.179 S572
S0
G1 X235.052 S563
S0
G1 X234.925 S556
S0
G1 X234.798 S570
S0
G1 X234.671 S658
S0
G1 X234.544 S804
S0
G1 X234.417 S899
S0
G1 X234.290 S901
S0
G1 X234.163 S862
S0
G1 X234.036 S858
S0
G1 X233.909 S871
S0
G1 X233.782 S867
S0
G1 X233.401 S870
S0
G1 X233.020 S871
S0
G1 X232.893 S867
S0
G1 X232.766 S870
S0
G1 X232.639 S866
S0
G1 X232.512 S870
S0
G1 X232.385 S871
S0
G1 X232.258 S870
S0
G1 X232.004 S871
S0
G1 X231.877 S863
S0
G1 X231.750 S871
S0
G1 X231.623 S867
S0
G1 X231.496 S863
S0
G1 X230.607 S867
S0
G1 X230.480 S863
S0
G1 X229.464 S867
S0
G1 X229.337 S871
S0
G1 X228.702 S867
S0
G1 X228.448 S871
S0
G1 X228.194 S867
S0
G1 X228.067 S866
S0
G1 X227.686 S867
S0
G1 X227.559 S864
S0
G1 X227.432 S871
S0
G1 X227.305 S863
S0
G1 X227.178 S866
S0
G1 X227.051 S862
S0
G1 X226.924 S869
S0
G1 X226.670 S867
S0
G1 X226.543 S871
S0
G1 X226.416 S867
S0
G1 X226.289 S862
S0
G1 X226.035 S867
S0
G1 X225.908 S875
S0
G1 X225.781 S867
S0
G1 X225.654 S866
S0
G1 X225.527 S882
S0
G1 X225.400 S902
S0
G1 X225.273 S926
S0
G1 X225.146 S953
S0
G1 X225.019 S969
S0
G1 X224.892 S961
S0
G1 X224.765 S973
S0
G1 X224.638 S981
S0
G1 X224.511 S972
S0
G1 X224.384 S961
S0
G1 X224.257 S965
S0
G1 X224.130 S969
S0
G1 X224.003 S961
S0
G1 X223.876 S965
S0
G1 X223.749 S966
S0
G1 X223.495 S960
S0
G1 X223.368 S961
S0
G1 X223.114 S964
S0
G1 X222.987 S966
S0
G1 X222.860 S960
S0
G1 X222.733 S965
S0
G1 X222.606 S970
S0
G1 X222.479 S976
S0
G1 X222.352 S981
S0
G1 X222.225 S965
S0
G1 X222.098 S952
S0
G1 X221.971 S926
S0
G1 X221.844 S894
S0
G1 X221.717 S879
S0
G1 X221.590 S869
S0
G1 X221.463 S867
S0
G1 X221.336 S874
S0
G1 X221.209 S882
S0
G1 X221.082 S875
S0
G1 X220.955 S874
S0
G1 X220.828 S875
S0
G1 X220.701 S863
S0
G1 X220.574 S871
S0
G1 X220.447 S878
S0
G1 X220.320 S872
S0
G1 X220.193 S862
S0
G1 X220.066 S856
S0
G1 X219.939 S906
S0
G1 X219.812 S965
S0
G1 X219.685 S882
S0
G1 X219.558 S553
S0
G1 X219.431 S199
S0
G1 X219.304 S32
S0
G1 X219.177 S5
S0
G1 X219.050 S9
S0
G1 X218.923 S23
S0
G1 X218.796 S12
S0
G1 X218.669 S11
S0
G1 X218.542 S13
S0
G1 X218.415 S2
S0
G1 X218.288 S5
S0
G1 X218.161 S12
S0
G1 X218.034 S16
S0
G1 X217.907 S5
S0
G1 X217.780 S2
S0
G1 X217.653 S5
S0
G1 X217.526 S2
S0
G1 X217.399 S5
S0
G1 X217.272 S2
S0
G1 X217.145 S5
S0
G1 X216.891 S2
S0
G1 X216.637 S5
S0
G1 X216.383 S2
S0
G1 X216.256 S5
S0
G1 X200.000 S2
S0
G0 Y48.641
G0 X200.000 S0
G1 X217.145 S2
S0
G1 X217.399 S5
S0
G1 X217.907 S2
S0
G1 X218.161 S9
S0
G1 X218.288 S5
S0
G1 X218.415 S9
S0
G1 X218.542 S16
S0
G1 X218.669 S5
S0
G1 X218.796 S9
S0
G1 X219.050 S2
S0
G1 X219.177 S23
S0
G1 X219.304 S195
S0
G1 X219.431 S573
S0
G1 X219.558 S913
S0
G1 X219.685 S960
S0
G1 X219.812 S886
S0
G1 X219.939 S882
S0
G1 X220.066 S877
S0
G1 X220.193 S874
S0
G1 X220.320 S875
S0
G1 X220.447 S880
S0
G1 X220.574 S886
S0
G1 X220.701 S871
S0
G1 X220.828 S870
S0
G1 X220.955 S874
S0
G1 X221.082 S871
S0
G1 X221.209 S862
S0
G1 X221.336 S871
S0
G1 X221.463 S878
S0
G1 X221.590 S891
S0
G1 X221.717 S917
S0
G1 X221.844 S939
S0
G1 X221.971 S954
S0
G1 X222.098 S966
S0
G1 X222.225 S965
S0
G1 X222.352 S969
S0
G1 X222.479 S963
S0
G1 X222.606 S954
S0
G1 X222.733 S958
S0
G1 X222.860 S964
S0
G1 X222.987 S966
S0
G1 X223.114 S968
S0
G1 X223.241 S969
S0
G1 X223.368 S960
S0
G1 X223.495 S970
S0
G1 X223.622 S961
S0
G1 X223.749 S960
S0
G1 X223.876 S968
S0
G1 X224.003 S966
S0
G1 X224.130 S961
S0
G1 X224.257 S969
S0
G1 X224.384 S965
S0
G1 X224.511 S956
S0
G1 X224.638 S961
S0
G1 X224.765 S969
S0
G1 X224.892 S968
S0
G1 X225.019 S960
S0
G1 X225.146 S969
S0
G1 X225.273 S981
S0
G1 X225.400 S976
S0
G1 X225.527 S972
S0
G1 X225.654 S956
S0
G1 X225.781 S929
S0
G1 X225.908 S901
S0
G1 X226.035 S879
S0
G1 X226.162 S867
S0
G1 X226.289 S875
S0
G1 X226.416 S874
S0
G1 X226.543 S862
S0
G1 X226.670 S868
S0
G1 X226.924 S871
S0
G1 X227.051 S867
S0
G1 X227.178 S862
S0
G1 X227.305 S863
S0
G1 X227.432 S871
S0
G1 X227.559 S867
S0
G1 X227.686 S868
S0
G1 X227.940 S871
S0
G1 X228.067 S863
S0
G1 X228.194 S862
S0
G1 X228.321 S863
S0
G1 X228.829 S867
S0
G1 X229.210 S863
S0
G1 X231.496 S867
S0
G1 X231.623 S871
S0
G1 X231.750 S873
S0
G1 X231.877 S867
S0
G1 X232.004 S869
S0
G1 X232.131 S866
S0
G1 X232.258 S879
S0
G1 X232.385 S870
S0
G1 X232.766 S871
S0
G1 X232.893 S870
S0
G1 X233.020 S866
S0
G1 X233.147 S875
S0
G1 X233.274 S870
S0
G1 X233.401 S871
S0
G1 X233.528 S874
S0
G1 X233.909 S871
S0
G1 X234.036 S870
S0
G1 X234.163 S858
S0
G1 X234.290 S874
S0
G1 X234.417 S879
S0
G1 X234.544 S869
S0
G1 X234.671 S894
S0
G1 X234.798 S885
S0
G1 X234.925 S784
S0
G1 X235.052 S627
S0
G1 X235.179 S554
S0
G1 X235.306 S555
S0
G1 X235.433 S561
S0
G1 X235.560 S575
S0
G1 X235.687 S571
S0
G1 X235.814 S568
S0
G1 X235.941 S561
S0
G1 X236.068 S564
S0
G1 X236.195 S560
S0
G1 X236.322 S594
S0
G1 X236.449 S644
S0
G1 X236.576 S584
S0
G1 X236.703 S344
S0
G1 X236.830 S90
S0
G1 X236.957 S5
S0
G1 X237.084 S2
S0
G1 X237.211 S16
S0
G1 X237.338 S20
S0
G1 X237.465 S11
S0
G1 X237.592 S1
S0
G1 X237.719 S13
S0
G1 X237.846 S11
S0
G1 X238.100 S9
S0
G1 X238.227 S12
S0
G1 X238.354 S2
S0
G1 X238.481 S107
S0
G1 X238.608 S532
S0
G1 X238.735 S641
S0
G1 X238.862 S588
S0
G1 X238.989 S604
S0
G1 X239.116 S555
S0
G1 X239.243 S620
S0
G1 X239.370 S859
S0
G1 X239.497 S902
S0
G1 X239.624 S858
S0
G1 X239.751 S875
S0
G1 X239.878 S869
S0
G1 X240.005 S871
S0
G1 X240.132 S870
S0
G1 X240.259 S865
S0
G1 X240.386 S861
S0
G1 X240.513 S869
S0
G1 X240.640 S860
S0
G1 X240.767 S866
S0
G1 X240.894 S868
S0
G1 X241.021 S866
S0
G1 X241.148 S865
S0
G1 X241.275 S870
S0
G1 X241.402 S865
S0
G1 X241.529 S870
S0
G1 X241.656 S871
S0
G1 X241.783 S870
S0
G1 X241.910 S862
S0
G1 X242.037 S865
S0
G1 X242.164 S871
S0
G1 X242.291 S877
S0
G1 X242.418 S867
S0
G1 X242.545 S915
S0
G1 X242.672 S890
S0
G1 X242.799 S317
S0
G1 X242.926 S2
S0
G1 X243.053 S35
S0
G1 X243.180 S29
S0
G1 X243.307 S9
S0
G1 X243.434 S5
S0
G1 X243.561 S6
S0
G1 X243.815 S5
S0
G1 X243.942 S3
S0
G0 X244.323 S0
G1 X244.450 S3
S0
G1 X244.577 S5
S0
G1 X244.704 S9
S0
G1 X244.831 S2
S0
G1 X244.958 S5
S0
G1 X245.339 S3
S0
G1 X245.593 S5
S0
G1 X250.038 S2
S0
G0 Y48.514
G0 X250.038 S0
G1 X245.339 S2
S0
G0 X245.212 S0
G1 X244.831 S3
S0
G1 X244.450 S2
S0
G1 X244.196 S3
S0
G1 X243.942 S5
S0
G1 X243.561 S2
S0
G1 X243.434 S12
S0
G1 X243.307 S3
S0
G1 X243.180 S8
S0
G1 X243.053 S23
S0
G1 X242.926 S24
S0
G1 X242.799 S34
S0
G1 X242.672 S2
S0
G1 X242.545 S447
S0
G1 X242.418 S917
S0
G1 X242.291 S888
S0
G1 X242.164 S865
S0
G1 X242.037 S871
S0
G1 X241.910 S872
S0
G1 X241.783 S862
S0
G1 X241.656 S866
S0
G1 X241.529 S868
S0
G1 X241.402 S869
S0
G1 X241.275 S861
S0
G1 X241.148 S865
S0
G1 X241.021 S864
S0
G1 X240.894 S863
S0
G1 X240.767 S865
S0
G1 X240.640 S866
S0
G1 X240.513 S864
S0
G1 X240.386 S865
S0
G1 X240.259 S861
S0
G1 X240.132 S869
S0
G1 X240.005 S870
S0
G1 X239.878 S874
S0
G1 X239.751 S877
S0
G1 X239.624 S871
S0
G1 X239.497 S866
S0
G1 X239.370 S882
S0
G1 X239.243 S898
S0
G1 X239.116 S736
S0
G1 X238.989 S548
S0
G1 X238.862 S591
S0
G1 X238.735 S583
S0
G1 X238.608 S620
S0
G1 X238.481 S611
S0
G1 X238.354 S250
S0
G1 X238.227 S2
S0
G1 X238.100 S13
S0
G1 X237.973 S8
S0
G1 X237.846 S9
S0
G1 X237.719 S20
S0
G1 X237.592 S12
S0
G1 X237.465 S9
S0
G1 X237.338 S16
S0
G1 X237.211 S12
S0
G1 X237.084 S2
S0
G1 X236.957 S38
S0
G1 X236.830 S280
S0
G1 X236.703 S553
S0
G1 X236.576 S656
S0
G1 X236.449 S610
S0
G1 X236.322 S584
S0
G1 X236.195 S557
S0
G1 X236.068 S579
S0
G1 X235.941 S573
S0
G1 X235.814 S556
S0
G1 X235.687 S560
S0
G1 X235.433 S564
S0
G1 X235.306 S555
S0
G1 X235.179 S595
S0
G1 X235.052 S737
S0
G1 X234.925 S879
S0
G1 X234.798 S905
S0
G1 X234.671 S870
S0
G1 X234.544 S868
S0
G1 X234.417 S873
S0
G1 X234.290 S863
S0
G1 X234.163 S874
S0
G1 X234.036 S886
S0
G1 X233.909 S867
S0
G1 X233.782 S872
S0
G1 X233.528 S870
S0
G1 X233.401 S874
S0
G1 X233.274 S866
S0
G1 X233.147 S870
S0
G1 X233.020 S866
S0
G1 X232.893 S876
S0
G1 X232.766 S867
S0
G1 X232.639 S871
S0
G1 X232.512 S865
S0
G1 X232.385 S875
S0
G1 X232.258 S866
S0
G1 X232.131 S867
S0
G1 X232.004 S866
S0
G1 X231.877 S863
S0
G1 X231.750 S867
S0
G1 X231.623 S862
S0
G1 X228.575 S867
S0
G1 X228.321 S866
S0
G1 X228.194 S867
S0
G1 X228.067 S869
S0
G1 X227.813 S871
S0
G1 X227.686 S866
S0
G1 X227.559 S867
S0
G1 X227.432 S871
S0
G1 X227.305 S863
S0
G1 X227.178 S871
S0
G1 X227.051 S875
S0
G1 X226.797 S867
S0
G1 X226.543 S863
S0
G1 X226.416 S875
S0
G1 X226.289 S866
S0
G1 X226.162 S889
S0
G1 X226.035 S922
S0
G1 X225.908 S953
S0
G1 X225.654 S976
S0
G1 X225.527 S960
S0
G1 X225.400 S973
S0
G1 X225.273 S965
S0
G1 X225.019 S956
S0
G1 X224.892 S964
S0
G1 X224.765 S973
S0
G1 X224.638 S965
S0
G1 X224.511 S961
S0
G1 X224.384 S968
S0
G1 X224.257 S964
S0
G1 X224.130 S965
S0
G1 X224.003 S961
S0
G1 X223.876 S964
S0
G1 X223.749 S969
S0
G1 X223.622 S960
S0
G1 X223.495 S965
S0
G1 X223.368 S966
S0
G1 X223.241 S968
S0
G1 X223.114 S965
S0
G1 X222.987 S960
S0
G1 X222.860 S966
S0
G1 X222.733 S969
S0
G1 X222.479 S966
S0
G1 X222.352 S965
S0
G1 X222.225 S964
S0
G1 X222.098 S957
S0
G1 X221.971 S961
S0
G1 X221.844 S972
S0
G1 X221.590 S977
S0
G1 X221.463 S960
S0
G1 X221.336 S927
S0
G1 X221.209 S901
S0
G1 X221.082 S893
S0
G1 X220.828 S871
S0
G1 X220.701 S873
S0
G1 X220.574 S871
S0
G1 X220.447 S879
S0
G1 X220.320 S875
S0
G1 X220.193 S871
S0
G1 X219.939 S886
S0
G1 X219.812 S880
S0
G1 X219.685 S884
S0
G1 X219.558 S863
S0
G1 X219.431 S907
S0
G1 X219.304 S987
S0
G1 X219.177 S900
S0
G1 X219.050 S551
S0
G1 X218.923 S174
S0
G1 X218.796 S9
S0
G1 X218.669 S5
S0
G1 X218.542 S11
S0
G1 X218.415 S12
S0
G1 X218.288 S16
S0
G1 X218.161 S9
S0
G1 X218.034 S2
S0
G1 X217.272 S5
S0
G1 X217.018 S2
S0
G1 X216.891 S5
S0
G1 X200.000 S2
S0
G0 Y48.387
G0 X200.000 S0
G1 X217.145 S2
S0
G1 X217.399 S5
S0
G1 X217.526 S9
S0
G1 X217.653 S1
S0
G1 X217.780 S9
S0
G1 X218.034 S5
S0
G1 X218.161 S12
S0
G1 X218.288 S20
S0
G1 X218.415 S7
S0
G1 X218.542 S3
S0
G1 X218.669 S8
S0
G1 X218.796 S157
S0
G1 X218.923 S522
S0
G1 X219.050 S879
S0
G1 X219.177 S983
S0
G1 X219.304 S914
S0
G1 X219.431 S855
S0
G1 X219.558 S870
S0
G1 X219.685 S872
S0
G1 X219.812 S862
S0
G1 X219.939 S883
S0
G1 X220.066 S889
S0
G1 X220.193 S874
S0
G1 X220.320 S869
S0
G1 X220.447 S875
S0
G1 X220.574 S878
S0
G1 X220.701 S862
S0
G1 X220.828 S869
S0
G1 X220.955 S877
S0
G1 X221.082 S898
S0
G1 X221.209 S950
S0
G1 X221.336 S969
S0
G1 X221.590 S981
S0
G1 X221.844 S962
S0
G1 X221.971 S968
S0
G1 X222.098 S964
S0
G1 X222.225 S966
S0
G1 X222.352 S959
S0
G1 X222.479 S965
S0
G1 X222.606 S969
S0
G1 X222.733 S962
S0
G1 X222.860 S964
S0
G1 X222.987 S965
S0
G1 X223.114 S961
S0
G1 X223.368 S962
S0
G1 X223.495 S961
S0
G1 X224.130 S965
S0
G1 X224.257 S969
S0
G1 X224.384 S961
S0
G1 X224.511 S965
S0
G1 X224.638 S958
S0
G1 X224.892 S965
S0
G1 X225.019 S960
S0
G1 X225.527 S964
S0
G1 X225.654 S956
S0
G1 X225.781 S964
S0
G1 X225.908 S960
S0
G1 X226.035 S964
S0
G1 X226.162 S977
S0
G1 X226.289 S969
S0
G1 X226.416 S949
S0
G1 X226.543 S917
S0
G1 X226.670 S891
S0
G1 X226.797 S863
S0
G1 X226.924 S862
S0
G1 X227.051 S867
S0
G1 X227.178 S866
S0
G1 X227.305 S874
S0
G1 X227.432 S871
S0
G1 X227.559 S870
S0
G1 X227.686 S867
S0
G1 X227.813 S866
S0
G1 X227.940 S867
S0
G1 X228.194 S866
S0
G1 X228.321 S863
S0
G1 X228.448 S858
S0
G1 X228.575 S866
S0
G1 X228.829 S867
S0
G1 X229.210 S863
S0
G1 X231.496 S867
S0
G1 X231.623 S871
S0
G1 X231.750 S867
S0
G1 X231.877 S866
S0
G1 X232.131 S867
S0
G1 X232.258 S866
S0
G1 X232.385 S867
S0
G1 X232.512 S874
S0
G1 X232.639 S866
S0
G1 X232.766 S868
S0
G1 X232.893 S866
S0
G1 X233.020 S874
S0
G1 X233.147 S872
S0
G1 X233.274 S876
S0
G1 X233.401 S866
S0
G1 X233.528 S873
S0
G1 X233.655 S861
S0
G1 X233.782 S879
S0
G1 X233.909 S870
S0
G1 X234.036 S875
S0
G1 X234.163 S864
S0
G1 X234.290 S872
S0
G1 X234.417 S881
S0
G1 X234.544 S875
S0
G1 X234.671 S856
S0
G1 X234.798 S871
S0
G1 X234.925 S874
S0
G1 X235.052 S882
S0
G1 X235.179 S911
S0
G1 X235.306 S843
S0
G1 X235.433 S682
S0
G1 X235.560 S568
S0
G1 X235.687 S544
S0
G1 X235.814 S559
S0
G1 X235.941 S572
S0
G1 X236.068 S576
S0
G1 X236.195 S564
S0
G1 X236.322 S572
S0
G1 X236.449 S563
S0
G1 X236.576 S572
S0
G1 X236.703 S563
S0
G1 X236.830 S632
S0
G1 X236.957 S689
S0
G1 X237.084 S521
S0
G1 X237.211 S181
S0
G1 X237.338 S2
S0
G1 X237.465 S1
S0
G1 X237.592 S12
S0
G1 X237.719 S27
S0
G1 X237.846 S11
S0
G1 X237.973 S7
S0
G1 X238.100 S20
S0
G1 X238.227 S4
S0
G1 X238.354 S1
S0
G1 X238.481 S396
S0
G1 X238.608 S654
S0
G1 X238.735 S602
S0
G1 X238.862 S596
S0
G1 X238.989 S569
S0
G1 X239.116 S591
S0
G1 X239.243 S832
S0
G1 X239.370 S899
S0
G1 X239.497 S874
S0
G1 X239.624 S875
S0
G1 X239.751 S863
S0
G1 X239.878 S870
S0
G1 X240.005 S871
S0
G1 X240.132 S868
S0
G1 X240.259 S869
S0
G1 X240.513 S866
S0
G1 X240.640 S867
S0
G1 X240.767 S868
S0
G1 X240.894 S866
S0
G1 X241.021 S861
S0
G1 X241.148 S865
S0
G1 X241.275 S872
S0
G1 X241.402 S869
S0
G1 X241.529 S875
S0
G1 X241.656 S870
S0
G1 X241.783 S871
S0
G1 X241.910 S866
S0
G1 X242.037 S869
S0
G1 X242.164 S873
S0
G1 X242.291 S874
S0
G1 X242.418 S937
S0
G1 X242.545 S563
S0
G1 X242.672 S9
S0
G1 X242.799 S5
S0
G1 X242.926 S28
S0
G1 X243.053 S15
S0
G1 X243.180 S23
S0
G1 X243.434 S9
S0
G1 X243.561 S2
S0
G1 X243.688 S5
S0
G1 X243.815 S1
S0
G1 X244.069 S5
S0
G0 X244.196 S0
G1 X244.450 S3
S0
G1 X244.704 S5
S0
G1 X244.958 S4
S0
G0 X245.085 S0
G1 X245.212 S5
S0
G1 X245.339 S2
S0
G1 X245.593 S3
S0
G1 X250.038 S2
S0
G0 Y48.260
G0 X250.038 S0
G1 X245.593 S2
S0
G1 X245.339 S3
S0
G1 X245.212 S5
S0
G1 X245.085 S9
S0
G1 X244.958 S5
S0
G1 X244.704 S8
S0
G1 X244.577 S11
S0
G1 X244.323 S8
S0
G1 X244.196 S3
S0
G1 X243.942 S5
S0
G1 X243.688 S2
S0
G1 X243.434 S5
S0
G1 X243.307 S12
S0
G1 X243.180 S6
S0
G1 X243.053 S2
S0
G1 X242.926 S5
S0
G1 X242.799 S3
S0
G1 X242.672 S12
S0
G1 X242.545 S5
S0
G1 X242.418 S48
S0
G1 X242.291 S668
S0
G1 X242.164 S942
S0
G1 X242.037 S875
S0
G1 X241.910 S865
S0
G1 X241.783 S877
S0
G1 X241.656 S859
S0
G1 X241.529 S866
S0
G1 X241.402 S875
S0
G1 X241.275 S873
S0
G1 X241.148 S872
S0
G1 X241.021 S866
S0
G1 X240.894 S865
S0
G1 X240.767 S866
S0
G1 X240.640 S871
S0
G1 X240.513 S862
S0
G1 X240.386 S871
S0
G1 X240.259 S867
S0
G1 X240.132 S871
S0
G1 X240.005 S868
S0
G1 X239.878 S867
S0
G1 X239.751 S862
S0
G1 X239.624 S868
S0
G1 X239.497 S871
S0
G1 X239.370 S878
S0
G1 X239.243 S883
S0
G1 X239.116 S886
S0
G1 X238.989 S683
S0
G1 X238.862 S542
S0
G1 X238.735 S594
S0
G1 X238.608 S584
S0
G1 X238.481 S658
S0
G1 X238.354 S537
S0
G1 X238.227 S110
S0
G1 X238.100 S7
S0
G1 X237.973 S24
S0
G1 X237.846 S44
S0
G1 X237.719 S13
S0
G1 X237.592 S5
S0
G1 X237.465 S2
S0
G1 X237.338 S71
S0
G1 X237.211 S411
S0
G1 X237.084 S737
S0
G1 X236.957 S722
S0
G1 X236.830 S576
S0
G1 X236.703 S551
S0
G1 X236.576 S563
S0
G1 X236.322 S572
S0
G1 X236.195 S563
S0
G1 X236.068 S576
S0
G1 X235.941 S560
S0
G1 X235.814 S545
S0
G1 X235.687 S550
S0
G1 X235.560 S635
S0
G1 X235.433 S795
S0
G1 X235.306 S903
S0
G1 X235.179 S894
S0
G1 X234.925 S867
S0
G1 X234.671 S870
S0
G1 X234.544 S875
S0
G1 X234.417 S874
S0
G1 X234.290 S869
S0
G1 X234.163 S862
S0
G1 X234.036 S869
S0
G1 X233.909 S862
S0
G1 X233.782 S868
S0
G1 X233.655 S875
S0
G1 X233.528 S863
S0
G1 X233.274 S871
S0
G1 X233.147 S870
S0
G1 X233.020 S875
S0
G1 X232.893 S871
S0
G1 X232.766 S870
S0
G1 X232.639 S867
S0
G1 X232.512 S875
S0
G1 X232.385 S866
S0
G1 X232.258 S867
S0
G1 X232.131 S874
S0
G1 X232.004 S863
S0
G1 X231.877 S867
S0
G1 X231.750 S862
S0
G1 X229.083 S867
S0
G1 X228.702 S863
S0
G1 X228.575 S867
S0
G1 X228.448 S866
S0
G1 X228.194 S867
S0
G1 X228.067 S870
S0
G1 X227.813 S871
S0
G1 X227.686 S870
S0
G1 X227.559 S871
S0
G1 X227.432 S867
S0
G1 X227.305 S875
S0
G1 X227.178 S873
S0
G1 X227.051 S879
S0
G1 X226.924 S867
S0
G1 X226.797 S875
S0
G1 X226.670 S914
S0
G1 X226.543 S954
S0
G1 X226.416 S977
S0
G1 X226.289 S968
S0
G1 X226.162 S964
S0
G1 X226.035 S960
S0
G1 X225.908 S964
S0
G1 X225.400 S960
S0
G1 X225.273 S956
S0
G1 X225.146 S964
S0
G1 X225.019 S972
S0
G1 X224.892 S969
S0
G1 X224.765 S961
S0
G1 X224.638 S964
S0
G1 X224.511 S960
S0
G1 X224.257 S965
S0
G1 X224.130 S969
S0
G1 X223.495 S961
S0
G1 X223.368 S964
S0
G1 X223.241 S960
S0
G1 X223.114 S965
S0
G1 X222.987 S961
S0
G1 X222.860 S965
S0
G1 X222.733 S962
S0
G1 X222.606 S958
S0
G1 X222.479 S961
S0
G1 X222.352 S965
S0
G1 X222.098 S966
S0
G1 X221.971 S961
S0
G1 X221.844 S964
S0
G1 X221.717 S965
S0
G1 X221.590 S957
S0
G1 X221.463 S961
S0
G1 X221.336 S969
S0
G1 X221.209 S968
S0
G1 X221.082 S977
S0
G1 X220.955 S973
S0
G1 X220.828 S942
S0
G1 X220.701 S898
S0
G1 X220.574 S870
S0
G1 X220.447 S866
S0
G1 X220.320 S875
S0
G1 X220.193 S878
S0
G1 X220.066 S871
S0
G1 X219.939 S866
S0
G1 X219.812 S884
S0
G1 X219.685 S882
S0
G1 X219.558 S873
S0
G1 X219.431 S871
S0
G1 X219.304 S876
S0
G1 X219.177 S873
S0
G1 X219.050 S858
S0
G1 X218.923 S919
S0
G1 X218.796 S991
S0
G1 X218.669 S859
S0
G1 X218.542 S430
S0
G1 X218.415 S110
S0
G1 X218.288 S5
S0
G1 X218.161 S17
S0
G1 X218.034 S52
S0
G1 X217.907 S32
S0
G1 X217.780 S5
S0
G1 X217.653 S9
S0
G1 X217.526 S5
S0
G1 X217.399 S16
S0
G1 X217.272 S1
S0
G1 X217.145 S9
S0
G1 X217.018 S5
S0
G1 X200.000 S2
S0
G0 Y48.133
G0 X200.000 S0
G1 X216.383 S2
S0
G1 X217.399 S5
S0
G1 X217.526 S9
S0
G1 X217.653 S5
S0
G1 X217.780 S9
S0
G1 X218.161 S5
S0
G1 X218.288 S54
S0
G1 X218.415 S334
S0
G1 X218.542 S772
S0
G1 X218.669 S994
S0
G1 X218.796 S928
S0
G1 X218.923 S856
S0
G1 X219.050 S867
S0
G1 X219.177 S866
S0
G1 X219.304 S877
S0
G1 X219.431 S886
S0
G1 X219.558 S878
S0
G1 X219.685 S875
S0
G1 X219.812 S867
S0
G1 X219.939 S863
S0
G1 X220.066 S874
S0
G1 X220.193 S878
S0
G1 X220.320 S870
S0
G1 X220.447 S862
S0
G1 X220.574 S894
S0
G1 X220.701 S944
S0
G1 X220.828 S968
S0
G1 X221.082 S981
S0
G1 X221.209 S965
S0
G1 X221.336 S964
S0
G1 X221.463 S970
S0
G1 X221.590 S965
S0
G1 X221.717 S962
S0
G1 X221.971 S958
S0
G1 X222.098 S961
S0
G1 X222.225 S965
S0
G1 X222.352 S961
S0
G1 X222.479 S965
S0
G1 X222.606 S962
S0
G1 X222.860 S961
S0
G1 X222.987 S960
S0
G1 X223.114 S961
S0
G1 X223.495 S965
S0
G1 X223.622 S961
S0
G1 X223.749 S964
S0
G1 X223.876 S965
S0
G1 X224.003 S961
S0
G1 X224.130 S964
S0
G1 X224.257 S968
S0
G1 X224.384 S964
S0
G1 X224.511 S966
S0
G1 X224.765 S964
S0
G1 X225.019 S965
S0
G1 X225.146 S961
S0
G1 X225.273 S965
S0
G1 X225.400 S969
S0
G1 X225.654 S965
S0
G1 X225.781 S964
S0
G1 X225.908 S965
S0
G1 X226.035 S969
S0
G1 X226.162 S965
S0
G1 X226.289 S960
S0
G1 X226.416 S957
S0
G1 X226.543 S969
S0
G1 X226.670 S973
S0
G1 X226.797 S969
S0
G1 X226.924 S949
S0
G1 X227.051 S911
S0
G1 X227.178 S874
S0
G1 X227.305 S859
S0
G1 X227.559 S869
S0
G1 X227.686 S867
S0
G1 X228.194 S869
S0
G1 X228.448 S867
S0
G1 X228.575 S866
S0
G1 X231.877 S867
S0
G1 X232.004 S863
S0
G1 X232.131 S871
S0
G1 X232.258 S866
S0
G1 X232.385 S867
S0
G1 X232.639 S862
S0
G1 X232.766 S863
S0
G1 X232.893 S868
S0
G1 X233.274 S867
S0
G1 X233.528 S869
S0
G1 X233.655 S866
S0
G1 X234.036 S867
S0
G1 X234.163 S863
S0
G1 X234.290 S870
S0
G1 X234.417 S866
S0
G1 X234.544 S875
S0
G1 X234.671 S870
S0
G1 X234.798 S866
S0
G1 X234.925 S867
S0
G1 X235.052 S863
S0
G1 X235.179 S879
S0
G1 X235.306 S869
S0
G1 X235.433 S866
S0
G1 X235.560 S913
S0
G1 X235.687 S894
S0
G1 X235.814 S736
S0
G1 X235.941 S591
S0
G1 X236.068 S556
S0
G1 X236.195 S549
S0
G1 X236.322 S563
S0
G1 X236.449 S571
S0
G1 X236.576 S576
S0
G1 X236.830 S571
S0
G1 X236.957 S565
S0
G1 X237.084 S533
S0
G1 X237.211 S661
S0
G1 X237.338 S828
S0
G1 X237.465 S639
S0
G1 X237.592 S211
S0
G1 X237.719 S2
S0
G1 X237.846 S7
S0
G1 X237.973 S35
S0
G1 X238.100 S16
S0
G1 X238.227 S2
S0
G1 X238.354 S250
S0
G1 X238.481 S620
S0
G1 X238.608 S623
S0
G1 X238.735 S583
S0
G1 X238.862 S567
S0
G1 X238.989 S558
S0
G1 X239.116 S797
S0
G1 X239.243 S898
S0
G1 X239.497 S870
S0
G1 X239.624 S875
S0
G1 X239.878 S866
S0
G1 X240.005 S869
S0
G1 X240.132 S870
S0
G1 X240.259 S867
S0
G1 X240.386 S863
S0
G1 X240.513 S867
S0
G1 X240.767 S866
S0
G1 X240.894 S865
S0
G1 X241.021 S863
S0
G1 X241.275 S865
S0
G1 X241.402 S873
S0
G1 X241.529 S875
S0
G1 X241.656 S866
S0
G1 X241.783 S856
S0
G1 X241.910 S869
S0
G1 X242.037 S877
S0
G1 X242.164 S926
S0
G1 X242.291 S773
S0
G1 X242.418 S149
S0
G1 X242.545 S3
S0
G1 X242.672 S40
S0
G1 X242.799 S2
S0
G1 X242.926 S12
S0
G1 X243.180 S2
S0
G1 X243.307 S6
S0
G0 X243.434 S0
G1 X243.561 S1
S0
G1 X243.815 S2
S0
G1 X244.323 S5
S0
G1 X244.450 S9
S0
G1 X244.577 S12
S0
G1 X244.704 S11
S0
G1 X244.831 S7
S0
G1 X244.958 S3
S0
G1 X245.085 S2
S0
G1 X245.212 S5
S0
G1 X245.466 S2
S0
G1 X245.593 S5
S0
G1 X250.038 S2
S0
G0 Y48.006
G0 X250.038 S0
G1 X245.720 S2
S0
G0 X245.593 S0
G1 X245.212 S5
S0
G1 X245.085 S3
S0
G0 X244.958 S0
G1 X244.831 S5
S0
G1 X244.704 S12
S0
G1 X244.577 S10
S0
G1 X244.450 S13
S0
G1 X244.323 S11
S0
G1 X244.196 S4
S0
G1 X243.942 S5
S0
G1 X243.180 S2
S0
G1 X242.926 S5
S0
G0 X242.799 S0
G1 X242.672 S5
S0
G1 X242.418 S25
S0
G1 X242.291 S2
S0
G1 X242.164 S252
S0
G1 X242.037 S852
S0
G1 X241.910 S917
S0
G1 X241.783 S859
S0
G1 X241.656 S873
S0
G1 X241.529 S870
S0
G1 X241.275 S869
S0
G1 X241.148 S863
S0
G1 X241.021 S861
S0
G1 X240.894 S863
S0
G1 X240.767 S868
S0
G1 X240.640 S866
S0
G1 X240.513 S862
S0
G1 X240.386 S866
S0
G1 X240.259 S867
S0
G1 X240.132 S869
S0
G1 X240.005 S867
S0
G1 X239.751 S871
S0
G1 X239.624 S868
S0
G1 X239.497 S866
S0
G1 X239.370 S874
S0
G1 X239.243 S855
S0
G1 X239.116 S894
S0
G1 X238.989 S872
S0
G1 X238.862 S646
S0
G1 X238.735 S544
S0
G1 X238.608 S594
S0
G1 X238.481 S585
S0
G1 X238.354 S658
S0
G1 X238.227 S406
S0
G1 X237.973 S2
S0
G1 X237.846 S1
S0
G1 X237.719 S59
S0
G1 X237.592 S431
S0
G1 X237.465 S809
S0
G1 X237.338 S779
S0
G1 X237.211 S565
S0
G1 X237.084 S535
S0
G1 X236.957 S580
S0
G1 X236.830 S568
S0
G1 X236.703 S560
S0
G1 X236.576 S568
S0
G1 X236.449 S575
S0
G1 X236.322 S560
S0
G1 X236.195 S533
S0
G1 X236.068 S557
S0
G1 X235.941 S661
S0
G1 X235.814 S830
S0
G1 X235.687 S917
S0
G1 X235.560 S885
S0
G1 X235.433 S863
S0
G1 X235.306 S875
S0
G1 X235.179 S885
S0
G1 X235.052 S878
S0
G1 X234.925 S873
S0
G1 X234.798 S874
S0
G1 X234.671 S871
S0
G1 X234.544 S867
S0
G1 X234.417 S871
S0
G1 X234.290 S875
S0
G1 X234.163 S872
S0
G1 X234.036 S862
S0
G1 X233.909 S866
S0
G1 X233.782 S870
S0
G1 X233.655 S866
S0
G1 X233.528 S867
S0
G1 X233.401 S873
S0
G1 X233.274 S871
S0
G1 X233.147 S869
S0
G1 X233.020 S867
S0
G1 X232.893 S870
S0
G1 X232.766 S866
S0
G1 X232.639 S867
S0
G1 X232.512 S863
S0
G1 X232.385 S871
S0
G1 X232.258 S862
S0
G1 X232.131 S867
S0
G1 X232.004 S862
S0
G1 X231.877 S866
S0
G1 X231.750 S867
S0
G1 X231.623 S866
S0
G1 X229.464 S867
S0
G1 X229.337 S866
S0
G1 X228.575 S867
S0
G1 X228.448 S869
S0
G1 X228.321 S871
S0
G1 X228.194 S867
S0
G1 X228.067 S868
S0
G1 X227.940 S869
S0
G1 X227.813 S873
S0
G1 X227.686 S872
S0
G1 X227.559 S866
S0
G1 X227.432 S868
S0
G1 X227.305 S878
S0
G1 X227.178 S918
S0
G1 X227.051 S940
S0
G1 X226.924 S976
S0
G1 X226.797 S980
S0
G1 X226.670 S954
S0
G1 X226.543 S968
S0
G1 X226.289 S969
S0
G1 X226.162 S965
S0
G1 X226.035 S964
S0
G1 X225.781 S962
S0
G1 X225.654 S965
S0
G1 X225.527 S958
S0
G1 X225.400 S968
S0
G1 X225.273 S961
S0
G1 X225.146 S972
S0
G1 X225.019 S964
S0
G1 X224.765 S965
S0
G1 X224.384 S960
S0
G1 X224.257 S961
S0
G1 X224.130 S965
S0
G1 X223.876 S961
S0
G1 X223.622 S964
S0
G1 X223.368 S961
S0
G1 X223.241 S965
S0
G1 X223.114 S961
S0
G1 X222.733 S965
S0
G1 X222.606 S962
S0
G1 X222.479 S957
S0
G1 X222.352 S964
S0
G1 X222.225 S961
S0
G1 X222.098 S958
S0
G1 X221.971 S961
S0
G1 X221.844 S958
S0
G1 X221.717 S957
S0
G1 X221.590 S962
S0
G1 X221.463 S965
S0
G1 X221.336 S969
S0
G1 X221.209 S965
S0
G1 X221.082 S964
S0
G1 X220.955 S965
S0
G1 X220.701 S976
S0
G1 X220.574 S974
S0
G1 X220.447 S965
S0
G1 X220.320 S930
S0
G1 X220.193 S893
S0
G1 X220.066 S868
S0
G1 X219.939 S858
S0
G1 X219.812 S867
S0
G1 X219.685 S871
S0
G1 X219.558 S875
S0
G1 X219.431 S887
S0
G1 X219.304 S871
S0
G1 X219.177 S873
S0
G1 X219.050 S879
S0
G1 X218.923 S889
S0
G1 X218.796 S898
S0
G1 X218.669 S874
S0
G1 X218.542 S864
S0
G1 X218.415 S960
S0
G1 X218.288 S977
S0
G1 X218.161 S651
S0
G1 X218.034 S200
S0
G1 X217.907 S5
S0
G1 X217.780 S2
S0
G1 X217.653 S9
S0
G1 X217.526 S16
S0
G1 X217.399 S9
S0
G1 X217.272 S2
S0
G1 X217.145 S9
S0
G1 X217.018 S1
S0
G1 X200.000 S2
S0
G0 Y47.879
G0 X200.000 S0
G1 X214.986 S2
S0
G1 X215.113 S5
S0
G1 X215.367 S2
S0
G1 X215.494 S5
S0
G1 X215.875 S2
S0
G1 X216.002 S1
S0
G1 X216.129 S2
S0
G1 X216.256 S9
S0
G1 X216.383 S5
S0
G1 X216.510 S12
S0
G0 X216.637 S0
G1 X216.764 S5
S0
G1 X216.891 S2
S0
G1 X217.018 S3
S0
G0 X217.145 S0
G1 X217.272 S7
S0
G1 X217.399 S5
S0
G1 X217.526 S32
S0
G1 X217.653 S6
S0
G0 X217.780 S0
G1 X217.907 S97
S0
G1 X218.034 S439
S0
G1 X218.161 S884
S0
G1 X218.288 S992
S0
G1 X218.415 S878
S0
G1 X218.542 S859
S0
G1 X218.669 S878
S0
G1 X218.796 S870
S0
G1 X218.923 S866
S0
G1 X219.050 S870
S0
G1 X219.177 S867
S0
G1 X219.431 S884
S0
G1 X219.558 S878
S0
G1 X219.812 S867
S0
G1 X219.939 S879
S0
G1 X220.066 S887
S0
G1 X220.193 S910
S0
G1 X220.320 S965
S0
G1 X220.447 S980
S0
G1 X220.574 S962
S0
G1 X220.701 S961
S0
G1 X220.955 S968
S0
G1 X221.463 S965
S0
G1 X221.590 S961
S0
G1 X221.717 S958
S0
G1 X222.479 S961
S0
G1 X222.606 S965
S0
G1 X222.733 S961
S0
G1 X222.860 S965
S0
G1 X222.987 S961
S0
G1 X223.114 S964
S0
G1 X223.241 S968
S0
G1 X223.368 S965
S0
G1 X223.495 S966
S0
G1 X223.622 S969
S0
G1 X223.749 S961
S0
G1 X223.876 S976
S0
G1 X224.003 S974
S0
G1 X224.130 S977
S0
G1 X224.257 S972
S0
G1 X224.384 S969
S0
G1 X224.511 S976
S0
G1 X224.638 S969
S0
G1 X224.765 S973
S0
G1 X225.019 S972
S0
G1 X225.146 S970
S0
G1 X225.273 S969
S0
G1 X225.400 S970
S0
G1 X225.527 S965
S0
G1 X225.654 S960
S0
G1 X225.781 S968
S0
G1 X225.908 S966
S0
G1 X226.035 S969
S0
G1 X226.162 S960
S0
G1 X226.289 S964
S0
G1 X226.416 S965
S0
G1 X226.543 S968
S0
G1 X226.670 S962
S0
G1 X226.797 S968
S0
G1 X226.924 S965
S0
G1 X227.051 S970
S0
G1 X227.178 S973
S0
G1 X227.305 S979
S0
G1 X227.432 S949
S0
G1 X227.559 S902
S0
G1 X227.686 S863
S0
G1 X227.813 S854
S0
G1 X227.940 S863
S0
G1 X228.194 S871
S0
G1 X228.321 S874
S0
G1 X228.448 S879
S0
G1 X228.575 S871
S0
G1 X228.702 S872
S0
G1 X229.083 S871
S0
G1 X229.210 S866
S0
G1 X232.766 S867
S0
G1 X232.893 S863
S0
G1 X233.528 S867
S0
G1 X233.655 S868
S0
G1 X233.782 S872
S0
G1 X233.909 S863
S0
G1 X234.036 S867
S0
G1 X234.163 S863
S0
G1 X234.290 S871
S0
G1 X234.417 S866
S0
G1 X234.544 S870
S0
G1 X234.671 S867
S0
G1 X234.798 S871
S0
G1 X234.925 S870
S0
G1 X235.052 S869
S0
G1 X235.179 S871
S0
G1 X235.306 S874
S0
G1 X235.433 S869
S0
G1 X235.560 S875
S0
G1 X235.687 S854
S0
G1 X235.814 S863
S0
G1 X235.941 S902
S0
G1 X236.068 S883
S0
G1 X236.195 S764
S0
G1 X236.322 S595
S0
G1 X236.449 S537
S0
G1 X236.576 S560
S0
G1 X236.703 S563
S0
G1 X236.830 S573
S0
G1 X236.957 S568
S0
G1 X237.084 S559
S0
G1 X237.211 S575
S0
G1 X237.338 S557
S0
G1 X237.465 S516
S0
G1 X237.592 S673
S0
G1 X237.719 S846
S0
G1 X237.846 S631
S0
G1 X237.973 S177
S0
G1 X238.100 S2
S0
G1 X238.227 S99
S0
G1 X238.354 S525
S0
G1 X238.481 S638
S0
G1 X238.608 S563
S0
G1 X238.735 S580
S0
G1 X238.862 S561
S0
G1 X238.989 S769
S0
G1 X239.116 S898
S0
G1 X239.243 S867
S0
G1 X239.370 S871
S0
G1 X239.497 S882
S0
G1 X239.624 S865
S0
G1 X239.751 S863
S0
G1 X239.878 S866
S0
G1 X240.005 S870
S0
G1 X240.132 S869
S0
G1 X240.259 S874
S0
G1 X240.386 S865
S0
G1 X240.513 S874
S0
G1 X240.640 S861
S0
G1 X240.767 S871
S0
G1 X240.894 S867
S0
G1 X241.021 S866
S0
G1 X241.148 S850
S0
G1 X241.275 S857
S0
G1 X241.402 S875
S0
G1 X241.529 S877
S0
G1 X241.656 S886
S0
G1 X241.783 S867
S0
G1 X241.910 S905
S0
G1 X242.037 S893
S0
G1 X242.164 S350
S0
G1 X242.291 S5
S0
G1 X242.418 S44
S0
G1 X242.545 S16
S0
G1 X242.672 S15
S0
G1 X242.799 S7
S0
G1 X242.926 S2
S0
G1 X243.053 S9
S0
G1 X243.180 S2
S0
G1 X243.434 S5
S0
G1 X243.561 S2
S0
G1 X243.815 S5
S0
G0 X243.942 S0
G1 X244.069 S8
S0
G1 X244.196 S1
S0
G1 X244.323 S8
S0
G1 X244.450 S15
S0
G1 X244.577 S19
S0
G1 X244.704 S22
S0
G1 X244.831 S16
S0
G1 X244.958 S3
S0
G1 X245.085 S1
S0
G1 X245.212 S5
S0
G1 X245.339 S8
S0
G1 X245.466 S9
S0
G1 X245.593 S6
S0
G1 X245.720 S2
S0
G1 X246.101 S5
S0
G1 X250.038 S2
S0
G0 Y47.752
G0 X250.038 S0
G1 X245.466 S2
S0
G1 X245.339 S7
S0
G1 X245.212 S5
S0
G1 X245.085 S8
S0
G1 X244.958 S9
S0
G1 X244.831 S11
S0
G1 X244.704 S3
S0
G1 X244.577 S8
S0
G1 X244.450 S16
S0
G1 X244.323 S27
S0
G1 X244.196 S24
S0
G1 X244.069 S9
S0
G1 X243.942 S11
S0
G1 X243.815 S20
S0
G1 X243.688 S11
S0
G1 X243.307 S5
S0
G1 X243.180 S7
S0
G1 X242.926 S2
S0
G1 X242.799 S9
S0
G1 X242.672 S2
S0
G1 X242.545 S12
S0
G1 X242.418 S16
S0
G1 X242.291 S24
S0
G1 X242.164 S40
S0
G1 X242.037 S9
S0
G1 X241.910 S466
S0
G1 X241.783 S930
S0
G1 X241.656 S877
S0
G1 X241.529 S865
S0
G1 X241.402 S882
S0
G1 X241.275 S871
S0
G1 X241.148 S869
S0
G1 X241.021 S858
S0
G1 X240.767 S866
S0
G1 X240.640 S862
S0
G1 X240.513 S863
S0
G1 X240.386 S866
S0
G1 X240.259 S870
S0
G1 X240.132 S874
S0
G1 X240.005 S866
S0
G1 X239.878 S870
S0
G1 X239.751 S867
S0
G1 X239.624 S870
S0
G1 X239.497 S867
S0
G1 X239.370 S878
S0
G1 X239.243 S870
S0
G1 X239.116 S866
S0
G1 X238.989 S891
S0
G1 X238.862 S850
S0
G1 X238.735 S619
S0
G1 X238.608 S548
S0
G1 X238.481 S575
S0
G1 X238.354 S620
S0
G1 X238.227 S600
S0
G1 X238.100 S224
S0
G1 X237.973 S251
S0
G1 X237.846 S767
S0
G1 X237.719 S836
S0
G1 X237.592 S573
S0
G1 X237.465 S517
S0
G1 X237.338 S571
S0
G1 X237.211 S584
S0
G1 X237.084 S576
S0
G1 X236.957 S571
S0
G1 X236.830 S568
S0
G1 X236.703 S556
S0
G1 X236.576 S545
S0
G1 X236.449 S552
S0
G1 X236.322 S677
S0
G1 X236.195 S855
S0
G1 X236.068 S913
S0
G1 X235.941 S878
S0
G1 X235.814 S862
S0
G1 X235.687 S872
S0
G1 X235.560 S859
S0
G1 X235.433 S862
S0
G1 X235.306 S875
S0
G1 X235.179 S874
S0
G1 X235.052 S870
S0
G1 X234.925 S871
S0
G1 X234.798 S874
S0
G1 X234.671 S864
S0
G1 X234.544 S875
S0
G1 X234.417 S869
S0
G1 X234.290 S866
S0
G1 X234.163 S870
S0
G1 X233.909 S862
S0
G1 X233.782 S870
S0
G1 X233.655 S862
S0
G1 X233.528 S867
S0
G1 X233.274 S866
S0
G1 X229.337 S867
S0
G1 X229.210 S863
S0
G1 X229.083 S866
S0
G1 X228.956 S867
S0
G1 X228.829 S863
S0
G1 X228.702 S867
S0
G1 X228.575 S868
S0
G1 X228.448 S871
S0
G1 X228.321 S875
S0
G1 X228.067 S867
S0
G1 X227.940 S859
S0
G1 X227.813 S862
S0
G1 X227.686 S897
S0
G1 X227.559 S942
S0
G1 X227.432 S977
S0
G1 X227.305 S984
S0
G1 X227.178 S973
S0
G1 X227.051 S960
S0
G1 X226.924 S958
S0
G1 X226.797 S965
S0
G1 X226.670 S969
S0
G1 X226.543 S961
S0
G1 X226.416 S968
S0
G1 X226.289 S960
S0
G1 X226.162 S976
S0
G1 X226.035 S969
S0
G1 X225.908 S974
S0
G1 X225.781 S976
S0
G1 X225.654 S977
S0
G1 X225.527 S974
S0
G1 X225.400 S969
S0
G1 X225.273 S965
S0
G1 X225.146 S961
S0
G1 X225.019 S952
S0
G1 X224.765 S960
S0
G1 X224.638 S948
S0
G1 X224.511 S941
S0
G1 X224.257 S942
S0
G1 X224.130 S934
S0
G1 X224.003 S938
S0
G1 X223.876 S922
S0
G1 X223.749 S934
S0
G1 X223.622 S961
S0
G1 X223.495 S966
S0
G1 X223.368 S965
S0
G1 X223.241 S969
S0
G1 X223.114 S964
S0
G1 X222.987 S960
S0
G1 X221.717 S961
S0
G1 X221.590 S958
S0
G1 X221.463 S961
S0
G1 X221.336 S965
S0
G1 X220.828 S961
S0
G1 X220.701 S965
S0
G1 X220.447 S960
S0
G1 X220.320 S966
S0
G1 X220.193 S973
S0
G1 X220.066 S981
S0
G1 X219.939 S965
S0
G1 X219.812 S916
S0
G1 X219.685 S871
S0
G1 X219.558 S854
S0
G1 X219.431 S868
S0
G1 X219.304 S871
S0
G1 X219.177 S872
S0
G1 X219.050 S874
S0
G1 X218.923 S878
S0
G1 X218.796 S869
S0
G1 X218.542 S871
S0
G1 X218.415 S874
S0
G1 X218.288 S871
S0
G1 X218.161 S851
S0
G1 X218.034 S927
S0
G1 X217.907 S993
S0
G1 X217.780 S718
S0
G1 X217.653 S243
S0
G1 X217.526 S12
S0
G0 X217.399 S0
G1 X217.272 S20
S0
G1 X217.145 S29
S0
G1 X217.018 S8
S0
G1 X216.891 S24
S0
G1 X216.764 S7
S0
G1 X216.637 S20
S0
G1 X216.510 S2
S0
G1 X216.383 S12
S0
G1 X216.256 S8
S0
G1 X216.002 S5
S0
G1 X215.875 S2
S0
G1 X215.748 S5
S0
G1 X215.621 S2
S0
G1 X215.494 S5
S0
G1 X215.113 S2
S0
G1 X214.986 S5
S0
G1 X214.605 S2
S0
G1 X214.478 S5
S0
G1 X214.351 S2
S0
G1 X214.224 S5
S0
G1 X200.000 S2
S0
G0 Y47.625
G0 X200.000 S0
G1 X214.478 S2
S0
G1 X214.605 S5
S0
G1 X214.986 S2
S0
G1 X215.113 S5
S0
G1 X215.621 S2
S0
G1 X215.748 S5
S0
G1 X215.875 S2
S0
G1 X216.256 S5
S0
G1 X216.383 S7
S0
G0 X216.510 S0
G1 X216.764 S1
S0
G1 X216.891 S9
S0
G1 X217.018 S35
S0
G1 X217.145 S20
S0
G1 X217.272 S24
S0
G1 X217.399 S1
S0
G1 X217.526 S93
S0
G1 X217.653 S467
S0
G1 X217.780 S918
S0
G1 X217.907 S989
S0
G1 X218.034 S876
S0
G1 X218.161 S854
S0
G1 X218.415 S880
S0
G1 X218.542 S879
S0
G1 X218.669 S871
S0
G1 X218.796 S874
S0
G1 X219.050 S877
S0
G1 X219.177 S886
S0
G1 X219.304 S866
S0
G1 X219.431 S858
S0
G1 X219.558 S879
S0
G1 X219.685 S902
S0
G1 X219.812 S953
S0
G1 X219.939 S979
S0
G1 X220.066 S973
S0
G1 X220.193 S965
S0
G1 X220.320 S961
S0
G1 X220.447 S966
S0
G1 X220.574 S961
S0
G1 X220.701 S960
S0
G1 X220.828 S962
S0
G1 X220.955 S964
S0
G1 X221.209 S961
S0
G1 X221.463 S965
S0
G1 X221.590 S961
S0
G1 X221.717 S958
S0
G1 X222.987 S961
S0
G1 X223.114 S964
S0
G1 X223.241 S960
S0
G1 X223.368 S969
S0
G1 X223.495 S965
S0
G1 X223.622 S958
S0
G1 X223.749 S968
S0
G1 X223.876 S911
S0
G1 X224.003 S863
S0
G1 X224.130 S847
S0
G1 X224.384 S866
S0
G1 X224.511 S868
S0
G1 X224.638 S871
S0
G1 X224.765 S873
S0
G1 X224.892 S888
S0
G1 X225.146 S884
S0
G1 X225.273 S893
S0
G1 X225.400 S909
S0
G1 X225.527 S922
S0
G1 X225.654 S919
S0
G1 X225.781 S925
S0
G1 X225.908 S935
S0
G1 X226.035 S949
S0
G1 X226.289 S965
S0
G1 X226.416 S969
S0
G1 X226.543 S981
S0
G1 X226.670 S972
S0
G1 X226.924 S969
S0
G1 X227.051 S965
S0
G1 X227.178 S968
S0
G1 X227.559 S964
S0
G1 X227.686 S987
S0
G1 X227.813 S973
S0
G1 X227.940 S934
S0
G1 X228.067 S886
S0
G1 X228.194 S855
S0
G1 X228.321 S863
S0
G1 X228.448 S867
S0
G1 X228.575 S875
S0
G1 X228.702 S872
S0
G1 X228.956 S867
S0
G1 X229.083 S871
S0
G1 X229.210 S866
S0
G1 X229.464 S863
S0
G1 X232.639 S867
S0
G1 X232.893 S866
S0
G1 X233.020 S867
S0
G1 X233.147 S863
S0
G1 X233.274 S871
S0
G1 X233.401 S869
S0
G1 X233.528 S866
S0
G1 X233.909 S867
S0
G1 X234.036 S871
S0
G1 X234.163 S875
S0
G1 X234.290 S863
S0
G1 X234.417 S871
S0
G1 X234.544 S866
S0
G1 X234.671 S871
S0
G1 X234.798 S866
S0
G1 X234.925 S875
S0
G1 X235.179 S874
S0
G1 X235.306 S869
S0
G1 X235.433 S867
S0
G1 X235.560 S873
S0
G1 X235.687 S871
S0
G1 X235.814 S869
S0
G1 X235.941 S870
S0
G1 X236.068 S876
S0
G1 X236.195 S874
S0
G1 X236.322 S898
S0
G1 X236.449 S913
S0
G1 X236.576 S779
S0
G1 X236.703 S596
S0
G1 X236.830 S542
S0
G1 X236.957 S553
S0
G1 X237.084 S573
S0
G1 X237.211 S571
S0
G1 X237.338 S556
S0
G1 X237.465 S571
S0
G1 X237.592 S586
S0
G1 X237.719 S556
S0
G1 X237.846 S517
S0
G1 X237.973 S741
S0
G1 X238.100 S821
S0
G1 X238.227 S649
S0
G1 X238.354 S567
S0
G1 X238.481 S584
S0
G1 X238.608 S575
S0
G1 X238.735 S543
S0
G1 X238.862 S721
S0
G1 X238.989 S897
S0
G1 X239.116 S883
S0
G1 X239.370 S866
S0
G1 X239.624 S863
S0
G1 X239.878 S866
S0
G1 X240.005 S865
S0
G1 X240.132 S863
S0
G1 X240.259 S869
S0
G1 X240.386 S868
S0
G1 X240.513 S863
S0
G1 X240.640 S867
S0
G1 X240.767 S870
S0
G1 X240.894 S866
S0
G1 X241.021 S863
S0
G1 X241.148 S870
S0
G1 X241.275 S874
S0
G1 X241.402 S873
S0
G1 X241.529 S874
S0
G1 X241.656 S867
S0
G1 X241.783 S942
S0
G1 X241.910 S597
S0
G1 X242.037 S21
S0
G1 X242.164 S24
S0
G1 X242.418 S19
S0
G1 X242.545 S17
S0
G1 X242.672 S9
S0
G1 X242.926 S2
S0
G1 X243.053 S5
S0
G1 X243.434 S9
S0
G1 X243.815 S5
S0
G1 X243.942 S15
S0
G1 X244.069 S16
S0
G1 X244.196 S9
S0
G1 X244.323 S8
S0
G1 X244.450 S3
S0
G1 X244.577 S2
S0
G1 X244.704 S51
S0
G1 X244.831 S122
S0
G1 X244.958 S52
S0
G1 X245.085 S3
S0
G1 X245.212 S5
S0
G1 X245.339 S4
S0
G1 X245.466 S5
S0
G0 X245.593 S0
G1 X250.038 S2
S0
G0 Y47.498
G0 X250.038 S0
G1 X245.720 S2
S0
G1 X245.593 S1
S0
G1 X245.466 S3
S0
G1 X245.339 S4
S0
G1 X245.212 S7
S0
G1 X245.085 S9
S0
G1 X244.958 S7
S0
G1 X244.831 S17
S0
G1 X244.704 S251
S0
G1 X244.577 S401
S0
G1 X244.450 S220
S0
G1 X244.323 S27
S0
G1 X244.196 S3
S0
G1 X244.069 S2
S0
G1 X243.942 S9
S0
G1 X243.815 S7
S0
G1 X243.688 S5
S0
G1 X243.434 S12
S0
G1 X243.307 S16
S0
G1 X243.180 S9
S0
G1 X243.053 S2
S0
G1 X242.926 S12
S0
G1 X242.672 S5
S0
G1 X242.545 S8
S0
G1 X242.418 S5
S0
G1 X242.291 S9
S0
G1 X242.164 S16
S0
G1 X242.037 S59
S0
G1 X241.910 S13
S0
G1 X241.783 S68
S0
G1 X241.656 S708
S0
G1 X241.529 S934
S0
G1 X241.402 S854
S0
G1 X241.275 S879
S0
G1 X241.148 S872
S0
G1 X241.021 S881
S0
G1 X240.894 S869
S0
G1 X240.767 S867
S0
G1 X240.640 S863
S0
G1 X240.513 S867
S0
G1 X240.386 S874
S0
G1 X240.259 S867
S0
G1 X240.132 S870
S0
G1 X240.005 S869
S0
G1 X239.878 S870
S0
G1 X239.751 S871
S0
G1 X239.624 S865
S0
G1 X239.497 S868
S0
G1 X239.370 S867
S0
G1 X239.243 S874
S0
G1 X239.116 S863
S0
G1 X238.989 S871
S0
G1 X238.862 S902
S0
G1 X238.735 S823
S0
G1 X238.608 S596
S0
G1 X238.481 S540
S0
G1 X238.354 S600
S0
G1 X238.227 S755
S0
G1 X238.100 S830
S0
G1 X237.973 S638
S0
G1 X237.846 S501
S0
G1 X237.719 S564
S0
G1 X237.592 S572
S0
G1 X237.465 S560
S0
G1 X237.338 S580
S0
G1 X237.211 S564
S0
G1 X237.084 S555
S0
G1 X236.957 S548
S0
G1 X236.830 S557
S0
G1 X236.703 S689
S0
G1 X236.576 S863
S0
G1 X236.449 S918
S0
G1 X236.322 S880
S0
G1 X236.195 S870
S0
G1 X236.068 S872
S0
G1 X235.814 S871
S0
G1 X235.687 S875
S0
G1 X235.560 S871
S0
G1 X235.433 S875
S0
G1 X235.179 S869
S0
G1 X234.925 S874
S0
G1 X234.798 S862
S0
G1 X234.671 S866
S0
G1 X234.544 S867
S0
G1 X234.417 S878
S0
G1 X234.290 S882
S0
G1 X234.163 S874
S0
G1 X234.036 S871
S0
G1 X233.909 S875
S0
G1 X233.782 S863
S0
G1 X233.655 S867
S0
G1 X233.528 S871
S0
G1 X233.401 S869
S0
G1 X233.274 S866
S0
G1 X233.147 S871
S0
G1 X232.766 S867
S0
G1 X232.512 S866
S0
G1 X229.718 S867
S0
G1 X229.464 S863
S0
G1 X229.210 S867
S0
G1 X229.083 S866
S0
G1 X228.956 S871
S0
G1 X228.702 S867
S0
G1 X228.575 S876
S0
G1 X228.448 S875
S0
G1 X228.321 S851
S0
G1 X228.194 S867
S0
G1 X228.067 S918
S0
G1 X227.940 S964
S0
G1 X227.686 S977
S0
G1 X227.559 S969
S0
G1 X227.432 S973
S0
G1 X227.305 S970
S0
G1 X227.178 S966
S0
G1 X227.051 S968
S0
G1 X226.924 S972
S0
G1 X226.797 S965
S0
G1 X226.670 S949
S0
G1 X226.543 S937
S0
G1 X226.416 S930
S0
G1 X226.289 S918
S0
G1 X226.162 S887
S0
G1 X226.035 S875
S0
G1 X225.908 S867
S0
G1 X225.781 S863
S0
G1 X225.654 S858
S0
G1 X225.527 S850
S0
G1 X225.400 S851
S0
G1 X225.273 S854
S0
G1 X225.146 S855
S0
G1 X225.019 S859
S0
G1 X224.892 S854
S0
G1 X224.765 S858
S0
G1 X224.638 S862
S0
G1 X224.511 S866
S0
G1 X224.384 S863
S0
G1 X224.257 S867
S0
G1 X224.130 S858
S0
G1 X224.003 S871
S0
G1 X223.876 S920
S0
G1 X223.749 S976
S0
G1 X223.622 S973
S0
G1 X223.495 S965
S0
G1 X223.368 S969
S0
G1 X223.241 S965
S0
G1 X223.114 S964
S0
G1 X222.987 S968
S0
G1 X221.590 S961
S0
G1 X220.955 S965
S0
G1 X220.828 S964
S0
G1 X220.701 S960
S0
G1 X220.574 S964
S0
G1 X220.320 S966
S0
G1 X220.193 S965
S0
G1 X219.939 S962
S0
G1 X219.812 S974
S0
G1 X219.685 S976
S0
G1 X219.558 S966
S0
G1 X219.431 S940
S0
G1 X219.304 S902
S0
G1 X219.177 S874
S0
G1 X219.050 S867
S0
G1 X218.923 S869
S0
G1 X218.796 S886
S0
G1 X218.542 S871
S0
G1 X218.415 S879
S0
G1 X218.288 S878
S0
G1 X218.161 S874
S0
G1 X218.034 S878
S0
G1 X217.907 S886
S0
G1 X217.780 S862
S0
G1 X217.653 S933
S0
G1 X217.526 S972
S0
G1 X217.399 S666
S0
G1 X217.272 S220
S0
G1 X217.145 S9
S0
G0 X217.018 S0
G1 X216.891 S47
S0
G1 X216.764 S12
S0
G1 X216.637 S2
S0
G1 X216.510 S3
S0
G1 X216.256 S2
S0
G1 X216.129 S5
S0
G1 X216.002 S9
S0
G1 X215.621 S2
S0
G1 X215.494 S9
S0
G1 X215.367 S5
S0
G1 X215.240 S9
S0
G1 X215.113 S2
S0
G1 X214.859 S5
S0
G1 X214.605 S2
S0
G1 X214.478 S5
S0
G1 X200.000 S2
S0
G0 Y47.371
G0 X200.000 S0
G1 X214.859 S2
S0
G1 X215.113 S5
S0
G1 X215.494 S2
S0
G1 X215.621 S5
S0
G1 X215.748 S2
S0
G1 X216.002 S5
S0
G1 X216.256 S9
S0
G0 X216.383 S0
G1 X216.510 S15
S0
G1 X216.637 S3
S0
G1 X216.764 S8
S0
G1 X216.891 S19
S0
G1 X217.018 S2
S0
G1 X217.145 S50
S0
G1 X217.272 S397
S0
G1 X217.399 S834
S0
G1 X217.526 S979
S0
G1 X217.653 S879
S0
G1 X217.780 S859
S0
G1 X217.907 S874
S0
G1 X218.034 S894
S0
G1 X218.161 S874
S0
G1 X218.288 S879
S0
G1 X218.415 S867
S0
G1 X218.542 S875
S0
G1 X218.669 S876
S0
G1 X218.796 S874
S0
G1 X219.050 S865
S0
G1 X219.177 S886
S0
G1 X219.304 S936
S0
G1 X219.431 S973
S0
G1 X219.558 S985
S0
G1 X219.685 S972
S0
G1 X219.812 S962
S0
G1 X219.939 S958
S0
G1 X220.066 S969
S0
G1 X220.193 S973
S0
G1 X220.447 S965
S0
G1 X220.574 S969
S0
G1 X220.701 S966
S0
G1 X220.828 S965
S0
G1 X220.955 S964
S0
G1 X221.082 S965
S0
G1 X221.209 S961
S0
G1 X221.336 S958
S0
G1 X222.479 S961
S0
G1 X222.606 S965
S0
G1 X222.987 S961
S0
G1 X223.241 S968
S0
G1 X223.368 S961
S0
G1 X223.495 S968
S0
G1 X223.622 S965
S0
G1 X223.749 S954
S0
G1 X224.003 S968
S0
G1 X224.130 S929
S0
G1 X224.257 S862
S0
G1 X224.384 S854
S0
G1 X224.511 S876
S0
G1 X224.638 S872
S0
G1 X224.765 S868
S0
G1 X224.892 S876
S0
G1 X225.019 S880
S0
G1 X225.146 S884
S0
G1 X225.273 S878
S0
G1 X225.527 S875
S0
G1 X225.654 S874
S0
G1 X225.781 S870
S0
G1 X225.908 S873
S0
G1 X226.035 S863
S0
G1 X226.162 S851
S0
G1 X226.289 S859
S0
G1 X226.416 S847
S0
G1 X226.543 S860
S0
G1 X226.670 S862
S0
G1 X226.797 S875
S0
G1 X226.924 S898
S0
G1 X227.051 S921
S0
G1 X227.178 S925
S0
G1 X227.305 S950
S0
G1 X227.559 S965
S0
G1 X227.686 S960
S0
G1 X227.813 S977
S0
G1 X227.940 S973
S0
G1 X228.067 S984
S0
G1 X228.194 S981
S0
G1 X228.321 S937
S0
G1 X228.448 S875
S0
G1 X228.575 S855
S0
G1 X228.702 S872
S0
G1 X228.829 S878
S0
G1 X229.083 S867
S0
G1 X229.210 S866
S0
G1 X229.337 S867
S0
G1 X229.464 S866
S0
G1 X233.147 S867
S0
G1 X233.274 S871
S0
G1 X233.401 S866
S0
G1 X233.528 S870
S0
G1 X233.655 S867
S0
G1 X233.782 S859
S0
G1 X233.909 S871
S0
G1 X234.163 S867
S0
G1 X234.290 S871
S0
G1 X234.417 S862
S0
G1 X234.544 S886
S0
G1 X234.671 S902
S0
G1 X234.798 S898
S0
G1 X234.925 S886
S0
G1 X235.052 S870
S0
G1 X235.179 S861
S0
G1 X235.306 S869
S0
G1 X235.433 S862
S0
G1 X235.560 S871
S0
G1 X235.687 S863
S0
G1 X235.814 S871
S0
G1 X235.941 S876
S0
G1 X236.068 S867
S0
G1 X236.195 S871
S0
G1 X236.322 S879
S0
G1 X236.449 S855
S0
G1 X236.576 S866
S0
G1 X236.703 S906
S0
G1 X236.830 S902
S0
G1 X236.957 S779
S0
G1 X237.084 S607
S0
G1 X237.211 S528
S0
G1 X237.338 S547
S0
G1 X237.465 S563
S0
G1 X237.592 S571
S0
G1 X237.719 S556
S0
G1 X237.846 S575
S0
G1 X237.973 S580
S0
G1 X238.100 S517
S0
G1 X238.227 S560
S0
G1 X238.354 S771
S0
G1 X238.481 S793
S0
G1 X238.608 S584
S0
G1 X238.735 S662
S0
G1 X238.862 S867
S0
G1 X238.989 S890
S0
G1 X239.116 S864
S0
G1 X239.243 S875
S0
G1 X239.370 S866
S0
G1 X239.497 S869
S0
G1 X239.624 S862
S0
G1 X239.751 S865
S0
G1 X239.878 S875
S0
G1 X240.005 S866
S0
G1 X240.132 S865
S0
G1 X240.259 S870
S0
G1 X240.386 S863
S0
G1 X240.513 S870
S0
G1 X240.640 S861
S0
G1 X240.767 S866
S0
G1 X240.894 S871
S0
G1 X241.021 S861
S0
G1 X241.148 S883
S0
G1 X241.275 S887
S0
G1 X241.402 S850
S0
G1 X241.529 S929
S0
G1 X241.656 S800
S0
G1 X241.783 S166
S0
G1 X241.910 S5
S0
G1 X242.037 S46
S0
G1 X242.164 S31
S0
G1 X242.291 S5
S0
G1 X242.418 S2
S0
G1 X242.545 S8
S0
G1 X242.926 S2
S0
G1 X243.053 S9
S0
G1 X243.180 S3
S0
G1 X243.307 S7
S0
G1 X243.434 S3
S0
G1 X243.561 S16
S0
G1 X243.688 S5
S0
G1 X243.942 S2
S0
G1 X244.069 S5
S0
G1 X244.196 S72
S0
G1 X244.323 S219
S0
G1 X244.450 S479
S0
G1 X244.577 S613
S0
G1 X244.704 S333
S0
G1 X244.831 S28
S0
G1 X244.958 S2
S0
G1 X245.085 S16
S0
G1 X245.212 S5
S0
G1 X245.339 S11
S0
G1 X245.466 S5
S0
G1 X245.593 S3
S0
G1 X245.720 S5
S0
G1 X245.847 S2
S0
G1 X245.974 S5
S0
G1 X250.038 S2
S0
G0 Y47.244
G0 X250.038 S0
G1 X246.101 S2
S0
G1 X245.593 S5
S0
G1 X245.466 S7
S0
G1 X245.339 S5
S0
G1 X245.212 S8
S0
G1 X245.085 S12
S0
G1 X244.958 S4
S0
G1 X244.831 S18
S0
G1 X244.704 S9
S0
G1 X244.577 S2
S0
G1 X244.450 S224
S0
G1 X244.323 S643
S0
G1 X244.196 S710
S0
G1 X244.069 S509
S0
G1 X243.942 S289
S0
G1 X243.815 S122
S0
G1 X243.688 S16
S0
G1 X243.561 S2
S0
G1 X243.434 S1
S0
G1 X243.307 S7
S0
G1 X243.180 S23
S0
G1 X242.926 S24
S0
G1 X242.799 S12
S0
G1 X242.672 S7
S0
G1 X242.545 S5
S0
G1 X242.291 S9
S0
G1 X242.164 S6
S0
G1 X242.037 S13
S0
G1 X241.910 S7
S0
G1 X241.783 S35
S0
G1 X241.656 S12
S0
G1 X241.529 S271
S0
G1 X241.402 S867
S0
G1 X241.275 S918
S0
G1 X241.148 S858
S0
G1 X241.021 S887
S0
G1 X240.767 S870
S0
G1 X240.640 S864
S0
G1 X240.513 S866
S0
G1 X240.386 S862
S0
G1 X240.259 S867
S0
G1 X240.132 S873
S0
G1 X240.005 S868
S0
G1 X239.878 S871
S0
G1 X239.751 S875
S0
G1 X239.624 S866
S0
G1 X239.497 S873
S0
G1 X239.370 S874
S0
G1 X239.243 S871
S0
G1 X239.116 S870
S0
G1 X238.989 S859
S0
G1 X238.862 S870
S0
G1 X238.735 S886
S0
G1 X238.608 S847
S0
G1 X238.481 S753
S0
G1 X238.354 S670
S0
G1 X238.227 S531
S0
G1 X238.100 S543
S0
G1 X237.973 S577
S0
G1 X237.846 S564
S0
G1 X237.719 S568
S0
G1 X237.592 S561
S0
G1 X237.465 S560
S0
G1 X237.338 S537
S0
G1 X237.211 S541
S0
G1 X237.084 S667
S0
G1 X236.957 S850
S0
G1 X236.830 S918
S0
G1 X236.703 S881
S0
G1 X236.576 S859
S0
G1 X236.449 S872
S0
G1 X236.322 S878
S0
G1 X236.195 S879
S0
G1 X236.068 S878
S0
G1 X235.941 S880
S0
G1 X235.814 S876
S0
G1 X235.687 S863
S0
G1 X235.560 S855
S0
G1 X235.433 S868
S0
G1 X235.306 S886
S0
G1 X235.179 S895
S0
G1 X235.052 S886
S0
G1 X234.925 S901
S0
G1 X234.798 S887
S0
G1 X234.671 S856
S0
G1 X234.544 S784
S0
G1 X234.417 S744
S0
G1 X234.290 S839
S0
G1 X234.163 S867
S0
G1 X234.036 S869
S0
G1 X233.909 S868
S0
G1 X233.782 S870
S0
G1 X233.655 S867
S0
G1 X233.528 S863
S0
G1 X233.401 S874
S0
G1 X233.274 S863
S0
G1 X233.147 S871
S0
G1 X229.718 S867
S0
G1 X229.337 S866
S0
G1 X229.210 S867
S0
G1 X229.083 S869
S0
G1 X228.702 S867
S0
G1 X228.575 S863
S0
G1 X228.448 S886
S0
G1 X228.321 S964
S0
G1 X228.194 S988
S0
G1 X228.067 S966
S0
G1 X227.940 S956
S0
G1 X227.813 S944
S0
G1 X227.686 S924
S0
G1 X227.559 S910
S0
G1 X227.432 S897
S0
G1 X227.305 S887
S0
G1 X227.178 S874
S0
G1 X227.051 S859
S0
G1 X226.924 S854
S0
G1 X226.797 S855
S0
G1 X226.670 S867
S0
G1 X226.543 S862
S0
G1 X226.416 S872
S0
G1 X226.289 S866
S0
G1 X226.162 S884
S0
G1 X226.035 S871
S0
G1 X225.908 S876
S0
G1 X225.781 S872
S0
G1 X225.654 S870
S0
G1 X225.527 S869
S0
G1 X225.400 S871
S0
G1 X225.273 S865
S0
G1 X225.146 S872
S0
G1 X225.019 S865
S0
G1 X224.892 S869
S0
G1 X224.765 S871
S0
G1 X224.638 S867
S0
G1 X224.511 S874
S0
G1 X224.384 S867
S0
G1 X224.257 S869
S0
G1 X224.130 S935
S0
G1 X223.876 S978
S0
G1 X223.749 S956
S0
G1 X223.622 S972
S0
G1 X223.495 S966
S0
G1 X223.241 S961
S0
G1 X223.114 S964
S0
G1 X222.987 S960
S0
G1 X222.733 S961
S0
G1 X222.606 S958
S0
G1 X221.971 S961
S0
G1 X221.844 S958
S0
G1 X221.717 S961
S0
G1 X221.590 S958
S0
G1 X220.955 S961
S0
G1 X220.701 S964
S0
G1 X220.447 S961
S0
G1 X220.320 S966
S0
G1 X220.193 S969
S0
G1 X220.066 S962
S0
G1 X219.939 S965
S0
G1 X219.812 S973
S0
G1 X219.685 S965
S0
G1 X219.558 S961
S0
G1 X219.431 S968
S0
G1 X219.304 S977
S0
G1 X219.177 S981
S0
G1 X219.050 S969
S0
G1 X218.923 S933
S0
G1 X218.796 S879
S0
G1 X218.542 S863
S0
G1 X218.415 S869
S0
G1 X218.288 S880
S0
G1 X218.161 S866
S0
G1 X218.034 S862
S0
G1 X217.907 S879
S0
G1 X217.780 S890
S0
G1 X217.653 S870
S0
G1 X217.526 S878
S0
G1 X217.399 S871
S0
G1 X217.272 S930
S0
G1 X217.145 S948
S0
G1 X217.018 S577
S0
G1 X216.891 S146
S0
G1 X216.637 S5
S0
G1 X216.510 S16
S0
G1 X216.383 S24
S0
G1 X216.256 S11
S0
G1 X216.129 S9
S0
G1 X216.002 S5
S0
G1 X215.875 S13
S0
G1 X215.748 S5
S0
G1 X215.621 S9
S0
G1 X215.494 S5
S0
G1 X215.367 S7
S0
G1 X214.859 S5
S0
G1 X214.605 S2
S0
G1 X214.224 S5
S0
G1 X200.000 S2
S0
G0 Y47.117
G0 X200.000 S0
G1 X214.351 S2
S0
G1 X214.478 S5
S0
G1 X214.859 S2
S0
G1 X215.494 S5
S0
G1 X215.621 S9
S0
G1 X215.748 S2
S0
G1 X215.875 S9
S0
G1 X216.002 S5
S0
G1 X216.256 S7
S0
G1 X216.383 S12
S0
G1 X216.510 S42
S0
G1 X216.637 S4
S0
G1 X216.764 S7
S0
G1 X216.891 S255
S0
G1 X217.018 S752
S0
G1 X217.145 S969
S0
G1 X217.272 S902
S0
G1 X217.399 S866
S0
G1 X217.653 S878
S0
G1 X217.780 S873
S0
G1 X217.907 S859
S0
G1 X218.034 S870
S0
G1 X218.161 S879
S0
G1 X218.288 S874
S0
G1 X218.415 S877
S0
G1 X218.542 S866
S0
G1 X218.669 S878
S0
G1 X218.796 S917
S0
G1 X218.923 S960
S0
G1 X219.050 S968
S0
G1 X219.177 S973
S0
G1 X219.304 S972
S0
G1 X219.431 S957
S0
G1 X219.558 S973
S0
G1 X219.685 S965
S0
G1 X219.812 S961
S0
G1 X220.066 S965
S0
G1 X220.193 S961
S0
G1 X220.320 S965
S0
G1 X220.574 S962
S0
G1 X220.701 S961
S0
G1 X220.955 S958
S0
G1 X221.209 S961
S0
G1 X221.336 S958
S0
G1 X221.717 S965
S0
G1 X222.987 S961
S0
G1 X223.241 S960
S0
G1 X223.368 S965
S0
G1 X223.495 S961
S0
G1 X223.622 S960
S0
G1 X223.749 S970
S0
G1 X223.876 S969
S0
G1 X224.003 S956
S0
G1 X224.130 S974
S0
G1 X224.257 S984
S0
G1 X224.384 S930
S0
G1 X224.511 S870
S0
G1 X224.638 S868
S0
G1 X224.765 S870
S0
G1 X224.892 S868
S0
G1 X225.019 S867
S0
G1 X225.146 S875
S0
G1 X225.273 S874
S0
G1 X225.400 S863
S0
G1 X225.527 S875
S0
G1 X225.654 S868
S0
G1 X225.781 S866
S0
G1 X226.035 S868
S0
G1 X226.162 S869
S0
G1 X226.289 S870
S0
G1 X226.416 S869
S0
G1 X226.543 S870
S0
G1 X226.670 S867
S0
G1 X226.797 S873
S0
G1 X226.924 S870
S0
G1 X227.305 S866
S0
G1 X227.432 S862
S0
G1 X227.559 S854
S0
G1 X227.686 S855
S0
G1 X227.813 S854
S0
G1 X227.940 S863
S0
G1 X228.067 S890
S0
G1 X228.194 S901
S0
G1 X228.321 S918
S0
G1 X228.448 S948
S0
G1 X228.575 S944
S0
G1 X228.702 S882
S0
G1 X228.829 S862
S0
G1 X228.956 S871
S0
G1 X229.083 S869
S0
G1 X229.210 S866
S0
G1 X229.337 S863
S0
G1 X229.718 S866
S0
G1 X233.147 S867
S0
G1 X233.274 S871
S0
G1 X233.401 S867
S0
G1 X233.528 S874
S0
G1 X233.655 S869
S0
G1 X233.782 S873
S0
G1 X233.909 S866
S0
G1 X234.036 S870
S0
G1 X234.163 S871
S0
G1 X234.290 S882
S0
G1 X234.417 S866
S0
G1 X234.544 S690
S0
G1 X234.671 S533
S0
G1 X234.798 S615
S0
G1 X234.925 S671
S0
G1 X235.052 S740
S0
G1 X235.179 S818
S0
G1 X235.306 S850
S0
G1 X235.433 S887
S0
G1 X235.560 S902
S0
G1 X235.687 S890
S0
G1 X235.814 S882
S0
G1 X235.941 S856
S0
G1 X236.068 S875
S0
G1 X236.195 S871
S0
G1 X236.322 S862
S0
G1 X236.449 S871
S0
G1 X236.576 S865
S0
G1 X236.703 S870
S0
G1 X236.830 S863
S0
G1 X236.957 S859
S0
G1 X237.084 S907
S0
G1 X237.211 S917
S0
G1 X237.338 S763
S0
G1 X237.465 S588
S0
G1 X237.592 S543
S0
G1 X237.719 S569
S0
G1 X237.846 S575
S0
G1 X237.973 S574
S0
G1 X238.100 S560
S0
G1 X238.227 S579
S0
G1 X238.354 S564
S0
G1 X238.481 S513
S0
G1 X238.608 S618
S0
G1 X238.735 S828
S0
G1 X238.862 S910
S0
G1 X238.989 S890
S0
G1 X239.116 S869
S0
G1 X239.243 S872
S0
G1 X239.370 S871
S0
G1 X239.497 S880
S0
G1 X239.751 S866
S0
G1 X240.005 S869
S0
G1 X240.132 S871
S0
G1 X240.259 S875
S0
G1 X240.386 S871
S0
G1 X240.640 S866
S0
G1 X240.767 S871
S0
G1 X240.894 S867
S0
G1 X241.021 S870
S0
G1 X241.148 S863
S0
G1 X241.275 S878
S0
G1 X241.402 S928
S0
G1 X241.529 S373
S0
G1 X241.656 S13
S0
G1 X241.783 S16
S0
G1 X241.910 S5
S0
G1 X242.037 S2
S0
G1 X242.164 S9
S0
G1 X242.291 S16
S0
G1 X242.418 S9
S0
G1 X242.545 S5
S0
G1 X242.672 S3
S0
G1 X242.799 S24
S0
G1 X242.926 S27
S0
G1 X243.053 S35
S0
G1 X243.180 S12
S0
G1 X243.307 S1
S0
G1 X243.434 S4
S0
G1 X243.561 S54
S0
G1 X243.688 S196
S0
G1 X243.815 S387
S0
G1 X243.942 S551
S0
G1 X244.069 S686
S0
G1 X244.196 S730
S0
G1 X244.323 S511
S0
G1 X244.450 S122
S0
G1 X244.577 S7
S0
G1 X244.704 S16
S0
G1 X244.831 S25
S0
G1 X244.958 S9
S0
G1 X245.085 S7
S0
G1 X245.212 S9
S0
G1 X245.339 S11
S0
G1 X245.466 S5
S0
G1 X245.593 S7
S0
G1 X250.038 S2
S0
G0 Y46.990
G0 X250.038 S0
G1 X245.720 S2
S0
G0 X245.593 S0
G1 X245.466 S1
S0
G1 X245.339 S11
S0
G1 X245.212 S4
S0
G1 X245.085 S8
S0
G1 X244.958 S9
S0
G1 X244.831 S7
S0
G0 X244.704 S0
G1 X244.577 S21
S0
G1 X244.450 S32
S0
G0 X244.323 S0
G1 X244.196 S87
S0
G1 X244.069 S443
S0
G1 X243.942 S662
S0
G1 X243.815 S654
S0
G1 X243.688 S663
S0
G1 X243.561 S619
S0
G1 X243.434 S471
S0
G1 X243.307 S312
S0
G1 X243.180 S109
S0
G1 X243.053 S5
S0
G1 X242.799 S2
S0
G1 X242.672 S7
S0
G1 X242.418 S9
S0
G1 X242.291 S5
S0
G1 X242.164 S8
S0
G1 X242.037 S5
S0
G1 X241.910 S8
S0
G1 X241.783 S7
S0
G1 X241.656 S9
S0
G1 X241.529 S38
S0
G1 X241.402 S25
S0
G1 X241.275 S484
S0
G1 X241.148 S946
S0
G1 X240.894 S866
S0
G1 X240.767 S865
S0
G1 X240.640 S869
S0
G1 X240.513 S867
S0
G1 X240.386 S874
S0
G1 X240.259 S865
S0
G1 X240.005 S863
S0
G1 X239.878 S859
S0
G1 X239.751 S866
S0
G1 X239.624 S870
S0
G1 X239.497 S871
S0
G1 X239.370 S872
S0
G1 X239.116 S876
S0
G1 X238.989 S906
S0
G1 X238.862 S895
S0
G1 X238.735 S727
S0
G1 X238.608 S545
S0
G1 X238.481 S516
S0
G1 X238.354 S582
S0
G1 X238.100 S561
S0
G1 X237.973 S572
S0
G1 X237.846 S575
S0
G1 X237.719 S556
S0
G1 X237.592 S536
S0
G1 X237.465 S627
S0
G1 X237.338 S831
S0
G1 X237.211 S945
S0
G1 X237.084 S889
S0
G1 X236.957 S859
S0
G1 X236.830 S862
S0
G1 X236.703 S874
S0
G1 X236.576 S872
S0
G1 X236.322 S875
S0
G1 X236.195 S862
S0
G1 X236.068 S871
S0
G1 X235.941 S898
S0
G1 X235.814 S909
S0
G1 X235.687 S894
S0
G1 X235.560 S850
S0
G1 X235.433 S787
S0
G1 X235.306 S711
S0
G1 X235.179 S623
S0
G1 X235.052 S583
S0
G1 X234.925 S524
S0
G1 X234.798 S530
S0
G1 X234.671 S482
S0
G1 X234.544 S643
S0
G1 X234.417 S883
S0
G1 X234.290 S878
S0
G1 X234.163 S867
S0
G1 X234.036 S866
S0
G1 X233.909 S870
S0
G1 X233.782 S866
S0
G1 X233.528 S871
S0
G1 X233.401 S874
S0
G1 X233.274 S866
S0
G1 X233.147 S871
S0
G1 X232.766 S866
S0
G1 X230.480 S867
S0
G1 X230.226 S866
S0
G1 X229.718 S867
S0
G1 X229.210 S866
S0
G1 X229.083 S868
S0
G1 X228.956 S869
S0
G1 X228.829 S871
S0
G1 X228.702 S873
S0
G1 X228.575 S882
S0
G1 X228.448 S885
S0
G1 X228.321 S866
S0
G1 X228.194 S863
S0
G1 X228.067 S858
S0
G1 X227.940 S851
S0
G1 X227.813 S867
S0
G1 X227.686 S866
S0
G1 X227.559 S877
S0
G1 X227.432 S884
S0
G1 X227.305 S866
S0
G1 X227.051 S871
S0
G1 X226.924 S868
S0
G1 X226.797 S875
S0
G1 X226.670 S867
S0
G1 X226.543 S866
S0
G1 X226.416 S868
S0
G1 X226.289 S867
S0
G1 X226.162 S871
S0
G1 X226.035 S870
S0
G1 X225.908 S868
S0
G1 X225.781 S875
S0
G1 X225.527 S867
S0
G1 X225.400 S874
S0
G1 X225.273 S870
S0
G1 X225.146 S875
S0
G1 X225.019 S870
S0
G1 X224.892 S871
S0
G1 X224.765 S875
S0
G1 X224.511 S863
S0
G1 X224.384 S940
S0
G1 X224.257 S973
S0
G1 X224.130 S978
S0
G1 X224.003 S961
S0
G1 X223.876 S970
S0
G1 X223.368 S964
S0
G1 X223.241 S965
S0
G1 X223.114 S960
S0
G1 X222.987 S964
S0
G1 X222.733 S961
S0
G1 X222.606 S965
S0
G1 X222.352 S961
S0
G1 X222.225 S958
S0
G1 X221.463 S961
S0
G1 X221.209 S958
S0
G1 X221.082 S961
S0
G1 X220.828 S965
S0
G1 X220.574 S961
S0
G1 X220.447 S965
S0
G1 X220.320 S961
S0
G1 X220.193 S958
S0
G1 X219.939 S961
S0
G1 X219.812 S965
S0
G1 X219.558 S969
S0
G1 X219.431 S973
S0
G1 X219.304 S965
S0
G1 X219.177 S968
S0
G1 X219.050 S964
S0
G1 X218.923 S968
S0
G1 X218.796 S972
S0
G1 X218.669 S984
S0
G1 X218.542 S945
S0
G1 X218.415 S897
S0
G1 X218.288 S854
S0
G1 X218.161 S873
S0
G1 X218.034 S883
S0
G1 X217.907 S865
S0
G1 X217.780 S863
S0
G1 X217.653 S873
S0
G1 X217.526 S870
S0
G1 X217.399 S886
S0
G1 X217.272 S882
S0
G1 X217.145 S889
S0
G1 X217.018 S866
S0
G1 X216.891 S956
S0
G1 X216.764 S883
S0
G1 X216.637 S421
S0
G1 X216.510 S48
S0
G0 X216.383 S0
G1 X216.129 S11
S0
G1 X216.002 S3
S0
G0 X215.875 S0
G1 X215.748 S2
S0
G1 X214.859 S5
S0
G1 X200.000 S2
S0
G0 Y46.863
G0 X200.000 S0
G1 X212.954 S2
S0
G1 X213.081 S5
S0
G1 X213.843 S2
S0
G1 X214.097 S5
S0
G1 X214.224 S2
S0
G1 X214.351 S5
S0
G1 X214.732 S2
S0
G1 X214.859 S5
S0
G1 X214.986 S2
S0
G1 X215.113 S3
S0
G1 X215.240 S5
S0
G1 X215.367 S2
S0
G1 X215.494 S11
S0
G1 X215.621 S9
S0
G1 X215.748 S5
S0
G1 X215.875 S12
S0
G1 X216.002 S17
S0
G1 X216.129 S8
S0
G1 X216.256 S3
S0
G1 X216.383 S5
S0
G1 X216.510 S119
S0
G1 X216.637 S572
S0
G1 X216.764 S933
S0
G1 X216.891 S940
S0
G1 X217.018 S854
S0
G1 X217.145 S877
S0
G1 X217.272 S871
S0
G1 X217.399 S883
S0
G1 X217.526 S879
S0
G1 X217.653 S870
S0
G1 X217.907 S878
S0
G1 X218.034 S871
S0
G1 X218.161 S862
S0
G1 X218.288 S881
S0
G1 X218.415 S918
S0
G1 X218.542 S960
S0
G1 X218.669 S973
S0
G1 X218.796 S956
S0
G1 X218.923 S949
S0
G1 X219.177 S969
S0
G1 X219.304 S965
S0
G1 X219.431 S969
S0
G1 X219.558 S961
S0
G1 X219.685 S960
S0
G1 X219.812 S965
S0
G1 X219.939 S961
S0
G1 X220.066 S965
S0
G1 X220.193 S961
S0
G1 X220.447 S960
S0
G1 X220.828 S961
S0
G1 X220.955 S962
S0
G1 X223.114 S961
S0
G1 X223.368 S965
S0
G1 X223.495 S964
S0
G1 X223.622 S962
S0
G1 X223.749 S965
S0
G1 X223.876 S962
S0
G1 X224.003 S964
S0
G1 X224.130 S968
S0
G1 X224.257 S956
S0
G1 X224.384 S960
S0
G1 X224.511 S981
S0
G1 X224.638 S933
S0
G1 X224.765 S871
S0
G1 X224.892 S863
S0
G1 X225.019 S875
S0
G1 X225.273 S867
S0
G1 X225.400 S858
S0
G1 X225.527 S867
S0
G1 X225.781 S866
S0
G1 X225.908 S874
S0
G1 X226.035 S867
S0
G1 X226.162 S873
S0
G1 X226.543 S866
S0
G1 X226.797 S867
S0
G1 X227.051 S866
S0
G1 X227.305 S872
S0
G1 X227.432 S871
S0
G1 X227.559 S873
S0
G1 X227.813 S867
S0
G1 X227.940 S869
S0
G1 X228.067 S873
S0
G1 X228.321 S877
S0
G1 X228.448 S862
S0
G1 X228.575 S858
S0
G1 X228.702 S862
S0
G1 X228.829 S876
S0
G1 X228.956 S873
S0
G1 X229.083 S871
S0
G1 X229.210 S866
S0
G1 X229.337 S863
S0
G1 X229.591 S866
S0
G1 X229.718 S867
S0
G1 X229.845 S864
S0
G1 X229.972 S863
S0
G1 X230.099 S871
S0
G1 X230.226 S864
S0
G1 X230.353 S868
S0
G1 X230.607 S862
S0
G1 X230.861 S867
S0
G1 X230.988 S863
S0
G1 X231.115 S867
S0
G1 X231.242 S866
S0
G1 X231.369 S868
S0
G1 X231.496 S863
S0
G1 X231.623 S867
S0
G1 X231.750 S863
S0
G1 X231.877 S871
S0
G1 X232.004 S868
S0
G1 X232.131 S867
S0
G1 X232.385 S866
S0
G1 X232.512 S867
S0
G1 X232.639 S866
S0
G1 X232.766 S867
S0
G1 X232.893 S862
S0
G1 X233.020 S868
S0
G1 X233.147 S866
S0
G1 X233.274 S867
S0
G1 X233.401 S870
S0
G1 X233.528 S875
S0
G1 X233.655 S866
S0
G1 X233.782 S871
S0
G1 X233.909 S867
S0
G1 X234.036 S866
S0
G1 X234.163 S872
S0
G1 X234.290 S873
S0
G1 X234.417 S886
S0
G1 X234.544 S895
S0
G1 X234.671 S857
S0
G1 X234.798 S604
S0
G1 X234.925 S541
S0
G1 X235.052 S553
S0
G1 X235.179 S547
S0
G1 X235.306 S521
S0
G1 X235.433 S533
S0
G1 X235.560 S552
S0
G1 X235.687 S607
S0
G1 X235.814 S704
S0
G1 X235.941 S792
S0
G1 X236.068 S857
S0
G1 X236.195 S910
S0
G1 X236.322 S911
S0
G1 X236.449 S894
S0
G1 X236.830 S868
S0
G1 X236.957 S866
S0
G1 X237.084 S880
S0
G1 X237.211 S862
S0
G1 X237.338 S865
S0
G1 X237.465 S922
S0
G1 X237.592 S858
S0
G1 X237.719 S643
S0
G1 X237.846 S529
S0
G1 X237.973 S548
S0
G1 X238.100 S567
S0
G1 X238.227 S579
S0
G1 X238.354 S564
S0
G1 X238.481 S572
S0
G1 X238.608 S577
S0
G1 X238.735 S545
S0
G1 X238.862 S530
S0
G1 X238.989 S699
S0
G1 X239.116 S886
S0
G1 X239.243 S901
S0
G1 X239.370 S874
S0
G1 X239.497 S879
S0
G1 X239.624 S874
S0
G1 X239.751 S870
S0
G1 X239.878 S867
S0
G1 X240.005 S862
S0
G1 X240.132 S863
S0
G1 X240.259 S858
S0
G1 X240.386 S859
S0
G1 X240.513 S874
S0
G1 X240.640 S870
S0
G1 X240.767 S861
S0
G1 X240.894 S870
S0
G1 X241.021 S866
S0
G1 X241.148 S969
S0
G1 X241.275 S632
S0
G1 X241.402 S44
S0
G1 X241.529 S15
S0
G1 X241.656 S36
S0
G1 X241.783 S9
S0
G1 X241.910 S16
S0
G1 X242.037 S20
S0
G0 X242.164 S0
G1 X242.291 S17
S0
G1 X242.418 S13
S0
G1 X242.545 S9
S0
G1 X242.799 S2
S0
G1 X242.926 S8
S0
G1 X243.053 S137
S0
G1 X243.180 S393
S0
G1 X243.307 S667
S0
G1 X243.434 S705
S0
G1 X243.561 S660
S0
G1 X243.688 S602
S0
G1 X243.815 S611
S0
G1 X243.942 S634
S0
G1 X244.069 S395
S0
G1 X244.196 S58
S0
G0 X244.323 S0
G1 X244.450 S32
S0
G1 X244.577 S16
S0
G1 X244.704 S12
S0
G1 X244.831 S7
S0
G1 X244.958 S15
S0
G1 X245.085 S12
S0
G1 X245.212 S8
S0
G1 X245.339 S12
S0
G1 X245.466 S6
S0
G1 X250.038 S2
S0
G0 Y46.736
G0 X250.038 S0
G1 X245.593 S2
S0
G1 X245.466 S5
S0
G1 X245.339 S13
S0
G1 X245.212 S15
S0
G1 X245.085 S12
S0
G1 X244.958 S8
S0
G1 X244.831 S5
S0
G1 X244.704 S3
S0
G1 X244.577 S5
S0
G1 X244.450 S14
S0
G1 X244.323 S12
S0
G1 X244.196 S23
S0
G1 X244.069 S7
S0
G1 X243.942 S6
S0
G1 X243.815 S365
S0
G1 X243.688 S643
S0
G1 X243.561 S627
S0
G1 X243.434 S568
S0
G1 X243.307 S573
S0
G1 X243.180 S749
S0
G1 X243.053 S932
S0
G1 X242.926 S776
S0
G1 X242.799 S428
S0
G1 X242.672 S172
S0
G1 X242.545 S28
S0
G1 X242.291 S2
S0
G1 X242.164 S5
S0
G1 X242.037 S8
S0
G1 X241.910 S19
S0
G1 X241.783 S8
S0
G1 X241.529 S13
S0
G1 X241.402 S28
S0
G1 X241.275 S3
S0
G1 X241.148 S98
S0
G1 X241.021 S749
S0
G1 X240.894 S944
S0
G1 X240.767 S866
S0
G1 X240.640 S870
S0
G1 X240.513 S877
S0
G1 X240.386 S866
S0
G1 X240.259 S875
S0
G1 X240.132 S865
S0
G1 X240.005 S863
S0
G1 X239.878 S865
S0
G1 X239.751 S872
S0
G1 X239.624 S863
S0
G1 X239.497 S866
S0
G1 X239.370 S868
S0
G1 X239.243 S889
S0
G1 X239.116 S871
S0
G1 X238.989 S666
S0
G1 X238.862 S533
S0
G1 X238.735 S573
S0
G1 X238.608 S580
S0
G1 X238.481 S565
S0
G1 X238.354 S559
S0
G1 X238.227 S568
S0
G1 X238.100 S569
S0
G1 X237.973 S548
S0
G1 X237.846 S522
S0
G1 X237.719 S648
S0
G1 X237.592 S874
S0
G1 X237.465 S925
S0
G1 X237.338 S867
S0
G1 X237.211 S860
S0
G1 X237.084 S878
S0
G1 X236.957 S870
S0
G1 X236.830 S874
S0
G1 X236.703 S878
S0
G1 X236.576 S895
S0
G1 X236.449 S917
S0
G1 X236.322 S886
S0
G1 X236.195 S826
S0
G1 X236.068 S717
S0
G1 X235.941 S623
S0
G1 X235.814 S557
S0
G1 X235.687 S522
S0
G1 X235.560 S526
S0
G1 X235.433 S556
S0
G1 X235.306 S571
S0
G1 X235.179 S576
S0
G1 X235.052 S571
S0
G1 X234.925 S564
S0
G1 X234.798 S541
S0
G1 X234.671 S799
S0
G1 X234.544 S905
S0
G1 X234.417 S876
S0
G1 X234.290 S882
S0
G1 X234.163 S876
S0
G1 X233.909 S870
S0
G1 X233.782 S871
S0
G1 X233.655 S874
S0
G1 X233.528 S869
S0
G1 X233.401 S873
S0
G1 X233.274 S862
S0
G1 X233.147 S869
S0
G1 X233.020 S866
S0
G1 X232.893 S867
S0
G1 X232.766 S866
S0
G1 X232.639 S862
S0
G1 X232.258 S867
S0
G1 X232.131 S866
S0
G1 X231.877 S871
S0
G1 X231.750 S862
S0
G1 X231.623 S863
S0
G1 X231.369 S866
S0
G1 X231.242 S869
S0
G1 X231.115 S863
S0
G1 X230.988 S867
S0
G1 X230.861 S863
S0
G1 X230.734 S862
S0
G1 X230.607 S866
S0
G1 X230.226 S867
S0
G1 X230.099 S863
S0
G1 X229.718 S867
S0
G1 X229.591 S866
S0
G1 X229.464 S867
S0
G1 X229.337 S866
S0
G1 X229.210 S867
S0
G1 X229.083 S869
S0
G1 X228.956 S871
S0
G1 X228.829 S866
S0
G1 X228.702 S864
S0
G1 X228.575 S866
S0
G1 X228.448 S881
S0
G1 X228.321 S874
S0
G1 X227.940 S869
S0
G1 X227.813 S873
S0
G1 X227.559 S867
S0
G1 X227.432 S873
S0
G1 X227.305 S875
S0
G1 X227.178 S867
S0
G1 X226.924 S866
S0
G1 X226.797 S875
S0
G1 X226.670 S871
S0
G1 X226.543 S863
S0
G1 X226.416 S871
S0
G1 X226.289 S870
S0
G1 X226.162 S866
S0
G1 X226.035 S875
S0
G1 X225.908 S863
S0
G1 X225.781 S858
S0
G1 X225.654 S859
S0
G1 X225.400 S858
S0
G1 X225.273 S863
S0
G1 X225.146 S889
S0
G1 X225.019 S882
S0
G1 X224.892 S859
S0
G1 X224.765 S863
S0
G1 X224.638 S925
S0
G1 X224.511 S985
S0
G1 X224.384 S969
S0
G1 X224.257 S957
S0
G1 X224.003 S969
S0
G1 X223.876 S957
S0
G1 X223.749 S956
S0
G1 X223.622 S961
S0
G1 X223.495 S960
S0
G1 X223.368 S957
S0
G1 X223.114 S960
S0
G1 X220.447 S961
S0
G1 X220.320 S960
S0
G1 X220.193 S962
S0
G1 X220.066 S961
S0
G1 X219.939 S964
S0
G1 X219.812 S962
S0
G1 X219.685 S961
S0
G1 X219.558 S960
S0
G1 X219.431 S958
S0
G1 X219.050 S965
S0
G1 X218.923 S961
S0
G1 X218.796 S970
S0
G1 X218.669 S966
S0
G1 X218.542 S954
S0
G1 X218.415 S973
S0
G1 X218.288 S969
S0
G1 X218.161 S948
S0
G1 X218.034 S902
S0
G1 X217.907 S863
S0
G1 X217.780 S867
S0
G1 X217.653 S882
S0
G1 X217.399 S870
S0
G1 X217.272 S887
S0
G1 X217.145 S877
S0
G1 X216.891 S878
S0
G1 X216.764 S854
S0
G1 X216.637 S919
S0
G1 X216.510 S972
S0
G1 X216.383 S706
S0
G1 X216.256 S196
S0
G1 X216.129 S2
S0
G1 X216.002 S7
S0
G1 X215.875 S44
S0
G1 X215.748 S16
S0
G1 X215.621 S3
S0
G1 X215.494 S5
S0
G1 X215.367 S15
S0
G1 X215.113 S9
S0
G1 X214.986 S7
S0
G1 X214.732 S2
S0
G1 X214.351 S5
S0
G1 X214.224 S9
S0
G1 X213.589 S2
S0
G1 X213.208 S5
S0
G1 X213.081 S2
S0
G1 X212.954 S5
S0
G1 X200.000 S2
S0
G0 Y46.609
G0 X200.000 S0
G1 X212.954 S2
S0
G1 X213.081 S5
S0
G1 X213.335 S2
S0
G1 X213.589 S5
S0
G1 X214.224 S2
S0
G1 X214.351 S5
S0
G1 X214.478 S9
S0
G1 X214.605 S3
S0
G1 X214.732 S5
S0
G1 X214.859 S2
S0
G1 X215.113 S5
S0
G1 X215.240 S16
S0
G1 X215.367 S11
S0
G1 X215.748 S4
S0
G1 X215.875 S25
S0
G1 X216.002 S5
S0
G1 X216.129 S3
S0
G1 X216.256 S306
S0
G1 X216.383 S819
S0
G1 X216.510 S987
S0
G1 X216.637 S869
S0
G1 X216.764 S882
S0
G1 X216.891 S867
S0
G1 X217.018 S882
S0
G1 X217.145 S871
S0
G1 X217.272 S878
S0
G1 X217.399 S883
S0
G1 X217.526 S870
S0
G1 X217.653 S879
S0
G1 X217.780 S855
S0
G1 X217.907 S878
S0
G1 X218.034 S941
S0
G1 X218.161 S968
S0
G1 X218.288 S982
S0
G1 X218.542 S969
S0
G1 X218.669 S962
S0
G1 X218.796 S969
S0
G1 X218.923 S965
S0
G1 X219.050 S956
S0
G1 X219.177 S958
S0
G1 X219.304 S960
S0
G1 X219.431 S961
S0
G1 X219.558 S962
S0
G1 X219.685 S966
S0
G1 X219.812 S968
S0
G1 X220.066 S965
S0
G1 X220.193 S960
S0
G1 X223.114 S961
S0
G1 X223.368 S960
S0
G1 X223.495 S964
S0
G1 X223.622 S965
S0
G1 X223.749 S961
S0
G1 X223.876 S964
S0
G1 X224.003 S968
S0
G1 X224.130 S969
S0
G1 X224.384 S973
S0
G1 X224.638 S969
S0
G1 X224.765 S981
S0
G1 X224.892 S926
S0
G1 X225.019 S856
S0
G1 X225.146 S888
S0
G1 X225.273 S949
S0
G1 X225.400 S945
S0
G1 X225.527 S930
S0
G1 X225.654 S906
S0
G1 X225.781 S895
S0
G1 X225.908 S882
S0
G1 X226.035 S868
S0
G1 X226.162 S876
S0
G1 X226.289 S870
S0
G1 X226.416 S868
S0
G1 X226.543 S854
S0
G1 X226.670 S860
S0
G1 X226.797 S868
S0
G1 X226.924 S866
S0
G1 X227.051 S872
S0
G1 X227.178 S869
S0
G1 X227.305 S858
S0
G1 X227.432 S866
S0
G1 X227.686 S869
S0
G1 X227.813 S875
S0
G1 X227.940 S873
S0
G1 X228.067 S866
S0
G1 X228.194 S862
S0
G1 X228.321 S866
S0
G1 X228.448 S869
S0
G1 X228.702 S866
S0
G1 X228.829 S872
S0
G1 X228.956 S869
S0
G1 X229.083 S867
S0
G1 X229.210 S866
S0
G1 X229.337 S867
S0
G1 X229.464 S866
S0
G1 X229.591 S869
S0
G1 X229.718 S871
S0
G1 X229.972 S866
S0
G1 X230.099 S867
S0
G1 X230.226 S870
S0
G1 X230.353 S869
S0
G1 X230.480 S867
S0
G1 X230.734 S870
S0
G1 X230.861 S866
S0
G1 X230.988 S862
S0
G1 X231.115 S871
S0
G1 X231.242 S866
S0
G1 X231.369 S870
S0
G1 X231.496 S866
S0
G1 X231.623 S870
S0
G1 X231.750 S862
S0
G1 X231.877 S863
S0
G1 X232.004 S869
S0
G1 X232.131 S862
S0
G1 X232.258 S871
S0
G1 X232.385 S868
S0
G1 X232.512 S867
S0
G1 X232.639 S868
S0
G1 X232.766 S867
S0
G1 X233.147 S871
S0
G1 X233.274 S869
S0
G1 X233.401 S862
S0
G1 X233.528 S875
S0
G1 X233.782 S872
S0
G1 X233.909 S873
S0
G1 X234.036 S871
S0
G1 X234.163 S867
S0
G1 X234.290 S876
S0
G1 X234.417 S875
S0
G1 X234.544 S867
S0
G1 X234.671 S883
S0
G1 X234.798 S898
S0
G1 X234.925 S714
S0
G1 X235.052 S520
S0
G1 X235.179 S581
S0
G1 X235.306 S569
S0
G1 X235.433 S572
S0
G1 X235.560 S568
S0
G1 X235.687 S571
S0
G1 X235.814 S573
S0
G1 X235.941 S556
S0
G1 X236.068 S537
S0
G1 X236.195 S525
S0
G1 X236.322 S577
S0
G1 X236.449 S678
S0
G1 X236.576 S783
S0
G1 X236.703 S875
S0
G1 X236.830 S918
S0
G1 X236.957 S882
S0
G1 X237.084 S862
S0
G1 X237.211 S874
S0
G1 X237.338 S878
S0
G1 X237.465 S870
S0
G1 X237.592 S871
S0
G1 X237.719 S905
S0
G1 X237.846 S875
S0
G1 X237.973 S647
S0
G1 X238.100 S530
S0
G1 X238.227 S559
S0
G1 X238.354 S561
S0
G1 X238.481 S556
S0
G1 X238.608 S564
S0
G1 X238.735 S565
S0
G1 X238.862 S576
S0
G1 X238.989 S572
S0
G1 X239.116 S529
S0
G1 X239.243 S635
S0
G1 X239.370 S844
S0
G1 X239.497 S898
S0
G1 X239.624 S873
S0
G1 X239.751 S874
S0
G1 X239.878 S857
S0
G1 X240.005 S866
S0
G1 X240.132 S878
S0
G1 X240.259 S877
S0
G1 X240.386 S866
S0
G1 X240.513 S874
S0
G1 X240.640 S886
S0
G1 X240.767 S866
S0
G1 X240.894 S942
S0
G1 X241.021 S815
S0
G1 X241.148 S176
S0
G1 X241.275 S2
S0
G1 X241.402 S35
S0
G1 X241.529 S21
S0
G1 X241.656 S9
S0
G1 X241.783 S7
S0
G1 X241.910 S16
S0
G1 X242.037 S4
S0
G0 X242.164 S0
G1 X242.291 S5
S0
G1 X242.418 S70
S0
G1 X242.545 S251
S0
G1 X242.672 S486
S0
G1 X242.799 S757
S0
G1 X242.926 S961
S0
G1 X243.053 S932
S0
G1 X243.180 S666
S0
G1 X243.307 S514
S0
G1 X243.434 S580
S0
G1 X243.561 S642
S0
G1 X243.688 S610
S0
G1 X243.815 S270
S0
G1 X243.942 S6
S0
G1 X244.069 S5
S0
G1 X244.196 S19
S0
G1 X244.323 S16
S0
G1 X244.450 S17
S0
G1 X244.577 S7
S0
G1 X244.704 S5
S0
G1 X244.831 S7
S0
