; GCODE generated by Laserweb
; Laser Min: 0%
; Laser Max: 100%
; Black Speed: 200mm/min
; White Speed: 800mm/min
; Resolution (mm per pixel): 0.12699999999999187mm
; Laser Spot Size: NaNmm
; Laser Feedrate: 2000mm/min
; X Offset: 200mm
; Y Offset: 0mm 

G1 F1000
; Start GCode
G92
G90
G1Z0
M3S0

G0 Y37.338
G0 X200.000 S0
G1 X200.127 S103
S0
G1 X200.254 S112
S0
G1 X200.381 S108
S0
G1 X200.508 S103
S0
G1 X200.635 S99
S0
G1 X200.762 S100
S0
G1 X200.889 S92
S0
G1 X201.016 S95
S0
G1 X201.143 S82
S0
G1 X201.270 S87
S0
G1 X201.397 S88
S0
G1 X201.651 S82
S0
G1 X201.778 S84
S0
G1 X202.032 S82
S0
G1 X202.159 S84
S0
G1 X202.286 S78
S0
G1 X202.413 S82
S0
G1 X202.540 S86
S0
G1 X202.794 S82
S0
G1 X202.921 S84
S0
G1 X203.048 S91
S0
G1 X203.175 S86
S0
G1 X203.302 S70
S0
G1 X203.429 S72
S0
G1 X203.556 S68
S0
G1 X203.683 S70
S0
G1 X203.810 S79
S0
G1 X203.937 S75
S0
G1 X204.064 S71
S0
G1 X204.191 S63
S0
G1 X204.318 S71
S0
G1 X204.445 S70
S0
G1 X204.572 S68
S0
G1 X204.699 S67
S0
G1 X204.826 S62
S0
G1 X204.953 S63
S0
G1 X205.080 S70
S0
G1 X205.207 S63
S0
G1 X205.334 S60
S0
G1 X205.461 S70
S0
G1 X205.588 S67
S0
G1 X205.715 S55
S0
G1 X205.842 S51
S0
G1 X205.969 S55
S0
G1 X206.096 S58
S0
G1 X206.477 S63
S0
G1 X206.604 S67
S0
G1 X206.731 S62
S0
G1 X206.858 S56
S0
G1 X206.985 S59
S0
G1 X207.112 S57
S0
G1 X207.239 S63
S0
G1 X207.366 S60
S0
G1 X207.493 S52
S0
G1 X207.620 S49
S0
G1 X207.747 S56
S0
G1 X207.874 S59
S0
G1 X208.001 S60
S0
G1 X208.128 S50
S0
G1 X208.255 S60
S0
G1 X208.509 S57
S0
G1 X208.763 S52
S0
G1 X208.890 S57
S0
G1 X209.017 S56
S0
G1 X209.144 S55
S0
G1 X209.271 S48
S0
G1 X209.398 S56
S0
G1 X209.525 S52
S0
G1 X209.652 S56
S0
G1 X209.906 S54
S0
G1 X210.033 S60
S0
G1 X210.160 S71
S0
G1 X210.287 S73
S0
G1 X210.414 S68
S0
G1 X210.541 S67
S0
G1 X210.668 S58
S0
G1 X210.795 S62
S0
G1 X210.922 S91
S0
G1 X211.049 S112
S0
G1 X211.176 S145
S0
G1 X211.303 S160
S0
G1 X211.430 S152
S0
G1 X211.557 S160
S0
G1 X211.684 S164
S0
G1 X211.811 S154
S0
G1 X211.938 S122
S0
G1 X212.065 S100
S0
G1 X212.192 S99
S0
G1 X212.319 S80
S0
G1 X212.446 S72
S0
G1 X212.573 S75
S0
G1 X212.700 S61
S0
G1 X212.827 S60
S0
G1 X212.954 S67
S0
G1 X213.081 S55
S0
G1 X213.208 S52
S0
G1 X213.335 S55
S0
G1 X213.462 S56
S0
G1 X213.589 S51
S0
G1 X213.716 S47
S0
G1 X213.843 S43
S0
G1 X213.970 S48
S0
G1 X214.224 S43
S0
G1 X214.478 S52
S0
G1 X214.605 S44
S0
G1 X214.732 S40
S0
G1 X214.859 S48
S0
G1 X214.986 S47
S0
G1 X215.113 S39
S0
G1 X215.240 S48
S0
G1 X215.367 S61
S0
G1 X215.621 S59
S0
G1 X215.748 S68
S0
G1 X215.875 S63
S0
G1 X216.002 S55
S0
G1 X216.129 S76
S0
G1 X216.256 S59
S0
G1 X216.383 S45
S0
G1 X216.510 S63
S0
G1 X216.637 S57
S0
G1 X216.764 S49
S0
G1 X216.891 S71
S0
G1 X217.018 S49
S0
G1 X217.145 S52
S0
G1 X217.272 S67
S0
G1 X217.399 S56
S0
G1 X217.526 S52
S0
G1 X217.653 S67
S0
G1 X217.780 S51
S0
G1 X217.907 S59
S0
G1 X218.034 S67
S0
G1 X218.161 S63
S0
G1 X218.288 S55
S0
G1 X218.542 S71
S0
G1 X218.669 S44
S0
G1 X218.796 S40
S0
G1 X218.923 S51
S0
G1 X219.050 S57
S0
G1 X219.177 S55
S0
G1 X219.304 S56
S0
G1 X219.431 S50
S0
G1 X219.558 S52
S0
G1 X219.685 S44
S0
G1 X219.812 S46
S0
G1 X219.939 S48
S0
G1 X220.066 S50
S0
G1 X220.193 S65
S0
G1 X220.320 S49
S0
G1 X220.447 S43
S0
G1 X220.574 S58
S0
G1 X220.701 S46
S0
G1 X220.828 S53
S0
G1 X220.955 S55
S0
G1 X221.082 S51
S0
G1 X221.209 S47
S0
G1 X221.336 S61
S0
G1 X221.463 S60
S0
G1 X221.590 S43
S0
G1 X221.717 S51
S0
G1 X221.844 S85
S0
G1 X221.971 S139
S0
G1 X222.098 S127
S0
G1 X222.225 S60
S0
G1 X222.352 S50
S0
G1 X222.479 S52
S0
G1 X222.606 S48
S0
G1 X222.733 S52
S0
G1 X222.860 S58
S0
G1 X222.987 S55
S0
G1 X223.114 S51
S0
G1 X223.241 S52
S0
G1 X223.368 S39
S0
G1 X223.622 S48
S0
G1 X223.876 S51
S0
G1 X224.003 S59
S0
G1 X224.130 S55
S0
G1 X224.257 S43
S0
G1 X224.384 S51
S0
G1 X224.638 S55
S0
G1 X224.765 S47
S0
G1 X224.892 S51
S0
G1 X225.146 S52
S0
G1 X225.273 S48
S0
G1 X225.400 S58
S0
G1 X225.527 S43
S0
G1 X225.654 S36
S0
G1 X225.781 S31
S0
G1 X225.908 S32
S0
G1 X226.035 S40
S0
G1 X226.162 S31
S0
G1 X226.289 S32
S0
G1 X226.416 S46
S0
G1 X226.543 S94
S0
G1 X226.670 S133
S0
G1 X226.797 S104
S0
G1 X227.178 S67
S0
G1 X227.305 S59
S0
G1 X227.432 S67
S0
G1 X227.559 S49
S0
G1 X227.686 S40
S0
G1 X227.940 S47
S0
G1 X228.067 S43
S0
G1 X228.194 S48
S0
G1 X228.321 S52
S0
G1 X228.448 S58
S0
G1 X228.575 S59
S0
G1 X228.702 S48
S0
G1 X228.829 S52
S0
G1 X228.956 S40
S0
G1 X229.083 S48
S0
G1 X229.210 S56
S0
G1 X229.337 S47
S0
G1 X229.464 S36
S0
G1 X229.591 S35
S0
G1 X229.718 S45
S0
G1 X229.845 S52
S0
G1 X229.972 S49
S0
G1 X230.099 S47
S0
G1 X230.226 S46
S0
G1 X230.353 S48
S0
G1 X230.480 S47
S0
G1 X230.607 S51
S0
G1 X230.861 S59
S0
G1 X230.988 S55
S0
G1 X231.115 S61
S0
G1 X231.242 S57
S0
G1 X231.496 S60
S0
G1 X231.623 S54
S0
G1 X231.750 S51
S0
G1 X231.877 S44
S0
G1 X232.004 S47
S0
G1 X232.131 S57
S0
G1 X232.258 S50
S0
G1 X232.385 S32
S0
G1 X232.512 S31
S0
G1 X232.639 S48
S0
G1 X232.766 S46
S0
G1 X232.893 S47
S0
G1 X233.020 S27
S0
G1 X233.147 S32
S0
G1 X233.274 S46
S0
G1 X233.401 S47
S0
G1 X233.528 S35
S0
G1 X233.655 S40
S0
G1 X233.782 S51
S0
G1 X233.909 S39
S0
G1 X234.036 S35
S0
G1 X234.163 S48
S0
G1 X234.290 S50
S0
G1 X234.417 S48
S0
G1 X234.544 S54
S0
G1 X234.671 S43
S0
G1 X234.798 S48
S0
G1 X234.925 S44
S0
G1 X235.052 S37
S0
G1 X235.179 S40
S0
G1 X235.306 S43
S0
G1 X235.433 S48
S0
G1 X235.560 S55
S0
G1 X235.687 S42
S0
G1 X235.814 S43
S0
G1 X235.941 S48
S0
G1 X236.195 S40
S0
G1 X236.322 S28
S0
G1 X236.449 S27
S0
G1 X236.576 S28
S0
G1 X236.830 S23
S0
G1 X236.957 S35
S0
G1 X237.084 S31
S0
G1 X237.211 S35
S0
G1 X237.592 S31
S0
G1 X237.719 S36
S0
G1 X237.846 S39
S0
G1 X237.973 S43
S0
G1 X238.100 S57
S0
G1 X238.227 S76
S0
G1 X238.354 S94
S0
G1 X238.481 S70
S0
G1 X238.608 S60
S0
G1 X238.735 S102
S0
G1 X238.862 S153
S0
G1 X238.989 S161
S0
G1 X239.116 S177
S0
G1 X239.243 S151
S0
G1 X239.370 S94
S0
G1 X239.497 S66
S0
G1 X239.624 S56
S0
G1 X239.751 S43
S0
G1 X239.878 S52
S0
G1 X240.259 S40
S0
G1 X240.513 S44
S0
G1 X240.640 S47
S0
G1 X240.767 S44
S0
G1 X240.894 S48
S0
G1 X241.021 S40
S0
G1 X241.148 S35
S0
G1 X241.275 S40
S0
G1 X241.402 S38
S0
G1 X241.529 S46
S0
G1 X241.783 S44
S0
G1 X242.037 S40
S0
G1 X242.164 S52
S0
G1 X242.291 S55
S0
G1 X242.418 S51
S0
G1 X242.545 S43
S0
G1 X242.672 S55
S0
G1 X242.799 S63
S0
G1 X242.926 S59
S0
G1 X243.307 S63
S0
G1 X243.434 S56
S0
G1 X243.561 S51
S0
G1 X243.688 S61
S0
G1 X243.942 S56
S0
G1 X244.069 S59
S0
G1 X244.196 S60
S0
G1 X244.323 S63
S0
G1 X244.450 S74
S0
G1 X244.577 S70
S0
G1 X244.704 S82
S0
G1 X244.831 S79
S0
G1 X244.958 S76
S0
G1 X245.212 S82
S0
G1 X245.339 S75
S0
G1 X245.466 S67
S0
G1 X245.593 S60
S0
G1 X245.720 S56
S0
G1 X245.847 S53
S0
G1 X245.974 S47
S0
G1 X246.101 S52
S0
G1 X246.228 S57
S0
G1 X246.355 S56
S0
G1 X246.482 S55
S0
G1 X246.609 S50
S0
G1 X246.736 S54
S0
G1 X246.990 S51
S0
G1 X247.117 S63
S0
G1 X247.371 S59
S0
G1 X247.498 S55
S0
G1 X247.752 S56
S0
G1 X247.879 S52
S0
G1 X248.006 S56
S0
G1 X248.133 S55
S0
G1 X248.387 S57
S0
G1 X248.514 S59
S0
G1 X248.768 S63
S0
G1 X248.895 S58
S0
G1 X249.149 S52
S0
G1 X249.276 S59
S0
G1 X249.403 S63
S0
G1 X249.784 S61
S0
G1 X249.911 S55
S0
G1 X250.038 S54
S0
G0 Y37.211
G0 X250.038 S0
G1 X249.911 S54
S0
G1 X249.784 S56
S0
G1 X249.657 S59
S0
G1 X249.530 S55
S0
G1 X249.276 S59
S0
G1 X249.149 S55
S0
G1 X249.022 S51
S0
G1 X248.768 S52
S0
G1 X248.641 S56
S0
G1 X248.514 S58
S0
G1 X248.387 S60
S0
G1 X248.260 S57
S0
G1 X248.133 S53
S0
G1 X248.006 S52
S0
G1 X247.879 S57
S0
G1 X247.752 S56
S0
G1 X247.625 S64
S0
G1 X247.498 S60
S0
G1 X247.371 S55
S0
G1 X247.244 S51
S0
G1 X247.117 S47
S0
G1 X246.990 S43
S0
G1 X246.863 S51
S0
G1 X246.736 S59
S0
G1 X246.609 S54
S0
G1 X246.482 S50
S0
G1 X246.355 S59
S0
G1 X246.228 S56
S0
G1 X246.101 S46
S0
G1 X245.974 S56
S0
G1 X245.847 S63
S0
G1 X245.720 S50
S0
G1 X245.593 S47
S0
G1 X245.466 S63
S0
G1 X245.212 S87
S0
G1 X245.085 S86
S0
G1 X244.958 S79
S0
G1 X244.831 S72
S0
G1 X244.704 S74
S0
G1 X244.577 S80
S0
G1 X244.450 S63
S0
G1 X244.323 S59
S0
G1 X244.196 S55
S0
G1 X244.069 S51
S0
G1 X243.815 S50
S0
G1 X243.688 S47
S0
G1 X243.561 S53
S0
G1 X243.434 S51
S0
G1 X243.180 S53
S0
G1 X243.053 S48
S0
G1 X242.926 S47
S0
G1 X242.672 S43
S0
G1 X242.545 S51
S0
G1 X242.418 S43
S0
G1 X242.291 S47
S0
G1 X242.164 S43
S0
G1 X241.910 S40
S0
G1 X241.529 S44
S0
G1 X241.275 S42
S0
G1 X241.148 S40
S0
G1 X241.021 S35
S0
G1 X240.767 S36
S0
G1 X240.640 S40
S0
G1 X240.513 S44
S0
G1 X240.132 S40
S0
G1 X240.005 S44
S0
G1 X239.878 S43
S0
G1 X239.751 S47
S0
G1 X239.624 S39
S0
G1 X239.497 S47
S0
G1 X239.370 S50
S0
G1 X239.243 S51
S0
G1 X239.116 S88
S0
G1 X238.989 S169
S0
G1 X238.862 S138
S0
G1 X238.735 S126
S0
G1 X238.608 S118
S0
G1 X238.481 S59
S0
G1 X238.354 S96
S0
G1 X238.227 S86
S0
G1 X238.100 S63
S0
G1 X237.973 S35
S0
G1 X237.846 S28
S0
G1 X237.719 S31
S0
G1 X237.592 S36
S0
G1 X237.465 S35
S0
G1 X237.211 S31
S0
G1 X237.084 S35
S0
G1 X236.703 S27
S0
G1 X236.576 S35
S0
G1 X236.322 S27
S0
G1 X236.195 S39
S0
G1 X236.068 S38
S0
G1 X235.941 S44
S0
G1 X235.814 S51
S0
G1 X235.687 S42
S0
G1 X235.560 S43
S0
G1 X235.433 S62
S0
G1 X235.306 S49
S0
G1 X235.179 S43
S0
G1 X235.052 S53
S0
G1 X234.925 S57
S0
G1 X234.798 S48
S0
G1 X234.671 S39
S0
G1 X234.544 S60
S0
G1 X234.417 S42
S0
G1 X234.290 S38
S0
G1 X234.036 S35
S0
G1 X233.909 S42
S0
G1 X233.782 S46
S0
G1 X233.655 S39
S0
G1 X233.528 S36
S0
G1 X233.401 S54
S0
G1 X233.274 S60
S0
G1 X233.147 S46
S0
G1 X233.020 S44
S0
G1 X232.893 S47
S0
G1 X232.766 S51
S0
G1 X232.639 S52
S0
G1 X232.512 S38
S0
G1 X232.131 S50
S0
G1 X231.877 S44
S0
G1 X231.750 S53
S0
G1 X231.623 S60
S0
G1 X231.496 S59
S0
G1 X231.369 S56
S0
G1 X231.242 S45
S0
G1 X231.115 S47
S0
G1 X230.988 S51
S0
G1 X230.861 S59
S0
G1 X230.734 S43
S0
G1 X230.607 S55
S0
G1 X230.480 S52
S0
G1 X230.353 S46
S0
G1 X230.226 S50
S0
G1 X230.099 S59
S0
G1 X229.972 S44
S0
G1 X229.845 S47
S0
G1 X229.718 S51
S0
G1 X229.591 S45
S0
G1 X229.464 S51
S0
G1 X229.337 S53
S0
G1 X229.210 S52
S0
G1 X229.083 S43
S0
G1 X228.956 S48
S0
G1 X228.829 S50
S0
G1 X228.702 S60
S0
G1 X228.575 S57
S0
G1 X228.448 S49
S0
G1 X228.321 S45
S0
G1 X228.194 S39
S0
G1 X228.067 S53
S0
G1 X227.940 S56
S0
G1 X227.686 S57
S0
G1 X227.559 S56
S0
G1 X227.432 S57
S0
G1 X227.305 S54
S0
G1 X227.178 S66
S0
G1 X227.051 S67
S0
G1 X226.924 S63
S0
G1 X226.797 S95
S0
G1 X226.670 S131
S0
G1 X226.543 S90
S0
G1 X226.416 S43
S0
G1 X226.162 S35
S0
G1 X226.035 S32
S0
G1 X225.908 S36
S0
G1 X225.781 S49
S0
G1 X225.654 S31
S0
G1 X225.527 S32
S0
G1 X225.400 S56
S0
G1 X225.273 S44
S0
G1 X225.146 S48
S0
G1 X225.019 S40
S0
G1 X224.765 S55
S0
G1 X224.638 S51
S0
G1 X224.511 S47
S0
G1 X224.384 S51
S0
G1 X224.257 S56
S0
G1 X224.130 S47
S0
G1 X224.003 S54
S0
G1 X223.876 S51
S0
G1 X223.749 S44
S0
G1 X223.622 S56
S0
G1 X223.495 S52
S0
G1 X223.368 S44
S0
G1 X223.241 S50
S0
G1 X223.114 S63
S0
G1 X222.987 S59
S0
G1 X222.860 S58
S0
G1 X222.733 S63
S0
G1 X222.606 S60
S0
G1 X222.479 S48
S0
G1 X222.352 S40
S0
G1 X222.225 S51
S0
G1 X222.098 S43
S0
G1 X221.971 S48
S0
G1 X221.844 S134
S0
G1 X221.717 S161
S0
G1 X221.590 S78
S0
G1 X221.463 S52
S0
G1 X221.336 S65
S0
G1 X221.082 S51
S0
G1 X220.955 S52
S0
G1 X220.828 S55
S0
G1 X220.701 S59
S0
G1 X220.574 S56
S0
G1 X220.447 S44
S0
G1 X220.320 S56
S0
G1 X220.193 S60
S0
G1 X220.066 S47
S0
G1 X219.939 S56
S0
G1 X219.812 S63
S0
G1 X219.685 S50
S0
G1 X219.431 S52
S0
G1 X219.177 S48
S0
G1 X219.050 S63
S0
G1 X218.923 S51
S0
G1 X218.796 S59
S0
G1 X218.669 S51
S0
G1 X218.542 S60
S0
G1 X218.415 S67
S0
G1 X218.288 S56
S0
G1 X218.161 S60
S0
G1 X218.034 S67
S0
G1 X217.907 S74
S0
G1 X217.780 S47
S0
G1 X217.653 S72
S0
G1 X217.526 S63
S0
G1 X217.399 S59
S0
G1 X217.272 S71
S0
G1 X217.145 S63
S0
G1 X217.018 S48
S0
G1 X216.891 S67
S0
G1 X216.764 S57
S0
G1 X216.637 S53
S0
G1 X216.510 S63
S0
G1 X216.383 S56
S0
G1 X216.256 S51
S0
G1 X216.129 S74
S0
G1 X216.002 S63
S0
G1 X215.875 S55
S0
G1 X215.748 S75
S0
G1 X215.621 S63
S0
G1 X215.494 S56
S0
G1 X215.367 S63
S0
G1 X215.240 S48
S0
G1 X215.113 S47
S0
G1 X214.986 S43
S0
G1 X214.859 S50
S0
G1 X214.732 S48
S0
G1 X214.605 S50
S0
G1 X214.478 S55
S0
G1 X214.351 S50
S0
G1 X214.224 S44
S0
G1 X214.097 S51
S0
G1 X213.970 S48
S0
G1 X213.843 S51
S0
G1 X213.589 S46
S0
G1 X213.208 S54
S0
G1 X213.081 S39
S0
G1 X212.954 S47
S0
G1 X212.827 S56
S0
G1 X212.700 S52
S0
G1 X212.573 S53
S0
G1 X212.446 S61
S0
G1 X212.065 S63
S0
G1 X211.938 S59
S0
G1 X211.811 S76
S0
G1 X211.684 S91
S0
G1 X211.557 S107
S0
G1 X211.430 S154
S0
G1 X211.303 S193
S0
G1 X211.176 S209
S0
G1 X211.049 S231
S0
G1 X210.922 S216
S0
G1 X210.795 S231
S0
G1 X210.668 S192
S0
G1 X210.541 S148
S0
G1 X210.414 S94
S0
G1 X210.287 S50
S0
G1 X210.160 S63
S0
G1 X210.033 S67
S0
G1 X209.906 S70
S0
G1 X209.779 S64
S0
G1 X209.652 S62
S0
G1 X209.525 S57
S0
G1 X209.398 S52
S0
G1 X209.271 S58
S0
G1 X209.144 S45
S0
G1 X209.017 S51
S0
G1 X208.890 S56
S0
G1 X208.763 S57
S0
G1 X208.509 S52
S0
G1 X208.382 S51
S0
G1 X208.255 S57
S0
G1 X208.128 S60
S0
G1 X208.001 S56
S0
G1 X207.874 S63
S0
G1 X207.747 S56
S0
G1 X207.620 S57
S0
G1 X207.493 S68
S0
G1 X207.239 S63
S0
G1 X206.858 S59
S0
G1 X206.731 S60
S0
G1 X206.604 S68
S0
G1 X206.477 S67
S0
G1 X206.350 S63
S0
G1 X206.096 S59
S0
G1 X205.969 S60
S0
G1 X205.842 S59
S0
G1 X205.715 S55
S0
G1 X205.588 S52
S0
G1 X205.461 S56
S0
G1 X205.334 S63
S0
G1 X205.207 S58
S0
G1 X205.080 S61
S0
G1 X204.953 S63
S0
G1 X204.699 S66
S0
G1 X204.572 S67
S0
G1 X204.445 S65
S0
G1 X204.318 S71
S0
G1 X204.191 S76
S0
G1 X204.064 S72
S0
G1 X203.810 S71
S0
G1 X203.556 S76
S0
G1 X203.429 S75
S0
G1 X203.302 S78
S0
G1 X203.175 S74
S0
G1 X203.048 S83
S0
G1 X202.921 S90
S0
G1 X202.794 S79
S0
G1 X202.667 S82
S0
G1 X202.540 S86
S0
G1 X202.413 S90
S0
G1 X202.159 S82
S0
G1 X202.032 S78
S0
G1 X201.905 S84
S0
G1 X201.778 S86
S0
G1 X201.651 S80
S0
G1 X201.524 S78
S0
G1 X201.397 S87
S0
G1 X201.143 S90
S0
G1 X201.016 S94
S0
G1 X200.889 S103
S0
G1 X200.635 S92
S0
G1 X200.508 S100
S0
G1 X200.381 S107
S0
G1 X200.254 S103
S0
G1 X200.000 S104
S0
G0 Y37.084
G0 X200.000 S0
G1 X200.127 S96
S0
G1 X200.254 S102
S0
G1 X200.381 S106
S0
G1 X200.508 S100
S0
G1 X200.635 S92
S0
G1 X200.762 S94
S0
G1 X200.889 S96
S0
G1 X201.016 S91
S0
G1 X201.143 S90
S0
G1 X201.270 S86
S0
G1 X201.397 S91
S0
G1 X201.524 S86
S0
G1 X201.651 S82
S0
G1 X202.032 S78
S0
G1 X202.159 S74
S0
G1 X202.286 S87
S0
G1 X202.413 S91
S0
G1 X202.540 S86
S0
G1 X202.667 S82
S0
G1 X202.794 S84
S0
G1 X202.921 S78
S0
G1 X203.175 S79
S0
G1 X203.302 S70
S0
G1 X203.429 S78
S0
G1 X203.556 S88
S0
G1 X203.683 S80
S0
G1 X203.810 S72
S0
G1 X203.937 S71
S0
G1 X204.064 S79
S0
G1 X204.191 S74
S0
G1 X204.318 S67
S0
G1 X204.445 S75
S0
G1 X204.572 S70
S0
G1 X204.699 S63
S0
G1 X204.826 S67
S0
G1 X204.953 S71
S0
G1 X205.080 S63
S0
G1 X205.207 S59
S0
G1 X205.461 S67
S0
G1 X205.715 S63
S0
G1 X205.842 S65
S0
G1 X205.969 S61
S0
G1 X206.096 S55
S0
G1 X206.223 S67
S0
G1 X206.477 S63
S0
G1 X206.604 S58
S0
G1 X206.731 S63
S0
G1 X206.985 S59
S0
G1 X207.239 S67
S0
G1 X207.366 S60
S0
G1 X207.493 S56
S0
G1 X207.620 S63
S0
G1 X207.747 S55
S0
G1 X208.001 S60
S0
G1 X208.128 S46
S0
G1 X208.255 S60
S0
G1 X208.509 S59
S0
G1 X208.636 S53
S0
G1 X208.763 S52
S0
G1 X209.017 S60
S0
G1 X209.144 S55
S0
G1 X209.271 S60
S0
G1 X209.398 S55
S0
G1 X209.525 S58
S0
G1 X209.652 S59
S0
G1 X209.779 S70
S0
G1 X209.906 S79
S0
G1 X210.033 S71
S0
G1 X210.160 S82
S0
G1 X210.287 S94
S0
G1 X210.414 S196
S0
G1 X210.541 S294
S0
G1 X210.668 S267
S0
G1 X210.795 S260
S0
G1 X210.922 S229
S0
G1 X211.049 S193
S0
G1 X211.176 S153
S0
G1 X211.303 S118
S0
G1 X211.430 S95
S0
G1 X211.557 S84
S0
G1 X211.684 S63
S0
G1 X211.811 S55
S0
G1 X211.938 S63
S0
G1 X212.065 S65
S0
G1 X212.192 S52
S0
G1 X212.446 S55
S0
G1 X212.573 S51
S0
G1 X212.700 S52
S0
G1 X212.827 S50
S0
G1 X212.954 S46
S0
G1 X213.081 S44
S0
G1 X213.208 S47
S0
G1 X213.335 S43
S0
G1 X213.462 S44
S0
G1 X213.589 S47
S0
G1 X213.716 S43
S0
G1 X213.843 S47
S0
G1 X213.970 S48
S0
G1 X214.097 S47
S0
G1 X214.224 S51
S0
G1 X214.351 S52
S0
G1 X214.478 S55
S0
G1 X214.605 S58
S0
G1 X214.732 S63
S0
G1 X214.986 S55
S0
G1 X215.113 S52
S0
G1 X215.240 S47
S0
G1 X215.367 S53
S0
G1 X215.494 S64
S0
G1 X215.621 S65
S0
G1 X215.748 S55
S0
G1 X215.875 S75
S0
G1 X216.002 S67
S0
G1 X216.129 S53
S0
G1 X216.383 S71
S0
G1 X216.510 S51
S0
G1 X216.637 S63
S0
G1 X216.764 S67
S0
G1 X216.891 S45
S0
G1 X217.018 S59
S0
G1 X217.145 S67
S0
G1 X217.272 S53
S0
G1 X217.399 S60
S0
G1 X217.526 S70
S0
G1 X217.653 S59
S0
G1 X217.780 S76
S0
G1 X217.907 S67
S0
G1 X218.034 S63
S0
G1 X218.161 S75
S0
G1 X218.415 S56
S0
G1 X218.542 S64
S0
G1 X218.669 S80
S0
G1 X218.796 S72
S0
G1 X218.923 S52
S0
G1 X219.050 S51
S0
G1 X219.177 S60
S0
G1 X219.304 S54
S0
G1 X219.431 S52
S0
G1 X219.558 S48
S0
G1 X219.685 S60
S0
G1 X219.812 S67
S0
G1 X219.939 S63
S0
G1 X220.066 S60
S0
G1 X220.193 S56
S0
G1 X220.320 S52
S0
G1 X220.447 S64
S0
G1 X220.701 S52
S0
G1 X220.828 S67
S0
G1 X220.955 S47
S0
G1 X221.082 S57
S0
G1 X221.209 S61
S0
G1 X221.336 S43
S0
G1 X221.463 S53
S0
G1 X221.590 S126
S0
G1 X221.717 S174
S0
G1 X221.844 S115
S0
G1 X221.971 S53
S0
G1 X222.098 S51
S0
G1 X222.225 S59
S0
G1 X222.352 S55
S0
G1 X222.479 S56
S0
G1 X222.606 S60
S0
G1 X222.733 S56
S0
G1 X222.860 S51
S0
G1 X223.114 S55
S0
G1 X223.368 S56
S0
G1 X223.495 S63
S0
G1 X223.622 S56
S0
G1 X223.749 S47
S0
G1 X223.876 S44
S0
G1 X224.003 S47
S0
G1 X224.257 S51
S0
G1 X224.384 S56
S0
G1 X224.511 S47
S0
G1 X224.638 S51
S0
G1 X224.765 S49
S0
G1 X224.892 S55
S0
G1 X225.019 S51
S0
G1 X225.273 S59
S0
G1 X225.400 S51
S0
G1 X225.527 S44
S0
G1 X225.654 S48
S0
G1 X225.781 S35
S0
G1 X225.908 S41
S0
G1 X226.035 S36
S0
G1 X226.162 S37
S0
G1 X226.289 S33
S0
G1 X226.416 S35
S0
G1 X226.543 S28
S0
G1 X226.670 S43
S0
G1 X226.797 S95
S0
G1 X226.924 S119
S0
G1 X227.051 S80
S0
G1 X227.178 S71
S0
G1 X227.305 S63
S0
G1 X227.432 S55
S0
G1 X227.559 S67
S0
G1 X227.686 S56
S0
G1 X227.813 S49
S0
G1 X227.940 S47
S0
G1 X228.067 S48
S0
G1 X228.194 S46
S0
G1 X228.321 S47
S0
G1 X228.448 S48
S0
G1 X228.575 S49
S0
G1 X228.702 S46
S0
G1 X228.829 S51
S0
G1 X228.956 S48
S0
G1 X229.210 S43
S0
G1 X229.337 S40
S0
G1 X229.464 S47
S0
G1 X229.591 S60
S0
G1 X229.718 S52
S0
G1 X229.845 S49
S0
G1 X230.099 S48
S0
G1 X230.226 S59
S0
G1 X230.353 S66
S0
G1 X230.480 S59
S0
G1 X230.607 S48
S0
G1 X230.734 S51
S0
G1 X230.861 S47
S0
G1 X230.988 S63
S0
G1 X231.115 S43
S0
G1 X231.242 S55
S0
G1 X231.369 S61
S0
G1 X231.496 S48
S0
G1 X231.623 S55
S0
G1 X231.750 S60
S0
G1 X231.877 S65
S0
G1 X232.004 S59
S0
G1 X232.131 S55
S0
G1 X232.258 S60
S0
G1 X232.385 S62
S0
G1 X232.512 S54
S0
G1 X232.639 S43
S0
G1 X232.766 S36
S0
G1 X232.893 S27
S0
G1 X233.020 S51
S0
G1 X233.147 S59
S0
G1 X233.274 S51
S0
G1 X233.401 S43
S0
G1 X233.655 S55
S0
G1 X233.782 S52
S0
G1 X234.036 S46
S0
G1 X234.163 S48
S0
G1 X234.290 S51
S0
G1 X234.544 S55
S0
G1 X234.671 S43
S0
G1 X234.798 S48
S0
G1 X234.925 S44
S0
G1 X235.052 S53
S0
G1 X235.179 S52
S0
G1 X235.306 S39
S0
G1 X235.433 S43
S0
G1 X235.560 S46
S0
G1 X235.687 S64
S0
G1 X235.814 S43
S0
G1 X235.941 S40
S0
G1 X236.068 S52
S0
G1 X236.195 S44
S0
G1 X236.322 S35
S0
G1 X236.449 S32
S0
G1 X236.576 S31
S0
G1 X236.703 S38
S0
G1 X236.830 S31
S0
G1 X236.957 S27
S0
G1 X237.084 S23
S0
G1 X237.338 S27
S0
G1 X237.465 S31
S0
G1 X237.592 S35
S0
G1 X237.719 S28
S0
G1 X237.846 S31
S0
G1 X237.973 S29
S0
G1 X238.100 S39
S0
G1 X238.227 S49
S0
G1 X238.354 S76
S0
G1 X238.481 S98
S0
G1 X238.608 S115
S0
G1 X238.735 S75
S0
G1 X238.862 S64
S0
G1 X238.989 S126
S0
G1 X239.116 S92
S0
G1 X239.243 S36
S0
G1 X239.370 S46
S0
G1 X239.497 S52
S0
G1 X239.624 S46
S0
G1 X239.751 S43
S0
G1 X239.878 S50
S0
G1 X240.005 S47
S0
G1 X240.259 S42
S0
G1 X240.386 S40
S0
G1 X240.513 S36
S0
G1 X240.640 S48
S0
G1 X240.767 S44
S0
G1 X240.894 S32
S0
G1 X241.021 S36
S0
G1 X241.148 S32
S0
G1 X241.275 S36
S0
G1 X241.529 S42
S0
G1 X242.037 S44
S0
G1 X242.164 S40
S0
G1 X242.291 S44
S0
G1 X242.545 S43
S0
G1 X242.672 S48
S0
G1 X242.799 S39
S0
G1 X242.926 S43
S0
G1 X243.053 S47
S0
G1 X243.180 S43
S0
G1 X243.434 S44
S0
G1 X243.688 S48
S0
G1 X243.815 S52
S0
G1 X243.942 S48
S0
G1 X244.069 S44
S0
G1 X244.196 S47
S0
G1 X244.323 S59
S0
G1 X244.450 S60
S0
G1 X244.577 S63
S0
G1 X244.704 S70
S0
G1 X244.831 S80
S0
G1 X244.958 S86
S0
G1 X245.085 S90
S0
G1 X245.212 S86
S0
G1 X245.466 S80
S0
G1 X245.593 S63
S0
G1 X245.720 S59
S0
G1 X245.847 S55
S0
G1 X245.974 S60
S0
G1 X246.101 S56
S0
G1 X246.228 S53
S0
G1 X246.355 S52
S0
G1 X246.609 S54
S0
G1 X246.736 S59
S0
G1 X246.863 S63
S0
G1 X246.990 S51
S0
G1 X247.117 S39
S0
G1 X247.371 S47
S0
G1 X247.498 S51
S0
G1 X247.625 S56
S0
G1 X247.752 S63
S0
G1 X248.006 S56
S0
G1 X248.133 S60
S0
G1 X248.260 S59
S0
G1 X248.387 S55
S0
G1 X248.768 S56
S0
G1 X248.895 S52
S0
G1 X249.149 S60
S0
G1 X249.276 S51
S0
G1 X249.403 S55
S0
G1 X249.530 S59
S0
G1 X249.657 S51
S0
G1 X249.784 S47
S0
G1 X249.911 S56
S0
G1 X250.038 S58
S0
G0 Y36.957
G0 X250.038 S0
G1 X249.911 S55
S0
G1 X249.784 S51
S0
G1 X249.657 S54
S0
G1 X249.530 S51
S0
G1 X249.403 S55
S0
G1 X249.276 S63
S0
G1 X249.149 S60
S0
G1 X249.022 S58
S0
G1 X248.641 S62
S0
G1 X248.387 S55
S0
G1 X248.260 S56
S0
G1 X248.133 S54
S0
G1 X248.006 S55
S0
G1 X247.879 S51
S0
G1 X247.752 S54
S0
G1 X247.625 S56
S0
G1 X247.498 S51
S0
G1 X247.371 S55
S0
G1 X247.244 S51
S0
G1 X246.990 S55
S0
G1 X246.863 S53
S0
G1 X246.736 S61
S0
G1 X246.609 S55
S0
G1 X246.482 S57
S0
G1 X246.355 S51
S0
G1 X246.228 S52
S0
G1 X246.101 S60
S0
G1 X245.847 S48
S0
G1 X245.720 S60
S0
G1 X245.593 S55
S0
G1 X245.466 S56
S0
G1 X245.212 S63
S0
G1 X245.085 S72
S0
G1 X244.958 S80
S0
G1 X244.831 S87
S0
G1 X244.704 S71
S0
G1 X244.577 S64
S0
G1 X244.323 S67
S0
G1 X244.196 S71
S0
G1 X244.069 S52
S0
G1 X243.942 S45
S0
G1 X243.815 S53
S0
G1 X243.688 S60
S0
G1 X243.561 S54
S0
G1 X243.434 S52
S0
G1 X243.307 S44
S0
G1 X243.180 S43
S0
G1 X243.053 S46
S0
G1 X242.926 S47
S0
G1 X242.799 S43
S0
G1 X242.672 S40
S0
G1 X242.545 S48
S0
G1 X241.529 S44
S0
G1 X241.275 S42
S0
G1 X241.021 S36
S0
G1 X240.640 S40
S0
G1 X240.513 S44
S0
G1 X240.386 S36
S0
G1 X240.259 S45
S0
G1 X240.132 S49
S0
G1 X240.005 S35
S0
G1 X239.878 S44
S0
G1 X239.624 S47
S0
G1 X239.497 S46
S0
G1 X239.370 S44
S0
G1 X239.243 S43
S0
G1 X239.116 S39
S0
G1 X238.989 S33
S0
G1 X238.862 S94
S0
G1 X238.735 S76
S0
G1 X238.608 S90
S0
G1 X238.481 S131
S0
G1 X238.354 S83
S0
G1 X238.227 S60
S0
G1 X238.100 S33
S0
G1 X237.973 S36
S0
G1 X237.846 S37
S0
G1 X237.719 S38
S0
G1 X237.592 S32
S0
G1 X237.465 S23
S0
G1 X237.084 S31
S0
G1 X236.830 S27
S0
G1 X236.703 S31
S0
G1 X236.576 S35
S0
G1 X236.449 S38
S0
G1 X236.195 S39
S0
G1 X236.068 S43
S0
G1 X235.941 S40
S0
G1 X235.814 S47
S0
G1 X235.687 S59
S0
G1 X235.560 S45
S0
G1 X235.433 S39
S0
G1 X235.306 S44
S0
G1 X235.179 S48
S0
G1 X234.925 S40
S0
G1 X234.798 S48
S0
G1 X234.671 S40
S0
G1 X234.544 S44
S0
G1 X234.417 S52
S0
G1 X234.290 S54
S0
G1 X234.163 S55
S0
G1 X234.036 S48
S0
G1 X233.909 S40
S0
G1 X233.782 S47
S0
G1 X233.655 S56
S0
G1 X233.528 S44
S0
G1 X233.274 S35
S0
G1 X233.147 S52
S0
G1 X233.020 S55
S0
G1 X232.893 S50
S0
G1 X232.639 S43
S0
G1 X232.512 S53
S0
G1 X232.385 S54
S0
G1 X232.258 S67
S0
G1 X232.131 S62
S0
G1 X232.004 S65
S0
G1 X231.877 S59
S0
G1 X231.750 S53
S0
G1 X231.623 S45
S0
G1 X231.496 S49
S0
G1 X231.369 S53
S0
G1 X231.242 S56
S0
G1 X230.988 S59
S0
G1 X230.734 S55
S0
G1 X230.607 S59
S0
G1 X230.480 S55
S0
G1 X230.353 S67
S0
G1 X230.226 S59
S0
G1 X230.099 S44
S0
G1 X229.972 S47
S0
G1 X229.845 S57
S0
G1 X229.718 S53
S0
G1 X229.591 S50
S0
G1 X229.464 S40
S0
G1 X229.337 S35
S0
G1 X229.210 S40
S0
G1 X229.083 S56
S0
G1 X228.956 S48
S0
G1 X228.829 S43
S0
G1 X228.702 S44
S0
G1 X228.575 S38
S0
G1 X228.448 S50
S0
G1 X228.321 S54
S0
G1 X227.940 S56
S0
G1 X227.813 S55
S0
G1 X227.686 S60
S0
G1 X227.559 S63
S0
G1 X227.432 S55
S0
G1 X227.305 S70
S0
G1 X227.178 S67
S0
G1 X227.051 S87
S0
G1 X226.924 S142
S0
G1 X226.797 S102
S0
G1 X226.670 S49
S0
G1 X226.543 S29
S0
G1 X226.416 S32
S0
G1 X226.289 S24
S0
G1 X226.162 S31
S0
G1 X226.035 S41
S0
G1 X225.908 S36
S0
G1 X225.781 S35
S0
G1 X225.654 S39
S0
G1 X225.527 S48
S0
G1 X225.400 S52
S0
G1 X225.273 S55
S0
G1 X225.146 S67
S0
G1 X225.019 S55
S0
G1 X224.892 S43
S0
G1 X224.765 S51
S0
G1 X224.638 S55
S0
G1 X224.384 S51
S0
G1 X224.257 S52
S0
G1 X224.130 S48
S0
G1 X224.003 S49
S0
G1 X223.876 S53
S0
G1 X223.749 S55
S0
G1 X223.622 S57
S0
G1 X223.495 S51
S0
G1 X223.368 S60
S0
G1 X223.241 S57
S0
G1 X223.114 S63
S0
G1 X222.987 S65
S0
G1 X222.860 S51
S0
G1 X222.733 S47
S0
G1 X222.606 S55
S0
G1 X222.479 S63
S0
G1 X222.225 S56
S0
G1 X222.098 S59
S0
G1 X221.971 S57
S0
G1 X221.844 S59
S0
G1 X221.717 S45
S0
G1 X221.590 S87
S0
G1 X221.463 S161
S0
G1 X221.336 S143
S0
G1 X221.209 S70
S0
G1 X221.082 S57
S0
G1 X220.955 S59
S0
G1 X220.828 S61
S0
G1 X220.701 S57
S0
G1 X220.574 S53
S0
G1 X220.447 S72
S0
G1 X220.193 S57
S0
G1 X220.066 S67
S0
G1 X219.939 S59
S0
G1 X219.812 S68
S0
G1 X219.685 S67
S0
G1 X219.558 S57
S0
G1 X219.431 S53
S0
G1 X219.050 S60
S0
G1 X218.923 S52
S0
G1 X218.796 S64
S0
G1 X218.669 S86
S0
G1 X218.542 S71
S0
G1 X218.415 S64
S0
G1 X218.288 S59
S0
G1 X218.161 S64
S0
G1 X218.034 S63
S0
G1 X217.907 S56
S0
G1 X217.780 S63
S0
G1 X217.653 S55
S0
G1 X217.526 S67
S0
G1 X217.399 S60
S0
G1 X217.272 S49
S0
G1 X217.145 S60
S0
G1 X217.018 S68
S0
G1 X216.891 S52
S0
G1 X216.764 S65
S0
G1 X216.637 S59
S0
G1 X216.510 S56
S0
G1 X216.256 S71
S0
G1 X216.129 S60
S0
G1 X216.002 S67
S0
G1 X215.875 S76
S0
G1 X215.748 S67
S0
G1 X215.494 S63
S0
G1 X215.367 S60
S0
G1 X215.240 S67
S0
G1 X215.113 S52
S0
G1 X214.859 S68
S0
G1 X214.732 S64
S0
G1 X214.605 S59
S0
G1 X214.478 S50
S0
G1 X214.351 S64
S0
G1 X214.224 S66
S0
G1 X214.097 S52
S0
G1 X213.970 S54
S0
G1 X213.843 S44
S0
G1 X213.716 S51
S0
G1 X213.589 S43
S0
G1 X213.462 S47
S0
G1 X213.335 S48
S0
G1 X213.208 S38
S0
G1 X213.081 S44
S0
G1 X212.954 S51
S0
G1 X212.827 S47
S0
G1 X212.700 S50
S0
G1 X212.573 S56
S0
G1 X212.446 S49
S0
G1 X212.319 S57
S0
G1 X212.192 S56
S0
G1 X212.065 S57
S0
G1 X211.938 S60
S0
G1 X211.811 S59
S0
G1 X211.684 S60
S0
G1 X211.557 S56
S0
G1 X211.430 S51
S0
G1 X211.303 S43
S0
G1 X211.176 S60
S0
G1 X211.049 S70
S0
G1 X210.922 S87
S0
G1 X210.795 S94
S0
G1 X210.668 S125
S0
G1 X210.541 S149
S0
G1 X210.414 S227
S0
G1 X210.287 S298
S0
G1 X210.160 S258
S0
G1 X210.033 S169
S0
G1 X209.906 S87
S0
G1 X209.779 S67
S0
G1 X209.652 S70
S0
G1 X209.525 S63
S0
G1 X209.398 S60
S0
G1 X209.144 S63
S0
G1 X209.017 S51
S0
G1 X208.763 S56
S0
G1 X208.636 S52
S0
G1 X208.509 S53
S0
G1 X208.382 S56
S0
G1 X208.255 S55
S0
G1 X208.128 S60
S0
G1 X208.001 S55
S0
G1 X207.874 S58
S0
G1 X207.747 S63
S0
G1 X207.620 S53
S0
G1 X207.493 S61
S0
G1 X207.366 S56
S0
G1 X207.239 S64
S0
G1 X207.112 S63
S0
G1 X206.985 S70
S0
G1 X206.731 S61
S0
G1 X206.604 S59
S0
G1 X206.477 S52
S0
G1 X206.350 S57
S0
G1 X206.096 S63
S0
G1 X205.969 S68
S0
G1 X205.842 S61
S0
G1 X205.715 S63
S0
G1 X205.461 S67
S0
G1 X205.334 S66
S0
G1 X205.207 S63
S0
G1 X205.080 S57
S0
G1 X204.953 S63
S0
G1 X204.826 S71
S0
G1 X204.699 S60
S0
G1 X204.572 S64
S0
G1 X204.445 S80
S0
G1 X204.318 S75
S0
G1 X204.191 S64
S0
G1 X204.064 S70
S0
G1 X203.937 S80
S0
G1 X203.810 S79
S0
G1 X203.683 S67
S0
G1 X203.556 S63
S0
G1 X203.429 S75
S0
G1 X203.302 S78
S0
G1 X203.175 S74
S0
G1 X202.921 S86
S0
G1 X202.794 S82
S0
G1 X202.667 S90
S0
G1 X202.540 S82
S0
G1 X202.413 S87
S0
G1 X202.286 S91
S0
G1 X202.159 S79
S0
G1 X202.032 S83
S0
G1 X201.905 S80
S0
G1 X201.778 S82
S0
G1 X201.651 S94
S0
G1 X201.524 S95
S0
G1 X201.397 S84
S0
G1 X201.270 S79
S0
G1 X201.143 S82
S0
G1 X201.016 S88
S0
G1 X200.889 S90
S0
G1 X200.762 S98
S0
G1 X200.508 S100
S0
G1 X200.381 S103
S0
G1 X200.254 S104
S0
G1 X200.127 S111
S0
G1 X200.000 S108
S0
G0 Y36.830
G0 X200.000 S0
G1 X200.127 S115
S0
G1 X200.254 S111
S0
G1 X200.381 S104
S0
G1 X200.508 S111
S0
G1 X200.635 S112
S0
G1 X200.762 S104
S0
G1 X200.889 S100
S0
G1 X201.016 S102
S0
G1 X201.143 S100
S0
G1 X201.270 S98
S0
G1 X201.397 S95
S0
G1 X201.524 S92
S0
G1 X201.651 S91
S0
G1 X201.778 S90
S0
G1 X201.905 S82
S0
G1 X202.032 S76
S0
G1 X202.159 S87
S0
G1 X202.286 S80
S0
G1 X202.540 S84
S0
G1 X202.667 S83
S0
G1 X202.794 S86
S0
G1 X202.921 S78
S0
G1 X203.048 S74
S0
G1 X203.175 S78
S0
G1 X203.302 S74
S0
G1 X203.429 S78
S0
G1 X203.556 S79
S0
G1 X203.810 S75
S0
G1 X203.937 S79
S0
G1 X204.064 S71
S0
G1 X204.191 S70
S0
G1 X204.318 S67
S0
G1 X204.445 S64
S0
G1 X204.572 S71
S0
G1 X204.699 S75
S0
G1 X204.826 S63
S0
G1 X205.080 S71
S0
G1 X205.207 S68
S0
G1 X205.334 S67
S0
G1 X205.461 S63
S0
G1 X205.715 S67
S0
G1 X205.969 S63
S0
G1 X206.096 S67
S0
G1 X206.604 S60
S0
G1 X206.731 S63
S0
G1 X206.985 S65
S0
G1 X207.112 S68
S0
G1 X207.239 S56
S0
G1 X207.366 S64
S0
G1 X207.493 S60
S0
G1 X207.620 S61
S0
G1 X207.747 S57
S0
G1 X207.874 S67
S0
G1 X208.001 S62
S0
G1 X208.128 S59
S0
G1 X208.255 S68
S0
G1 X208.382 S60
S0
G1 X208.509 S56
S0
G1 X208.636 S57
S0
G1 X208.763 S51
S0
G1 X208.890 S55
S0
G1 X209.017 S63
S0
G1 X209.144 S55
S0
G1 X209.271 S63
S0
G1 X209.398 S59
S0
G1 X209.525 S60
S0
G1 X209.652 S56
S0
G1 X209.779 S59
S0
G1 X209.906 S81
S0
G1 X210.033 S169
S0
G1 X210.160 S211
S0
G1 X210.287 S190
S0
G1 X210.414 S118
S0
G1 X210.541 S71
S0
G1 X210.668 S78
S0
G1 X210.795 S72
S0
G1 X210.922 S67
S0
G1 X211.049 S48
S0
G1 X211.176 S59
S0
G1 X211.303 S60
S0
G1 X211.811 S56
S0
G1 X211.938 S51
S0
G1 X212.065 S52
S0
G1 X212.192 S59
S0
G1 X212.319 S52
S0
G1 X212.446 S53
S0
G1 X212.573 S54
S0
G1 X212.700 S56
S0
G1 X212.827 S52
S0
G1 X213.081 S51
S0
G1 X213.208 S44
S0
G1 X213.335 S43
S0
G1 X213.462 S54
S0
G1 X213.589 S51
S0
G1 X213.716 S48
S0
G1 X213.843 S55
S0
G1 X213.970 S51
S0
G1 X214.097 S67
S0
G1 X214.224 S59
S0
G1 X214.351 S56
S0
G1 X214.478 S58
S0
G1 X214.732 S56
S0
G1 X214.859 S55
S0
G1 X214.986 S68
S0
G1 X215.113 S67
S0
G1 X215.240 S64
S0
G1 X215.367 S63
S0
G1 X215.494 S52
S0
G1 X215.621 S64
S0
G1 X215.748 S72
S0
G1 X216.002 S76
S0
G1 X216.129 S64
S0
G1 X216.256 S60
S0
G1 X216.383 S63
S0
G1 X216.510 S78
S0
G1 X216.637 S55
S0
G1 X216.764 S47
S0
G1 X216.891 S76
S0
G1 X217.018 S68
S0
G1 X217.145 S55
S0
G1 X217.272 S71
S0
G1 X217.526 S49
S0
G1 X217.653 S63
S0
G1 X217.780 S59
S0
G1 X217.907 S63
S0
G1 X218.034 S75
S0
G1 X218.288 S67
S0
G1 X218.415 S63
S0
G1 X218.669 S80
S0
G1 X218.796 S76
S0
G1 X218.923 S79
S0
G1 X219.050 S60
S0
G1 X219.177 S56
S0
G1 X219.304 S53
S0
G1 X219.431 S52
S0
G1 X219.558 S64
S0
G1 X219.685 S57
S0
G1 X219.812 S55
S0
G1 X219.939 S76
S0
G1 X220.193 S63
S0
G1 X220.320 S65
S0
G1 X220.447 S52
S0
G1 X220.574 S59
S0
G1 X220.701 S63
S0
G1 X220.828 S52
S0
G1 X220.955 S63
S0
G1 X221.082 S52
S0
G1 X221.209 S89
S0
G1 X221.336 S149
S0
G1 X221.463 S131
S0
G1 X221.590 S76
S0
G1 X221.717 S39
S0
G1 X221.844 S48
S0
G1 X221.971 S63
S0
G1 X222.098 S67
S0
G1 X222.225 S59
S0
G1 X222.352 S43
S0
G1 X222.479 S51
S0
G1 X222.606 S56
S0
G1 X222.733 S68
S0
G1 X222.860 S60
S0
G1 X222.987 S45
S0
G1 X223.114 S53
S0
G1 X223.241 S70
S0
G1 X223.368 S80
S0
G1 X223.495 S68
S0
G1 X223.622 S55
S0
G1 X223.749 S53
S0
G1 X223.876 S51
S0
G1 X224.003 S57
S0
G1 X224.130 S60
S0
G1 X224.257 S52
S0
G1 X224.384 S48
S0
G1 X224.511 S47
S0
G1 X224.638 S51
S0
G1 X224.765 S55
S0
G1 X224.892 S51
S0
G1 X225.019 S63
S0
G1 X225.146 S55
S0
G1 X225.273 S43
S0
G1 X225.400 S55
S0
G1 X225.527 S60
S0
G1 X225.654 S52
S0
G1 X225.781 S50
S0
G1 X225.908 S40
S0
G1 X226.035 S28
S0
G1 X226.162 S36
S0
G1 X226.289 S39
S0
G1 X226.543 S32
S0
G1 X226.670 S39
S0
G1 X226.797 S37
S0
G1 X226.924 S45
S0
G1 X227.051 S117
S0
G1 X227.178 S126
S0
G1 X227.305 S71
S0
G1 X227.432 S59
S0
G1 X227.559 S56
S0
G1 X227.686 S57
S0
G1 X227.940 S56
S0
G1 X228.067 S60
S0
G1 X228.194 S56
S0
G1 X228.321 S54
S0
G1 X228.448 S56
S0
G1 X228.575 S54
S0
G1 X228.702 S50
S0
G1 X228.829 S51
S0
G1 X228.956 S50
S0
G1 X229.210 S51
S0
G1 X229.337 S59
S0
G1 X229.464 S52
S0
G1 X229.591 S50
S0
G1 X229.718 S52
S0
G1 X229.845 S60
S0
G1 X229.972 S55
S0
G1 X230.099 S51
S0
G1 X230.226 S40
S0
G1 X230.353 S35
S0
G1 X230.480 S49
S0
G1 X230.734 S53
S0
G1 X230.861 S50
S0
G1 X230.988 S46
S0
G1 X231.115 S67
S0
G1 X231.242 S59
S0
G1 X231.369 S56
S0
G1 X231.496 S64
S0
G1 X231.623 S52
S0
G1 X231.750 S45
S0
G1 X231.877 S49
S0
G1 X232.004 S52
S0
G1 X232.131 S55
S0
G1 X232.258 S52
S0
G1 X232.385 S53
S0
G1 X232.512 S40
S0
G1 X232.639 S35
S0
G1 X232.766 S53
S0
G1 X232.893 S63
S0
G1 X233.020 S60
S0
G1 X233.274 S48
S0
G1 X233.528 S60
S0
G1 X233.655 S41
S0
G1 X233.782 S52
S0
G1 X234.036 S59
S0
G1 X234.163 S47
S0
G1 X234.290 S39
S0
G1 X234.417 S50
S0
G1 X234.544 S52
S0
G1 X234.671 S43
S0
G1 X234.798 S44
S0
G1 X234.925 S40
S0
G1 X235.052 S48
S0
G1 X235.179 S49
S0
G1 X235.306 S42
S0
G1 X235.433 S50
S0
G1 X235.560 S48
S0
G1 X235.687 S35
S0
G1 X235.814 S59
S0
G1 X235.941 S67
S0
G1 X236.068 S38
S0
G1 X236.195 S43
S0
G1 X236.322 S52
S0
G1 X236.449 S42
S0
G1 X236.576 S40
S0
G1 X236.703 S27
S0
G1 X236.957 S31
S0
G1 X237.084 S35
S0
G1 X237.338 S31
S0
G1 X237.465 S35
S0
G1 X237.973 S31
S0
G1 X238.100 S32
S0
G1 X238.227 S35
S0
G1 X238.354 S43
S0
G1 X238.481 S68
S0
G1 X238.608 S100
S0
G1 X238.735 S135
S0
G1 X238.862 S82
S0
G1 X238.989 S44
S0
G1 X239.116 S51
S0
G1 X239.243 S40
S0
G1 X239.370 S35
S0
G1 X239.624 S43
S0
G1 X239.751 S44
S0
G1 X239.878 S38
S0
G1 X240.005 S35
S0
G1 X240.132 S31
S0
G1 X240.386 S45
S0
G1 X240.513 S41
S0
G1 X240.640 S32
S0
G1 X240.767 S36
S0
G1 X241.021 S46
S0
G1 X241.148 S40
S0
G1 X241.275 S44
S0
G1 X241.402 S42
S0
G1 X241.529 S46
S0
G1 X241.656 S42
S0
G1 X241.910 S44
S0
G1 X242.037 S40
S0
G1 X242.545 S44
S0
G1 X242.672 S48
S0
G1 X242.926 S44
S0
G1 X243.180 S47
S0
G1 X243.434 S43
S0
G1 X243.561 S55
S0
G1 X243.688 S51
S0
G1 X243.815 S55
S0
G1 X243.942 S64
S0
G1 X244.069 S60
S0
G1 X244.196 S63
S0
G1 X244.323 S75
S0
G1 X244.450 S67
S0
G1 X244.577 S71
S0
G1 X244.704 S68
S0
G1 X244.831 S78
S0
G1 X244.958 S103
S0
G1 X245.085 S99
S0
G1 X245.212 S95
S0
G1 X245.339 S75
S0
G1 X245.466 S63
S0
G1 X245.593 S57
S0
G1 X245.720 S55
S0
G1 X245.847 S60
S0
G1 X246.101 S52
S0
G1 X246.228 S56
S0
G1 X246.355 S52
S0
G1 X246.482 S51
S0
G1 X246.609 S55
S0
G1 X246.736 S56
S0
G1 X246.990 S51
S0
G1 X247.117 S63
S0
G1 X247.244 S55
S0
G1 X247.371 S47
S0
G1 X247.498 S55
S0
G1 X247.625 S60
S0
G1 X247.752 S56
S0
G1 X247.879 S50
S0
G1 X248.006 S47
S0
G1 X248.133 S51
S0
G1 X248.260 S54
S0
G1 X248.387 S56
S0
G1 X248.641 S51
S0
G1 X248.768 S58
S0
G1 X248.895 S62
S0
G1 X249.022 S54
S0
G1 X249.149 S50
S0
G1 X249.276 S56
S0
G1 X249.403 S60
S0
G1 X249.657 S51
S0
G1 X249.784 S55
S0
G1 X249.911 S52
S0
G1 X250.038 S43
S0
G0 Y36.703
G0 X250.038 S0
G1 X249.911 S47
S0
G1 X249.784 S39
S0
G1 X249.657 S52
S0
G1 X249.530 S60
S0
G1 X249.276 S56
S0
G1 X249.022 S52
S0
G1 X248.895 S56
S0
G1 X248.768 S63
S0
G1 X248.641 S56
S0
G1 X248.514 S48
S0
G1 X248.387 S52
S0
G1 X248.260 S55
S0
G1 X248.133 S59
S0
G1 X248.006 S60
S0
G1 X247.879 S52
S0
G1 X247.752 S48
S0
G1 X247.625 S54
S0
G1 X247.498 S63
S0
G1 X247.117 S52
S0
G1 X246.990 S60
S0
G1 X246.736 S56
S0
G1 X246.482 S52
S0
G1 X246.228 S56
S0
G1 X245.974 S52
S0
G1 X245.847 S56
S0
G1 X245.720 S58
S0
G1 X245.593 S70
S0
G1 X245.466 S71
S0
G1 X245.339 S88
S0
G1 X245.212 S91
S0
G1 X245.085 S94
S0
G1 X244.958 S96
S0
G1 X244.831 S94
S0
G1 X244.704 S90
S0
G1 X244.450 S95
S0
G1 X244.323 S63
S0
G1 X244.196 S62
S0
G1 X244.069 S68
S0
G1 X243.815 S59
S0
G1 X243.688 S49
S0
G1 X243.561 S39
S0
G1 X243.434 S51
S0
G1 X243.180 S43
S0
G1 X243.053 S47
S0
G1 X242.926 S52
S0
G1 X242.672 S48
S0
G1 X242.545 S44
S0
G1 X242.291 S40
S0
G1 X242.037 S48
S0
G1 X241.783 S44
S0
G1 X241.656 S48
S0
G1 X241.529 S38
S0
G1 X241.148 S42
S0
G1 X241.021 S38
S0
G1 X240.894 S42
S0
G1 X240.767 S46
S0
G1 X240.640 S32
S0
G1 X240.513 S28
S0
G1 X240.386 S45
S0
G1 X240.259 S39
S0
G1 X240.132 S33
S0
G1 X240.005 S35
S0
G1 X239.878 S43
S0
G1 X239.751 S35
S0
G1 X239.624 S40
S0
G1 X239.497 S44
S0
G1 X239.370 S39
S0
G1 X239.243 S52
S0
G1 X239.116 S46
S0
G1 X238.989 S51
S0
G1 X238.862 S58
S0
G1 X238.735 S114
S0
G1 X238.608 S127
S0
G1 X238.481 S70
S0
G1 X238.227 S43
S0
G1 X238.100 S39
S0
G1 X237.973 S36
S0
G1 X237.846 S31
S0
G1 X237.719 S23
S0
G1 X237.592 S24
S0
G1 X237.338 S31
S0
G1 X237.211 S23
S0
G1 X237.084 S31
S0
G1 X236.957 S35
S0
G1 X236.703 S31
S0
G1 X236.576 S27
S0
G1 X236.449 S44
S0
G1 X236.322 S47
S0
G1 X236.195 S39
S0
G1 X236.068 S47
S0
G1 X235.941 S55
S0
G1 X235.814 S60
S0
G1 X235.687 S39
S0
G1 X235.433 S46
S0
G1 X235.306 S35
S0
G1 X235.179 S48
S0
G1 X235.052 S51
S0
G1 X234.925 S43
S0
G1 X234.798 S47
S0
G1 X234.671 S48
S0
G1 X234.544 S50
S0
G1 X234.417 S60
S0
G1 X234.290 S50
S0
G1 X234.163 S46
S0
G1 X234.036 S56
S0
G1 X233.782 S51
S0
G1 X233.655 S60
S0
G1 X233.528 S55
S0
G1 X233.401 S51
S0
G1 X233.274 S43
S0
G1 X233.147 S39
S0
G1 X232.893 S40
S0
G1 X232.766 S43
S0
G1 X232.639 S40
S0
G1 X232.512 S39
S0
G1 X232.385 S55
S0
G1 X232.258 S54
S0
G1 X232.131 S60
S0
G1 X232.004 S57
S0
G1 X231.877 S47
S0
G1 X231.750 S60
S0
G1 X231.623 S71
S0
G1 X231.496 S68
S0
G1 X231.369 S52
S0
G1 X231.242 S57
S0
G1 X231.115 S55
S0
G1 X230.988 S47
S0
G1 X230.734 S56
S0
G1 X230.607 S44
S0
G1 X230.480 S53
S0
G1 X230.353 S40
S0
G1 X230.226 S49
S0
G1 X230.099 S64
S0
G1 X229.972 S63
S0
G1 X229.845 S56
S0
G1 X229.718 S48
S0
G1 X229.591 S49
S0
G1 X229.464 S56
S0
G1 X229.337 S54
S0
G1 X229.210 S59
S0
G1 X229.083 S51
S0
G1 X228.956 S53
S0
G1 X228.829 S55
S0
G1 X228.702 S58
S0
G1 X228.575 S50
S0
G1 X228.448 S55
S0
G1 X228.194 S44
S0
G1 X228.067 S51
S0
G1 X227.940 S56
S0
G1 X227.686 S60
S0
G1 X227.559 S64
S0
G1 X227.432 S71
S0
G1 X227.305 S75
S0
G1 X227.178 S111
S0
G1 X227.051 S122
S0
G1 X226.924 S50
S0
G1 X226.797 S32
S0
G1 X226.670 S40
S0
G1 X226.543 S47
S0
G1 X226.416 S33
S0
G1 X226.035 S32
S0
G1 X225.908 S39
S0
G1 X225.781 S46
S0
G1 X225.654 S63
S0
G1 X225.527 S52
S0
G1 X225.400 S48
S0
G1 X225.273 S51
S0
G1 X225.146 S60
S0
G1 X225.019 S71
S0
G1 X224.892 S60
S0
G1 X224.638 S63
S0
G1 X224.511 S56
S0
G1 X224.384 S52
S0
G1 X224.257 S64
S0
G1 X224.130 S56
S0
G1 X224.003 S59
S0
G1 X223.876 S60
S0
G1 X223.749 S57
S0
G1 X223.622 S63
S0
G1 X223.368 S70
S0
G1 X223.241 S68
S0
G1 X223.114 S55
S0
G1 X222.987 S48
S0
G1 X222.860 S51
S0
G1 X222.733 S60
S0
G1 X222.606 S56
S0
G1 X222.479 S51
S0
G1 X222.352 S60
S0
G1 X222.225 S67
S0
G1 X222.098 S68
S0
G1 X221.971 S53
S0
G1 X221.844 S47
S0
G1 X221.717 S56
S0
G1 X221.590 S63
S0
G1 X221.463 S67
S0
G1 X221.336 S39
S0
G1 X221.209 S100
S0
G1 X221.082 S147
S0
G1 X220.955 S92
S0
G1 X220.828 S59
S0
G1 X220.701 S68
S0
G1 X220.574 S64
S0
G1 X220.447 S53
S0
G1 X220.193 S67
S0
G1 X220.066 S75
S0
G1 X219.939 S67
S0
G1 X219.812 S63
S0
G1 X219.685 S52
S0
G1 X219.431 S63
S0
G1 X219.304 S48
S0
G1 X219.177 S56
S0
G1 X219.050 S48
S0
G1 X218.923 S75
S0
G1 X218.796 S82
S0
G1 X218.542 S61
S0
G1 X218.288 S75
S0
G1 X218.161 S63
S0
G1 X218.034 S78
S0
G1 X217.907 S67
S0
G1 X217.780 S63
S0
G1 X217.653 S67
S0
G1 X217.526 S52
S0
G1 X217.399 S68
S0
G1 X217.272 S76
S0
G1 X217.145 S60
S0
G1 X217.018 S68
S0
G1 X216.891 S80
S0
G1 X216.764 S59
S0
G1 X216.637 S55
S0
G1 X216.510 S63
S0
G1 X216.383 S64
S0
G1 X216.129 S67
S0
G1 X216.002 S55
S0
G1 X215.875 S64
S0
G1 X215.748 S63
S0
G1 X215.621 S72
S0
G1 X215.494 S75
S0
G1 X215.367 S67
S0
G1 X215.240 S72
S0
G1 X215.113 S71
S0
G1 X214.986 S60
S0
G1 X214.859 S59
S0
G1 X214.732 S52
S0
G1 X214.605 S55
S0
G1 X214.478 S65
S0
G1 X214.351 S53
S0
G1 X214.224 S47
S0
G1 X214.097 S58
S0
G1 X213.970 S67
S0
G1 X213.843 S63
S0
G1 X213.716 S54
S0
G1 X213.589 S48
S0
G1 X213.462 S50
S0
G1 X213.335 S52
S0
G1 X213.208 S43
S0
G1 X213.081 S46
S0
G1 X212.954 S48
S0
G1 X212.827 S50
S0
G1 X212.700 S62
S0
G1 X212.573 S58
S0
G1 X212.446 S46
S0
G1 X212.319 S60
S0
G1 X212.192 S59
S0
G1 X212.065 S56
S0
G1 X211.938 S55
S0
G1 X211.811 S47
S0
G1 X211.684 S52
S0
G1 X211.430 S67
S0
G1 X211.303 S55
S0
G1 X211.176 S67
S0
G1 X211.049 S59
S0
G1 X210.795 S63
S0
G1 X210.668 S66
S0
G1 X210.541 S70
S0
G1 X210.414 S83
S0
G1 X210.287 S67
S0
G1 X210.160 S70
S0
G1 X210.033 S103
S0
G1 X209.906 S142
S0
G1 X209.779 S158
S0
G1 X209.652 S91
S0
G1 X209.525 S71
S0
G1 X209.398 S74
S0
G1 X209.271 S70
S0
G1 X209.017 S63
S0
G1 X208.890 S67
S0
G1 X208.763 S57
S0
G1 X208.636 S55
S0
G1 X208.509 S57
S0
G1 X208.382 S53
S0
G1 X208.255 S60
S0
G1 X208.128 S64
S0
G1 X208.001 S54
S0
G1 X207.874 S67
S0
G1 X207.747 S60
S0
G1 X207.620 S59
S0
G1 X207.493 S67
S0
G1 X207.366 S52
S0
G1 X207.239 S60
S0
G1 X207.112 S59
S0
G1 X206.985 S55
S0
G1 X206.858 S63
S0
G1 X206.731 S59
S0
G1 X206.604 S56
S0
G1 X206.350 S64
S0
G1 X206.223 S60
S0
G1 X206.096 S64
S0
G1 X205.842 S63
S0
G1 X205.588 S67
S0
G1 X205.461 S68
S0
G1 X205.080 S67
S0
G1 X204.953 S70
S0
G1 X204.826 S74
S0
G1 X204.699 S72
S0
G1 X204.572 S75
S0
G1 X204.445 S68
S0
G1 X204.318 S65
S0
G1 X204.191 S70
S0
G1 X203.937 S78
S0
G1 X203.810 S70
S0
G1 X203.683 S71
S0
G1 X203.429 S80
S0
G1 X203.302 S75
S0
G1 X203.175 S74
S0
G1 X203.048 S76
S0
G1 X202.921 S78
S0
G1 X202.794 S82
S0
G1 X202.540 S75
S0
G1 X202.413 S80
S0
G1 X202.286 S84
S0
G1 X202.159 S95
S0
G1 X202.032 S91
S0
G1 X201.778 S86
S0
G1 X201.651 S90
S0
G1 X201.397 S86
S0
G1 X201.270 S98
S0
G1 X201.143 S104
S0
G1 X201.016 S92
S0
G1 X200.889 S99
S0
G1 X200.762 S104
S0
G1 X200.381 S108
S0
G1 X200.254 S112
S0
G1 X200.127 S115
S0
G1 X200.000 S108
S0
G0 Y36.576
G0 X200.000 S0
G1 X200.127 S112
S0
G1 X200.381 S115
S0
G1 X200.508 S107
S0
G1 X200.635 S104
S0
G1 X200.762 S108
S0
G1 X200.889 S104
S0
G1 X201.143 S95
S0
G1 X201.270 S100
S0
G1 X201.397 S90
S0
G1 X201.524 S86
S0
G1 X201.651 S90
S0
G1 X201.778 S94
S0
G1 X201.905 S90
S0
G1 X202.032 S88
S0
G1 X202.286 S90
S0
G1 X202.413 S91
S0
G1 X202.540 S87
S0
G1 X202.667 S79
S0
G1 X202.794 S75
S0
G1 X203.048 S78
S0
G1 X203.175 S76
S0
G1 X203.302 S82
S0
G1 X203.429 S83
S0
G1 X203.556 S80
S0
G1 X203.683 S79
S0
G1 X203.810 S70
S0
G1 X203.937 S72
S0
G1 X204.064 S80
S0
G1 X204.191 S83
S0
G1 X204.318 S70
S0
G1 X204.445 S72
S0
G1 X204.572 S70
S0
G1 X204.699 S71
S0
G1 X204.826 S67
S0
G1 X204.953 S70
S0
G1 X205.080 S63
S0
G1 X205.461 S67
S0
G1 X205.588 S72
S0
G1 X205.715 S67
S0
G1 X205.842 S72
S0
G1 X205.969 S65
S0
G1 X206.096 S63
S0
G1 X206.350 S67
S0
G1 X206.604 S71
S0
G1 X206.985 S63
S0
G1 X207.112 S59
S0
G1 X207.239 S63
S0
G1 X207.366 S56
S0
G1 X207.493 S52
S0
G1 X207.620 S64
S0
G1 X207.747 S60
S0
G1 X207.874 S56
S0
G1 X208.001 S60
S0
G1 X208.128 S63
S0
G1 X208.382 S56
S0
G1 X208.636 S60
S0
G1 X208.763 S59
S0
G1 X208.890 S65
S0
G1 X209.017 S63
S0
G1 X209.144 S67
S0
G1 X209.271 S68
S0
G1 X209.398 S70
S0
G1 X209.525 S74
S0
G1 X209.652 S106
S0
G1 X209.779 S184
S0
G1 X209.906 S133
S0
G1 X210.033 S61
S0
G1 X210.160 S67
S0
G1 X210.287 S88
S0
G1 X210.414 S71
S0
G1 X210.541 S72
S0
G1 X210.668 S67
S0
G1 X210.795 S70
S0
G1 X210.922 S71
S0
G1 X211.049 S55
S0
G1 X211.176 S56
S0
G1 X211.303 S64
S0
G1 X211.430 S55
S0
G1 X211.557 S61
S0
G1 X211.684 S60
S0
G1 X211.811 S57
S0
G1 X211.938 S52
S0
G1 X212.065 S51
S0
G1 X212.192 S60
S0
G1 X212.446 S59
S0
G1 X212.573 S52
S0
G1 X212.700 S80
S0
G1 X212.827 S71
S0
G1 X212.954 S51
S0
G1 X213.081 S60
S0
G1 X213.208 S49
S0
G1 X213.335 S47
S0
G1 X213.462 S46
S0
G1 X213.589 S50
S0
G1 X213.716 S54
S0
G1 X213.843 S58
S0
G1 X213.970 S67
S0
G1 X214.097 S63
S0
G1 X214.224 S60
S0
G1 X214.351 S63
S0
G1 X214.732 S55
S0
G1 X214.859 S56
S0
G1 X215.113 S60
S0
G1 X215.367 S72
S0
G1 X215.494 S71
S0
G1 X215.621 S75
S0
G1 X215.748 S95
S0
G1 X215.875 S71
S0
G1 X216.002 S63
S0
G1 X216.129 S75
S0
G1 X216.256 S63
S0
G1 X216.383 S67
S0
G1 X216.510 S63
S0
G1 X216.637 S67
S0
G1 X216.764 S65
S0
G1 X216.891 S57
S0
G1 X217.018 S67
S0
G1 X217.145 S75
S0
G1 X217.272 S55
S0
G1 X217.399 S67
S0
G1 X217.526 S71
S0
G1 X217.780 S60
S0
G1 X217.907 S67
S0
G1 X218.034 S60
S0
G1 X218.161 S74
S0
G1 X218.288 S78
S0
G1 X218.415 S64
S0
G1 X218.542 S82
S0
G1 X218.669 S70
S0
G1 X218.796 S66
S0
G1 X218.923 S70
S0
G1 X219.050 S83
S0
G1 X219.177 S67
S0
G1 X219.304 S56
S0
G1 X219.431 S52
S0
G1 X219.558 S56
S0
G1 X219.685 S71
S0
G1 X219.812 S56
S0
G1 X219.939 S52
S0
G1 X220.066 S71
S0
G1 X220.193 S87
S0
G1 X220.320 S76
S0
G1 X220.447 S60
S0
G1 X220.574 S67
S0
G1 X220.701 S52
S0
G1 X220.828 S76
S0
G1 X220.955 S98
S0
G1 X221.082 S95
S0
G1 X221.209 S86
S0
G1 X221.336 S43
S0
G1 X221.463 S56
S0
G1 X221.590 S58
S0
G1 X221.717 S55
S0
G1 X221.844 S48
S0
G1 X221.971 S55
S0
G1 X222.098 S59
S0
G1 X222.225 S51
S0
G1 X222.352 S64
S0
G1 X222.479 S65
S0
G1 X222.606 S72
S0
G1 X222.733 S63
S0
G1 X222.860 S55
S0
G1 X223.114 S59
S0
G1 X223.241 S57
S0
G1 X223.368 S65
S0
G1 X223.495 S57
S0
G1 X223.622 S63
S0
G1 X223.876 S68
S0
G1 X224.003 S71
S0
G1 X224.130 S67
S0
G1 X224.257 S63
S0
G1 X224.384 S72
S0
G1 X224.511 S63
S0
G1 X224.638 S48
S0
G1 X224.765 S60
S0
G1 X225.019 S63
S0
G1 X225.146 S44
S0
G1 X225.273 S52
S0
G1 X225.400 S71
S0
G1 X225.527 S67
S0
G1 X225.654 S50
S0
G1 X225.781 S51
S0
G1 X225.908 S57
S0
G1 X226.035 S48
S0
G1 X226.162 S40
S0
G1 X226.289 S38
S0
G1 X226.416 S43
S0
G1 X226.543 S36
S0
G1 X226.670 S41
S0
G1 X226.797 S33
S0
G1 X226.924 S40
S0
G1 X227.051 S27
S0
G1 X227.178 S51
S0
G1 X227.305 S129
S0
G1 X227.432 S132
S0
G1 X227.559 S67
S0
G1 X227.686 S75
S0
G1 X227.813 S80
S0
G1 X228.067 S67
S0
G1 X228.194 S65
S0
G1 X228.321 S49
S0
G1 X228.448 S56
S0
G1 X228.575 S52
S0
G1 X228.702 S43
S0
G1 X228.829 S51
S0
G1 X228.956 S56
S0
G1 X229.083 S52
S0
G1 X229.210 S53
S0
G1 X229.337 S43
S0
G1 X229.464 S44
S0
G1 X229.718 S43
S0
G1 X229.845 S39
S0
G1 X229.972 S40
S0
G1 X230.099 S39
S0
G1 X230.226 S47
S0
G1 X230.353 S59
S0
G1 X230.480 S60
S0
G1 X230.607 S52
S0
G1 X230.734 S51
S0
G1 X230.861 S65
S0
G1 X230.988 S80
S0
G1 X231.242 S71
S0
G1 X231.369 S61
S0
G1 X231.496 S52
S0
G1 X231.623 S60
S0
G1 X231.750 S67
S0
G1 X231.877 S57
S0
G1 X232.004 S55
S0
G1 X232.131 S61
S0
G1 X232.258 S59
S0
G1 X232.385 S55
S0
G1 X232.639 S59
S0
G1 X232.766 S47
S0
G1 X232.893 S44
S0
G1 X233.020 S40
S0
G1 X233.147 S48
S0
G1 X233.274 S52
S0
G1 X233.401 S36
S0
G1 X233.528 S32
S0
G1 X233.655 S40
S0
G1 X233.782 S56
S0
G1 X233.909 S35
S0
G1 X234.036 S20
S0
G1 X234.163 S43
S0
G1 X234.417 S51
S0
G1 X234.544 S42
S0
G1 X234.671 S48
S0
G1 X234.798 S44
S0
G1 X234.925 S46
S0
G1 X235.179 S43
S0
G1 X235.306 S47
S0
G1 X235.433 S50
S0
G1 X235.560 S43
S0
G1 X235.687 S47
S0
G1 X235.814 S44
S0
G1 X235.941 S49
S0
G1 X236.068 S55
S0
G1 X236.195 S48
S0
G1 X236.322 S28
S0
G1 X236.449 S39
S0
G1 X236.576 S51
S0
G1 X236.703 S38
S0
G1 X236.830 S35
S0
G1 X236.957 S31
S0
G1 X237.084 S35
S0
G1 X237.211 S38
S0
G1 X237.465 S35
S0
G1 X237.592 S27
S0
G1 X237.719 S24
S0
G1 X237.846 S33
S0
G1 X237.973 S32
S0
G1 X238.100 S35
S0
G1 X238.227 S32
S0
G1 X238.354 S47
S0
G1 X238.481 S35
S0
G1 X238.608 S53
S0
G1 X238.735 S96
S0
G1 X238.862 S130
S0
G1 X238.989 S109
S0
G1 X239.116 S55
S0
G1 X239.243 S50
S0
G1 X239.370 S44
S0
G1 X239.497 S47
S0
G1 X239.624 S42
S0
G1 X239.751 S44
S0
G1 X239.878 S42
S0
G1 X240.005 S46
S0
G1 X240.132 S38
S0
G1 X240.259 S33
S0
G1 X240.386 S37
S0
G1 X240.513 S45
S0
G1 X240.640 S35
S0
G1 X240.767 S36
S0
G1 X240.894 S38
S0
G1 X241.021 S39
S0
G1 X241.148 S38
S0
G1 X241.402 S46
S0
G1 X241.656 S42
S0
G1 X241.783 S48
S0
G1 X242.037 S52
S0
G1 X242.291 S48
S0
G1 X242.545 S40
S0
G1 X242.672 S44
S0
G1 X242.799 S42
S0
G1 X242.926 S48
S0
G1 X243.053 S52
S0
G1 X243.180 S51
S0
G1 X243.307 S46
S0
G1 X243.434 S50
S0
G1 X243.561 S55
S0
G1 X243.688 S44
S0
G1 X243.815 S43
S0
G1 X243.942 S47
S0
G1 X244.069 S51
S0
G1 X244.196 S54
S0
G1 X244.323 S46
S0
G1 X244.450 S59
S0
G1 X244.577 S86
S0
G1 X244.704 S90
S0
G1 X244.831 S84
S0
G1 X244.958 S78
S0
G1 X245.212 S82
S0
G1 X245.339 S92
S0
G1 X245.466 S96
S0
G1 X245.593 S92
S0
G1 X245.720 S87
S0
G1 X245.847 S79
S0
G1 X245.974 S70
S0
G1 X246.101 S63
S0
G1 X246.228 S60
S0
G1 X246.355 S50
S0
G1 X246.609 S52
S0
G1 X246.736 S56
S0
G1 X246.863 S60
S0
G1 X246.990 S56
S0
G1 X247.117 S50
S0
G1 X247.371 S56
S0
G1 X247.498 S48
S0
G1 X247.625 S52
S0
G1 X247.752 S56
S0
G1 X247.879 S55
S0
G1 X248.133 S52
S0
G1 X248.260 S55
S0
G1 X248.387 S51
S0
G1 X248.641 S56
S0
G1 X248.768 S60
S0
G1 X248.895 S56
S0
G1 X249.022 S52
S0
G1 X249.149 S48
S0
G1 X249.276 S52
S0
G1 X249.657 S56
S0
G1 X249.784 S52
S0
G1 X250.038 S50
S0
G0 Y36.449
G0 X250.038 S0
G1 X249.911 S52
S0
G1 X249.784 S50
S0
G1 X249.657 S51
S0
G1 X249.530 S55
S0
G1 X249.403 S52
S0
G1 X249.276 S60
S0
G1 X249.149 S56
S0
G1 X248.895 S54
S0
G1 X248.768 S46
S0
G1 X248.641 S60
S0
G1 X248.514 S56
S0
G1 X248.387 S47
S0
G1 X248.260 S51
S0
G1 X248.133 S59
S0
G1 X248.006 S56
S0
G1 X247.752 S52
S0
G1 X247.625 S59
S0
G1 X247.498 S43
S0
G1 X247.371 S51
S0
G1 X247.244 S63
S0
G1 X247.117 S56
S0
G1 X246.990 S44
S0
G1 X246.863 S52
S0
G1 X246.736 S63
S0
G1 X246.609 S52
S0
G1 X246.482 S48
S0
G1 X246.355 S56
S0
G1 X246.228 S58
S0
G1 X246.101 S75
S0
G1 X245.974 S78
S0
G1 X245.847 S70
S0
G1 X245.720 S63
S0
G1 X245.593 S72
S0
G1 X245.466 S83
S0
G1 X245.339 S72
S0
G1 X245.212 S71
S0
G1 X245.085 S76
S0
G1 X244.958 S79
S0
G1 X244.831 S67
S0
G1 X244.704 S63
S0
G1 X244.577 S51
S0
G1 X244.450 S46
S0
G1 X244.323 S67
S0
G1 X244.196 S59
S0
G1 X243.942 S52
S0
G1 X243.815 S44
S0
G1 X243.561 S43
S0
G1 X243.307 S51
S0
G1 X243.053 S52
S0
G1 X242.799 S48
S0
G1 X242.672 S47
S0
G1 X242.545 S40
S0
G1 X242.418 S48
S0
G1 X242.164 S44
S0
G1 X242.037 S48
S0
G1 X241.910 S63
S0
G1 X241.783 S60
S0
G1 X241.656 S35
S0
G1 X241.529 S42
S0
G1 X241.402 S38
S0
G1 X241.148 S42
S0
G1 X241.021 S43
S0
G1 X240.894 S39
S0
G1 X240.767 S35
S0
G1 X240.640 S40
S0
G1 X240.513 S47
S0
G1 X240.386 S45
S0
G1 X240.132 S37
S0
G1 X240.005 S38
S0
G1 X239.878 S39
S0
G1 X239.751 S43
S0
G1 X239.624 S44
S0
G1 X239.497 S43
S0
G1 X239.370 S35
S0
G1 X239.243 S44
S0
G1 X239.116 S51
S0
G1 X238.989 S74
S0
G1 X238.862 S130
S0
G1 X238.735 S113
S0
G1 X238.608 S64
S0
G1 X238.481 S41
S0
G1 X238.354 S40
S0
G1 X238.227 S27
S0
G1 X238.100 S31
S0
G1 X237.973 S38
S0
G1 X237.719 S33
S0
G1 X237.592 S28
S0
G1 X237.465 S23
S0
G1 X237.211 S35
S0
G1 X236.957 S31
S0
G1 X236.830 S35
S0
G1 X236.703 S46
S0
G1 X236.576 S52
S0
G1 X236.449 S43
S0
G1 X236.322 S35
S0
G1 X236.195 S49
S0
G1 X236.068 S51
S0
G1 X235.941 S48
S0
G1 X235.814 S52
S0
G1 X235.687 S48
S0
G1 X235.433 S46
S0
G1 X235.306 S44
S0
G1 X235.179 S48
S0
G1 X235.052 S42
S0
G1 X234.925 S44
S0
G1 X234.798 S47
S0
G1 X234.671 S36
S0
G1 X234.544 S32
S0
G1 X234.417 S39
S0
G1 X234.290 S52
S0
G1 X234.163 S38
S0
G1 X234.036 S35
S0
G1 X233.909 S40
S0
G1 X233.782 S50
S0
G1 X233.655 S48
S0
G1 X233.528 S32
S0
G1 X233.401 S35
S0
G1 X233.274 S55
S0
G1 X233.020 S50
S0
G1 X232.893 S63
S0
G1 X232.766 S56
S0
G1 X232.639 S61
S0
G1 X232.512 S56
S0
G1 X232.385 S46
S0
G1 X232.258 S47
S0
G1 X232.131 S53
S0
G1 X232.004 S64
S0
G1 X231.877 S76
S0
G1 X231.750 S56
S0
G1 X231.623 S52
S0
G1 X231.496 S60
S0
G1 X231.369 S59
S0
G1 X231.115 S63
S0
G1 X230.988 S59
S0
G1 X230.861 S43
S0
G1 X230.734 S35
S0
G1 X230.607 S44
S0
G1 X230.480 S57
S0
G1 X230.353 S59
S0
G1 X230.099 S43
S0
G1 X229.972 S38
S0
G1 X229.845 S43
S0
G1 X229.718 S60
S0
G1 X229.591 S49
S0
G1 X229.464 S44
S0
G1 X229.337 S55
S0
G1 X229.210 S57
S0
G1 X229.083 S53
S0
G1 X228.956 S56
S0
G1 X228.829 S61
S0
G1 X228.702 S48
S0
G1 X228.575 S51
S0
G1 X228.448 S55
S0
G1 X228.321 S47
S0
G1 X228.194 S52
S0
G1 X228.067 S56
S0
G1 X227.940 S55
S0
G1 X227.813 S64
S0
G1 X227.686 S67
S0
G1 X227.559 S71
S0
G1 X227.432 S114
S0
G1 X227.305 S145
S0
G1 X227.178 S69
S0
G1 X227.051 S33
S0
G1 X226.924 S43
S0
G1 X226.797 S31
S0
G1 X226.670 S39
S0
G1 X226.543 S33
S0
G1 X226.416 S32
S0
G1 X226.289 S46
S0
G1 X226.162 S40
S0
G1 X226.035 S39
S0
G1 X225.908 S54
S0
G1 X225.781 S60
S0
G1 X225.654 S55
S0
G1 X225.400 S71
S0
G1 X225.273 S60
S0
G1 X225.146 S56
S0
G1 X225.019 S57
S0
G1 X224.765 S60
S0
G1 X224.638 S56
S0
G1 X224.511 S63
S0
G1 X224.384 S60
S0
G1 X224.257 S68
S0
G1 X224.130 S71
S0
G1 X224.003 S70
S0
G1 X223.876 S63
S0
G1 X223.749 S57
S0
G1 X223.622 S60
S0
G1 X223.495 S59
S0
G1 X223.368 S68
S0
G1 X223.241 S59
S0
G1 X223.114 S51
S0
G1 X222.987 S63
S0
G1 X222.733 S67
S0
G1 X222.606 S78
S0
G1 X222.479 S70
S0
G1 X222.225 S53
S0
G1 X222.098 S63
S0
G1 X221.971 S60
S0
G1 X221.844 S57
S0
G1 X221.717 S52
S0
G1 X221.590 S44
S0
G1 X221.463 S54
S0
G1 X221.336 S56
S0
G1 X221.209 S63
S0
G1 X221.082 S43
S0
G1 X220.955 S52
S0
G1 X220.828 S76
S0
G1 X220.701 S67
S0
G1 X220.574 S64
S0
G1 X220.447 S63
S0
G1 X220.320 S75
S0
G1 X220.193 S83
S0
G1 X220.066 S70
S0
G1 X219.939 S63
S0
G1 X219.812 S67
S0
G1 X219.685 S64
S0
G1 X219.558 S71
S0
G1 X219.431 S60
S0
G1 X219.304 S50
S0
G1 X219.177 S60
S0
G1 X219.050 S67
S0
G1 X218.923 S74
S0
G1 X218.796 S63
S0
G1 X218.669 S78
S0
G1 X218.542 S89
S0
G1 X218.415 S63
S0
G1 X218.288 S72
S0
G1 X218.161 S78
S0
G1 X218.034 S67
S0
G1 X217.907 S71
S0
G1 X217.780 S76
S0
G1 X217.653 S56
S0
G1 X217.526 S67
S0
G1 X217.399 S78
S0
G1 X217.272 S67
S0
G1 X217.018 S71
S0
G1 X216.891 S55
S0
G1 X216.637 S63
S0
G1 X216.510 S75
S0
G1 X216.383 S63
S0
G1 X216.256 S64
S0
G1 X216.129 S67
S0
G1 X216.002 S64
S0
G1 X215.875 S75
S0
G1 X215.748 S91
S0
G1 X215.621 S88
S0
G1 X215.494 S71
S0
G1 X215.367 S70
S0
G1 X215.240 S63
S0
G1 X215.113 S60
S0
G1 X214.986 S67
S0
G1 X214.859 S60
S0
G1 X214.732 S56
S0
G1 X214.605 S60
S0
G1 X214.478 S59
S0
G1 X214.351 S63
S0
G1 X214.224 S67
S0
G1 X214.097 S60
S0
G1 X213.970 S59
S0
G1 X213.843 S55
S0
G1 X213.589 S63
S0
G1 X213.462 S52
S0
G1 X213.335 S50
S0
G1 X213.208 S55
S0
G1 X213.081 S54
S0
G1 X212.954 S58
S0
G1 X212.827 S55
S0
G1 X212.700 S51
S0
G1 X212.573 S108
S0
G1 X212.446 S110
S0
G1 X212.319 S47
S0
G1 X212.065 S63
S0
G1 X211.938 S56
S0
G1 X211.811 S59
S0
G1 X211.557 S56
S0
G1 X211.303 S51
S0
G1 X211.176 S57
S0
G1 X211.049 S60
S0
G1 X210.922 S54
S0
G1 X210.795 S60
S0
G1 X210.668 S56
S0
G1 X210.541 S61
S0
G1 X210.414 S55
S0
G1 X210.287 S64
S0
G1 X210.160 S63
S0
G1 X210.033 S64
S0
G1 X209.906 S68
S0
G1 X209.779 S72
S0
G1 X209.652 S174
S0
G1 X209.525 S168
S0
G1 X209.398 S71
S0
G1 X209.271 S84
S0
G1 X209.144 S75
S0
G1 X209.017 S71
S0
G1 X208.890 S59
S0
G1 X208.763 S72
S0
G1 X208.636 S63
S0
G1 X208.509 S57
S0
G1 X208.382 S64
S0
G1 X208.255 S56
S0
G1 X208.128 S63
S0
G1 X208.001 S60
S0
G1 X207.874 S52
S0
G1 X207.620 S63
S0
G1 X207.366 S60
S0
G1 X207.239 S52
S0
G1 X207.112 S60
S0
G1 X206.858 S63
S0
G1 X206.604 S67
S0
G1 X206.477 S66
S0
G1 X206.350 S72
S0
G1 X206.223 S76
S0
G1 X205.969 S67
S0
G1 X205.842 S63
S0
G1 X205.588 S67
S0
G1 X205.461 S71
S0
G1 X205.207 S67
S0
G1 X205.080 S66
S0
G1 X204.953 S65
S0
G1 X204.826 S63
S0
G1 X204.699 S68
S0
G1 X204.572 S71
S0
G1 X204.445 S76
S0
G1 X204.318 S74
S0
G1 X204.191 S65
S0
G1 X204.064 S70
S0
G1 X203.937 S80
S0
G1 X203.683 S72
S0
G1 X203.556 S80
S0
G1 X203.302 S78
S0
G1 X203.175 S80
S0
G1 X203.048 S70
S0
G1 X202.921 S74
S0
G1 X202.794 S86
S0
G1 X202.667 S91
S0
G1 X202.540 S83
S0
G1 X202.413 S91
S0
G1 X202.286 S90
S0
G1 X202.159 S70
S0
G1 X202.032 S78
S0
G1 X201.905 S82
S0
G1 X201.778 S90
S0
G1 X201.651 S88
S0
G1 X201.524 S82
S0
G1 X201.397 S94
S0
G1 X201.270 S88
S0
G1 X201.143 S92
S0
G1 X201.016 S99
S0
G1 X200.889 S96
S0
G1 X200.508 S104
S0
G1 X200.381 S112
S0
G1 X200.254 S115
S0
G1 X200.127 S112
S0
G1 X200.000 S115
S0
G0 Y36.322
G0 X200.000 S0
G1 X200.127 S115
S0
G1 X200.254 S100
S0
G1 X200.381 S114
S0
G1 X200.508 S113
S0
G1 X200.635 S107
S0
G1 X200.762 S105
S0
G1 X200.889 S108
S0
G1 X201.016 S103
S0
G1 X201.143 S96
S0
G1 X201.270 S92
S0
G1 X201.397 S84
S0
G1 X201.524 S96
S0
G1 X201.651 S88
S0
G1 X201.778 S72
S0
G1 X201.905 S94
S0
G1 X202.032 S82
S0
G1 X202.159 S74
S0
G1 X202.286 S82
S0
G1 X202.413 S86
S0
G1 X202.540 S90
S0
G1 X202.667 S87
S0
G1 X202.794 S83
S0
G1 X202.921 S75
S0
G1 X203.048 S74
S0
G1 X203.175 S82
S0
G1 X203.302 S80
S0
G1 X203.556 S76
S0
G1 X203.683 S70
S0
G1 X203.810 S74
S0
G1 X203.937 S70
S0
G1 X204.064 S74
S0
G1 X204.191 S79
S0
G1 X204.318 S71
S0
G1 X204.445 S63
S0
G1 X204.572 S74
S0
G1 X204.699 S70
S0
G1 X204.953 S67
S0
G1 X205.080 S63
S0
G1 X205.207 S62
S0
G1 X205.334 S63
S0
G1 X205.461 S67
S0
G1 X205.588 S68
S0
G1 X205.715 S65
S0
G1 X205.842 S70
S0
G1 X205.969 S67
S0
G1 X206.096 S59
S0
G1 X206.350 S63
S0
G1 X206.477 S55
S0
G1 X206.604 S58
S0
G1 X206.858 S67
S0
G1 X206.985 S59
S0
G1 X207.112 S64
S0
G1 X207.239 S59
S0
G1 X207.366 S55
S0
G1 X207.493 S60
S0
G1 X207.620 S52
S0
G1 X207.747 S60
S0
G1 X207.874 S67
S0
G1 X208.001 S57
S0
G1 X208.128 S53
S0
G1 X208.255 S64
S0
G1 X208.382 S62
S0
G1 X208.509 S68
S0
G1 X208.636 S52
S0
G1 X208.763 S67
S0
G1 X208.890 S68
S0
G1 X209.017 S74
S0
G1 X209.144 S80
S0
G1 X209.271 S71
S0
G1 X209.398 S74
S0
G1 X209.525 S249
S0
G1 X209.652 S247
S0
G1 X209.779 S74
S0
G1 X209.906 S58
S0
G1 X210.033 S74
S0
G1 X210.160 S59
S0
G1 X210.287 S57
S0
G1 X210.414 S60
S0
G1 X210.668 S64
S0
G1 X210.795 S57
S0
G1 X210.922 S63
S0
G1 X211.049 S55
S0
G1 X211.176 S52
S0
G1 X211.303 S63
S0
G1 X211.430 S62
S0
G1 X211.557 S55
S0
G1 X211.684 S57
S0
G1 X211.811 S59
S0
G1 X211.938 S61
S0
G1 X212.065 S67
S0
G1 X212.192 S63
S0
G1 X212.319 S54
S0
G1 X212.446 S138
S0
G1 X212.573 S137
S0
G1 X212.700 S57
S0
G1 X212.954 S55
S0
G1 X213.081 S53
S0
G1 X213.208 S55
S0
G1 X213.335 S52
S0
G1 X213.462 S48
S0
G1 X213.589 S60
S0
G1 X213.716 S75
S0
G1 X213.843 S66
S0
G1 X213.970 S56
S0
G1 X214.097 S70
S0
G1 X214.224 S59
S0
G1 X214.351 S62
S0
G1 X214.478 S67
S0
G1 X214.605 S63
S0
G1 X214.732 S67
S0
G1 X214.859 S60
S0
G1 X214.986 S68
S0
G1 X215.113 S76
S0
G1 X215.367 S60
S0
G1 X215.621 S71
S0
G1 X215.748 S64
S0
G1 X215.875 S67
S0
G1 X216.002 S63
S0
G1 X216.129 S59
S0
G1 X216.256 S67
S0
G1 X216.383 S75
S0
G1 X216.510 S60
S0
G1 X216.637 S56
S0
G1 X216.891 S72
S0
G1 X217.018 S57
S0
G1 X217.145 S68
S0
G1 X217.272 S71
S0
G1 X217.399 S72
S0
G1 X217.526 S79
S0
G1 X217.653 S70
S0
G1 X217.780 S60
S0
G1 X217.907 S71
S0
G1 X218.034 S72
S0
G1 X218.288 S63
S0
G1 X218.415 S79
S0
G1 X218.542 S71
S0
G1 X218.669 S59
S0
G1 X218.796 S75
S0
G1 X218.923 S92
S0
G1 X219.050 S80
S0
G1 X219.177 S63
S0
G1 X219.304 S67
S0
G1 X219.431 S64
S0
G1 X219.558 S56
S0
G1 X219.685 S68
S0
G1 X219.812 S83
S0
G1 X220.066 S68
S0
G1 X220.193 S63
S0
G1 X220.320 S72
S0
G1 X220.447 S91
S0
G1 X220.574 S86
S0
G1 X220.701 S67
S0
G1 X220.828 S63
S0
G1 X220.955 S60
S0
G1 X221.082 S68
S0
G1 X221.209 S55
S0
G1 X221.336 S53
S0
G1 X221.590 S60
S0
G1 X221.717 S52
S0
G1 X221.844 S63
S0
G1 X221.971 S57
S0
G1 X222.098 S48
S0
G1 X222.225 S68
S0
G1 X222.352 S72
S0
G1 X222.479 S63
S0
G1 X222.733 S67
S0
G1 X222.860 S68
S0
G1 X222.987 S71
S0
G1 X223.114 S63
S0
G1 X223.241 S70
S0
G1 X223.368 S59
S0
G1 X223.495 S55
S0
G1 X223.622 S60
S0
G1 X223.749 S64
S0
G1 X223.876 S63
S0
G1 X224.130 S51
S0
G1 X224.257 S59
S0
G1 X224.384 S68
S0
G1 X224.511 S80
S0
G1 X224.638 S75
S0
G1 X224.765 S67
S0
G1 X224.892 S55
S0
G1 X225.019 S56
S0
G1 X225.146 S67
S0
G1 X225.273 S71
S0
G1 X225.400 S56
S0
G1 X225.527 S47
S0
G1 X225.654 S65
S0
G1 X225.781 S67
S0
G1 X226.035 S63
S0
G1 X226.162 S48
S0
G1 X226.289 S27
S0
G1 X226.416 S42
S0
G1 X226.543 S35
S0
G1 X226.797 S41
S0
G1 X226.924 S40
S0
G1 X227.051 S43
S0
G1 X227.178 S44
S0
G1 X227.305 S32
S0
G1 X227.432 S60
S0
G1 X227.559 S131
S0
G1 X227.686 S118
S0
G1 X227.813 S66
S0
G1 X227.940 S60
S0
G1 X228.067 S55
S0
G1 X228.321 S67
S0
G1 X228.575 S49
S0
G1 X228.702 S57
S0
G1 X228.829 S47
S0
G1 X228.956 S49
S0
G1 X229.083 S44
S0
G1 X229.210 S39
S0
G1 X229.337 S56
S0
G1 X229.464 S67
S0
G1 X229.591 S51
S0
G1 X229.718 S40
S0
G1 X229.845 S56
S0
G1 X229.972 S58
S0
G1 X230.226 S55
S0
G1 X230.353 S52
S0
G1 X230.480 S47
S0
G1 X230.607 S72
S0
G1 X230.734 S68
S0
G1 X230.861 S59
S0
G1 X230.988 S53
S0
G1 X231.115 S43
S0
G1 X231.242 S59
S0
G1 X231.369 S66
S0
G1 X231.496 S59
S0
G1 X231.623 S51
S0
G1 X231.750 S48
S0
G1 X231.877 S47
S0
G1 X232.004 S48
S0
G1 X232.131 S76
S0
G1 X232.258 S55
S0
G1 X232.385 S59
S0
G1 X232.512 S43
S0
G1 X232.639 S42
S0
G1 X232.766 S47
S0
G1 X232.893 S59
S0
G1 X233.020 S58
S0
G1 X233.147 S52
S0
G1 X233.274 S54
S0
G1 X233.401 S52
S0
G1 X233.528 S55
S0
G1 X233.655 S56
S0
G1 X233.782 S39
S0
G1 X233.909 S50
S0
G1 X234.036 S60
S0
G1 X234.163 S43
S0
G1 X234.290 S39
S0
G1 X234.417 S47
S0
G1 X234.544 S43
S0
G1 X234.671 S39
S0
G1 X234.798 S40
S0
G1 X234.925 S37
S0
G1 X235.052 S44
S0
G1 X235.179 S39
S0
G1 X235.306 S38
S0
G1 X235.433 S48
S0
G1 X235.560 S40
S0
G1 X235.687 S57
S0
G1 X235.814 S48
S0
G1 X235.941 S43
S0
G1 X236.068 S56
S0
G1 X236.195 S51
S0
G1 X236.322 S48
S0
G1 X236.449 S43
S0
G1 X236.576 S36
S0
G1 X236.703 S42
S0
G1 X236.830 S59
S0
G1 X236.957 S42
S0
G1 X237.084 S31
S0
G1 X237.211 S33
S0
G1 X237.465 S32
S0
G1 X237.719 S31
S0
G1 X237.846 S29
S0
G1 X237.973 S35
S0
G1 X238.100 S39
S0
G1 X238.227 S34
S0
G1 X238.354 S32
S0
G1 X238.481 S38
S0
G1 X238.608 S44
S0
G1 X238.735 S35
S0
G1 X238.862 S68
S0
G1 X238.989 S135
S0
G1 X239.116 S122
S0
G1 X239.243 S64
S0
G1 X239.370 S55
S0
G1 X239.497 S44
S0
G1 X239.624 S39
S0
G1 X239.751 S48
S0
G1 X239.878 S51
S0
G1 X240.005 S48
S0
G1 X240.132 S38
S0
G1 X240.259 S31
S0
G1 X240.386 S35
S0
G1 X240.513 S40
S0
G1 X240.640 S46
S0
G1 X240.767 S35
S0
G1 X240.894 S38
S0
G1 X241.148 S46
S0
G1 X241.275 S42
S0
G1 X241.402 S38
S0
G1 X241.656 S42
S0
G1 X241.783 S44
S0
G1 X241.910 S52
S0
G1 X242.037 S44
S0
G1 X242.164 S36
S0
G1 X242.418 S44
S0
G1 X242.545 S42
S0
G1 X242.799 S43
S0
G1 X242.926 S35
S0
G1 X243.053 S44
S0
G1 X243.180 S56
S0
G1 X243.307 S52
S0
G1 X243.561 S56
S0
G1 X243.815 S38
S0
G1 X243.942 S52
S0
G1 X244.069 S55
S0
G1 X244.196 S48
S0
G1 X244.450 S50
S0
G1 X244.577 S51
S0
G1 X244.704 S56
S0
G1 X244.831 S59
S0
G1 X244.958 S63
S0
G1 X245.085 S72
S0
G1 X245.212 S84
S0
G1 X245.339 S78
S0
G1 X245.466 S68
S0
G1 X245.593 S72
S0
G1 X245.720 S67
S0
G1 X245.974 S59
S0
G1 X246.101 S70
S0
G1 X246.228 S76
S0
G1 X246.355 S71
S0
G1 X246.482 S63
S0
G1 X246.609 S53
S0
G1 X246.736 S51
S0
G1 X246.863 S59
S0
G1 X246.990 S56
S0
G1 X247.117 S59
S0
G1 X247.244 S56
S0
G1 X247.371 S55
S0
G1 X247.498 S59
S0
G1 X247.625 S55
S0
G1 X247.752 S52
S0
G1 X247.879 S54
S0
G1 X248.006 S50
S0
G1 X248.133 S55
S0
G1 X248.260 S62
S0
G1 X248.387 S56
S0
G1 X248.514 S47
S0
G1 X248.641 S55
S0
G1 X248.768 S56
S0
G1 X248.895 S52
S0
G1 X249.403 S55
S0
G1 X249.530 S51
S0
G1 X249.657 S52
S0
G1 X249.784 S47
S0
G1 X249.911 S48
S0
G1 X250.038 S52
S0
G0 Y36.195
G0 X250.038 S0
G1 X249.911 S52
S0
G1 X249.784 S48
S0
G1 X249.657 S44
S0
G1 X249.530 S50
S0
G1 X249.149 S48
S0
G1 X249.022 S51
S0
G1 X248.895 S55
S0
G1 X248.768 S60
S0
G1 X248.641 S56
S0
G1 X248.514 S52
S0
G1 X248.387 S56
S0
G1 X248.260 S60
S0
G1 X248.133 S54
S0
G1 X247.879 S55
S0
G1 X247.752 S52
S0
G1 X247.625 S54
S0
G1 X247.498 S55
S0
G1 X247.371 S57
S0
G1 X247.244 S55
S0
G1 X246.863 S56
S0
G1 X246.609 S62
S0
G1 X246.482 S71
S0
G1 X246.355 S67
S0
G1 X246.228 S57
S0
G1 X246.101 S65
S0
G1 X245.974 S67
S0
G1 X245.847 S59
S0
G1 X245.720 S64
S0
G1 X245.593 S68
S0
G1 X245.466 S75
S0
G1 X245.339 S104
S0
G1 X245.212 S86
S0
G1 X245.085 S78
S0
G1 X244.958 S63
S0
G1 X244.831 S52
S0
G1 X244.704 S58
S0
G1 X244.577 S55
S0
G1 X244.450 S51
S0
G1 X244.323 S47
S0
G1 X244.196 S48
S0
G1 X244.069 S44
S0
G1 X243.942 S48
S0
G1 X243.688 S38
S0
G1 X243.561 S44
S0
G1 X243.434 S55
S0
G1 X243.307 S58
S0
G1 X243.053 S46
S0
G1 X242.926 S52
S0
G1 X242.799 S47
S0
G1 X242.672 S35
S0
G1 X242.545 S40
S0
G1 X242.418 S44
S0
G1 X242.164 S47
S0
G1 X242.037 S40
S0
G1 X241.910 S36
S0
G1 X241.783 S40
S0
G1 X241.656 S48
S0
G1 X241.529 S50
S0
G1 X241.402 S38
S0
G1 X241.275 S42
S0
G1 X241.148 S46
S0
G1 X240.894 S42
S0
G1 X240.767 S46
S0
G1 X240.513 S42
S0
G1 X240.259 S35
S0
G1 X240.132 S31
S0
G1 X240.005 S44
S0
G1 X239.878 S56
S0
G1 X239.751 S46
S0
G1 X239.624 S44
S0
G1 X239.497 S56
S0
G1 X239.370 S55
S0
G1 X239.243 S62
S0
G1 X239.116 S113
S0
G1 X238.989 S170
S0
G1 X238.862 S94
S0
G1 X238.735 S41
S0
G1 X238.608 S40
S0
G1 X238.481 S48
S0
G1 X238.354 S38
S0
G1 X238.227 S37
S0
G1 X238.100 S40
S0
G1 X237.973 S33
S0
G1 X237.719 S37
S0
G1 X237.592 S31
S0
G1 X237.465 S44
S0
G1 X237.338 S29
S0
G1 X237.211 S43
S0
G1 X237.084 S32
S0
G1 X236.957 S43
S0
G1 X236.830 S67
S0
G1 X236.703 S47
S0
G1 X236.576 S35
S0
G1 X236.449 S42
S0
G1 X236.322 S44
S0
G1 X236.195 S51
S0
G1 X236.068 S54
S0
G1 X235.941 S44
S0
G1 X235.814 S43
S0
G1 X235.687 S52
S0
G1 X235.560 S45
S0
G1 X235.433 S39
S0
G1 X235.306 S40
S0
G1 X235.179 S42
S0
G1 X235.052 S48
S0
G1 X234.798 S35
S0
G1 X234.671 S48
S0
G1 X234.544 S39
S0
G1 X234.417 S35
S0
G1 X234.290 S44
S0
G1 X234.163 S51
S0
G1 X234.036 S55
S0
G1 X233.782 S44
S0
G1 X233.655 S55
S0
G1 X233.528 S58
S0
G1 X233.401 S44
S0
G1 X233.274 S42
S0
G1 X233.147 S46
S0
G1 X233.020 S48
S0
G1 X232.893 S55
S0
G1 X232.766 S47
S0
G1 X232.639 S42
S0
G1 X232.512 S52
S0
G1 X232.385 S67
S0
G1 X232.258 S66
S0
G1 X232.131 S70
S0
G1 X232.004 S68
S0
G1 X231.877 S61
S0
G1 X231.750 S60
S0
G1 X231.623 S63
S0
G1 X231.496 S71
S0
G1 X231.369 S72
S0
G1 X231.242 S63
S0
G1 X231.115 S60
S0
G1 X230.988 S65
S0
G1 X230.861 S70
S0
G1 X230.734 S71
S0
G1 X230.607 S66
S0
G1 X230.480 S56
S0
G1 X230.353 S48
S0
G1 X230.226 S61
S0
G1 X230.099 S51
S0
G1 X229.972 S47
S0
G1 X229.845 S44
S0
G1 X229.718 S35
S0
G1 X229.591 S45
S0
G1 X229.464 S57
S0
G1 X229.337 S60
S0
G1 X229.210 S49
S0
G1 X229.083 S40
S0
G1 X228.956 S51
S0
G1 X228.829 S47
S0
G1 X228.702 S40
S0
G1 X228.575 S51
S0
G1 X228.448 S59
S0
G1 X228.321 S63
S0
G1 X228.194 S56
S0
G1 X228.067 S57
S0
G1 X227.940 S63
S0
G1 X227.813 S71
S0
G1 X227.686 S104
S0
G1 X227.559 S123
S0
G1 X227.432 S67
S0
G1 X227.305 S29
S0
G1 X227.178 S39
S0
G1 X227.051 S44
S0
G1 X226.924 S35
S0
G1 X226.797 S39
S0
G1 X226.670 S38
S0
G1 X226.543 S44
S0
G1 X226.289 S35
S0
G1 X226.035 S44
S0
G1 X225.908 S53
S0
G1 X225.781 S71
S0
G1 X225.654 S59
S0
G1 X225.527 S56
S0
G1 X225.400 S51
S0
G1 X225.273 S63
S0
G1 X225.146 S74
S0
G1 X225.019 S67
S0
G1 X224.892 S64
S0
G1 X224.765 S71
S0
G1 X224.638 S79
S0
G1 X224.511 S68
S0
G1 X224.384 S55
S0
G1 X224.257 S51
S0
G1 X224.130 S67
S0
G1 X224.003 S55
S0
G1 X223.876 S56
S0
G1 X223.749 S72
S0
G1 X223.622 S63
S0
G1 X223.495 S60
S0
G1 X223.368 S67
S0
G1 X223.241 S76
S0
G1 X223.114 S75
S0
G1 X222.987 S71
S0
G1 X222.860 S60
S0
G1 X222.733 S71
S0
G1 X222.606 S78
S0
G1 X222.479 S67
S0
G1 X222.352 S71
S0
G1 X222.225 S56
S0
G1 X222.098 S49
S0
G1 X221.971 S59
S0
G1 X221.844 S67
S0
G1 X221.717 S59
S0
G1 X221.590 S68
S0
G1 X221.463 S67
S0
G1 X221.336 S68
S0
G1 X221.209 S63
S0
G1 X221.082 S72
S0
G1 X220.955 S70
S0
G1 X220.828 S53
S0
G1 X220.701 S71
S0
G1 X220.574 S87
S0
G1 X220.447 S80
S0
G1 X220.320 S79
S0
G1 X220.066 S63
S0
G1 X219.939 S72
S0
G1 X219.812 S76
S0
G1 X219.685 S79
S0
G1 X219.558 S57
S0
G1 X219.431 S60
S0
G1 X219.304 S76
S0
G1 X219.177 S64
S0
G1 X219.050 S63
S0
G1 X218.923 S86
S0
G1 X218.796 S70
S0
G1 X218.669 S47
S0
G1 X218.542 S74
S0
G1 X218.415 S87
S0
G1 X218.288 S78
S0
G1 X218.161 S63
S0
G1 X218.034 S67
S0
G1 X217.907 S71
S0
G1 X217.780 S56
S0
G1 X217.653 S60
S0
G1 X217.526 S75
S0
G1 X217.399 S63
S0
G1 X217.272 S78
S0
G1 X217.145 S80
S0
G1 X217.018 S51
S0
G1 X216.891 S67
S0
G1 X216.764 S74
S0
G1 X216.637 S67
S0
G1 X216.510 S56
S0
G1 X216.256 S67
S0
G1 X216.129 S60
S0
G1 X216.002 S67
S0
G1 X215.875 S72
S0
G1 X215.748 S51
S0
G1 X215.621 S78
S0
G1 X215.494 S71
S0
G1 X215.367 S63
S0
G1 X215.240 S67
S0
G1 X215.113 S82
S0
G1 X214.986 S83
S0
G1 X214.859 S68
S0
G1 X214.732 S62
S0
G1 X214.478 S60
S0
G1 X214.351 S67
S0
G1 X214.097 S74
S0
G1 X213.970 S56
S0
G1 X213.843 S74
S0
G1 X213.716 S79
S0
G1 X213.589 S75
S0
G1 X213.462 S66
S0
G1 X213.335 S55
S0
G1 X213.208 S48
S0
G1 X213.081 S57
S0
G1 X212.954 S55
S0
G1 X212.827 S67
S0
G1 X212.700 S60
S0
G1 X212.573 S52
S0
G1 X212.446 S49
S0
G1 X212.319 S194
S0
G1 X212.192 S223
S0
G1 X212.065 S61
S0
G1 X211.938 S50
S0
G1 X211.684 S71
S0
G1 X211.557 S63
S0
G1 X211.430 S67
S0
G1 X211.303 S68
S0
G1 X211.176 S65
S0
G1 X211.049 S57
S0
G1 X210.922 S51
S0
G1 X210.795 S56
S0
G1 X210.668 S64
S0
G1 X210.541 S55
S0
G1 X210.414 S67
S0
G1 X210.033 S63
S0
G1 X209.906 S64
S0
G1 X209.779 S67
S0
G1 X209.652 S52
S0
G1 X209.525 S130
S0
G1 X209.398 S311
S0
G1 X209.271 S166
S0
G1 X209.144 S75
S0
G1 X209.017 S92
S0
G1 X208.763 S71
S0
G1 X208.636 S59
S0
G1 X208.382 S67
S0
G1 X208.128 S71
S0
G1 X208.001 S56
S0
G1 X207.874 S55
S0
G1 X207.620 S59
S0
G1 X207.493 S64
S0
G1 X207.112 S63
S0
G1 X206.985 S64
S0
G1 X206.858 S67
S0
G1 X206.731 S63
S0
G1 X206.604 S59
S0
G1 X206.477 S55
S0
G1 X206.350 S60
S0
G1 X206.223 S72
S0
G1 X206.096 S67
S0
G1 X205.969 S72
S0
G1 X205.842 S64
S0
G1 X205.588 S63
S0
G1 X205.334 S68
S0
G1 X205.207 S66
S0
G1 X205.080 S63
S0
G1 X204.953 S70
S0
G1 X204.826 S71
S0
G1 X204.699 S65
S0
G1 X204.572 S72
S0
G1 X204.445 S75
S0
G1 X204.318 S67
S0
G1 X204.191 S83
S0
G1 X204.064 S75
S0
G1 X203.937 S72
S0
G1 X203.683 S78
S0
G1 X203.556 S75
S0
G1 X203.429 S79
S0
G1 X203.302 S78
S0
G1 X203.048 S74
S0
G1 X202.921 S70
S0
G1 X202.794 S78
S0
G1 X202.667 S87
S0
G1 X202.540 S83
S0
G1 X202.413 S86
S0
G1 X202.286 S90
S0
G1 X202.159 S82
S0
G1 X201.905 S78
S0
G1 X201.651 S86
S0
G1 X201.524 S92
S0
G1 X201.397 S84
S0
G1 X201.270 S88
S0
G1 X201.143 S96
S0
G1 X200.889 S100
S0
G1 X200.762 S96
S0
G1 X200.635 S100
S0
G1 X200.508 S108
S0
G1 X200.381 S98
S0
G1 X200.254 S108
S0
G1 X200.000 S115
S0
G0 Y36.068
G0 X200.000 S0
G1 X200.127 S115
S0
G1 X200.254 S119
S0
G1 X200.381 S108
S0
G1 X200.508 S98
S0
G1 X200.635 S110
S0
G1 X200.762 S103
S0
G1 X200.889 S99
S0
G1 X201.016 S98
S0
G1 X201.143 S94
S0
G1 X201.270 S86
S0
G1 X201.397 S94
S0
G1 X201.651 S90
S0
G1 X201.778 S86
S0
G1 X202.032 S82
S0
G1 X202.159 S78
S0
G1 X202.286 S86
S0
G1 X202.413 S90
S0
G1 X202.667 S78
S0
G1 X202.921 S86
S0
G1 X203.048 S80
S0
G1 X203.175 S67
S0
G1 X203.302 S80
S0
G1 X203.429 S88
S0
G1 X203.556 S70
S0
G1 X203.683 S75
S0
G1 X203.810 S83
S0
G1 X203.937 S87
S0
G1 X204.191 S72
S0
G1 X204.318 S75
S0
G1 X204.445 S71
S0
G1 X204.572 S76
S0
G1 X204.699 S71
S0
G1 X204.826 S72
S0
G1 X204.953 S68
S0
G1 X205.080 S71
S0
G1 X205.207 S63
S0
G1 X205.334 S62
S0
G1 X205.461 S68
S0
G1 X205.588 S67
S0
G1 X205.715 S71
S0
G1 X205.842 S63
S0
G1 X205.969 S68
S0
G1 X206.223 S71
S0
G1 X206.350 S72
S0
G1 X206.604 S67
S0
G1 X206.731 S65
S0
G1 X206.858 S62
S0
G1 X207.366 S67
S0
G1 X207.493 S63
S0
G1 X207.620 S67
S0
G1 X207.747 S65
S0
G1 X207.874 S61
S0
G1 X208.001 S65
S0
G1 X208.128 S60
S0
G1 X208.255 S56
S0
G1 X208.382 S60
S0
G1 X208.509 S67
S0
G1 X208.636 S71
S0
G1 X208.763 S68
S0
G1 X208.890 S76
S0
G1 X209.017 S84
S0
G1 X209.144 S63
S0
G1 X209.271 S125
S0
G1 X209.398 S322
S0
G1 X209.525 S142
S0
G1 X209.652 S23
S0
G1 X209.779 S71
S0
G1 X209.906 S67
S0
G1 X210.033 S68
S0
G1 X210.160 S67
S0
G1 X210.287 S70
S0
G1 X210.414 S66
S0
G1 X210.541 S70
S0
G1 X210.668 S67
S0
G1 X210.795 S58
S0
G1 X210.922 S67
S0
G1 X211.049 S71
S0
G1 X211.176 S60
S0
G1 X211.303 S63
S0
G1 X211.430 S67
S0
G1 X211.557 S88
S0
G1 X211.684 S83
S0
G1 X211.811 S90
S0
G1 X211.938 S67
S0
G1 X212.065 S101
S0
G1 X212.192 S276
S0
G1 X212.319 S252
S0
G1 X212.446 S32
S0
G1 X212.573 S43
S0
G1 X212.700 S52
S0
G1 X212.827 S59
S0
G1 X212.954 S63
S0
G1 X213.208 S61
S0
G1 X213.335 S60
S0
G1 X213.716 S67
S0
G1 X213.843 S63
S0
G1 X213.970 S71
S0
G1 X214.097 S67
S0
G1 X214.224 S68
S0
G1 X214.351 S86
S0
G1 X214.478 S70
S0
G1 X214.732 S71
S0
G1 X214.859 S66
S0
G1 X214.986 S71
S0
G1 X215.113 S74
S0
G1 X215.240 S82
S0
G1 X215.367 S70
S0
G1 X215.494 S56
S0
G1 X215.621 S64
S0
G1 X215.748 S95
S0
G1 X215.875 S68
S0
G1 X216.002 S57
S0
G1 X216.129 S75
S0
G1 X216.256 S68
S0
G1 X216.383 S47
S0
G1 X216.510 S70
S0
G1 X216.637 S79
S0
G1 X216.764 S63
S0
G1 X216.891 S67
S0
G1 X217.018 S78
S0
G1 X217.145 S60
S0
G1 X217.272 S63
S0
G1 X217.399 S80
S0
G1 X217.526 S74
S0
G1 X217.653 S71
S0
G1 X217.780 S75
S0
G1 X218.034 S60
S0
G1 X218.161 S71
S0
G1 X218.288 S67
S0
G1 X218.415 S68
S0
G1 X218.669 S83
S0
G1 X218.796 S68
S0
G1 X218.923 S53
S0
G1 X219.050 S72
S0
G1 X219.177 S74
S0
G1 X219.304 S60
S0
G1 X219.431 S72
S0
G1 X219.558 S79
S0
G1 X219.685 S60
S0
G1 X219.812 S67
S0
G1 X219.939 S82
S0
G1 X220.066 S74
S0
G1 X220.193 S63
S0
G1 X220.447 S65
S0
G1 X220.574 S75
S0
G1 X220.701 S96
S0
G1 X220.828 S86
S0
G1 X221.082 S59
S0
G1 X221.336 S78
S0
G1 X221.463 S68
S0
G1 X221.590 S80
S0
G1 X221.717 S71
S0
G1 X221.844 S55
S0
G1 X221.971 S60
S0
G1 X222.098 S68
S0
G1 X222.225 S70
S0
G1 X222.352 S49
S0
G1 X222.479 S51
S0
G1 X222.606 S75
S0
G1 X222.733 S80
S0
G1 X222.860 S76
S0
G1 X222.987 S68
S0
G1 X223.114 S60
S0
G1 X223.241 S63
S0
G1 X223.368 S71
S0
G1 X223.495 S67
S0
G1 X223.622 S61
S0
G1 X223.749 S68
S0
G1 X223.876 S78
S0
G1 X224.003 S63
S0
G1 X224.130 S57
S0
G1 X224.384 S67
S0
G1 X224.638 S53
S0
G1 X224.765 S63
S0
G1 X224.892 S83
S0
G1 X225.019 S82
S0
G1 X225.146 S67
S0
G1 X225.273 S70
S0
G1 X225.400 S74
S0
G1 X225.527 S70
S0
G1 X225.654 S60
S0
G1 X225.781 S55
S0
G1 X225.908 S68
S0
G1 X226.035 S53
S0
G1 X226.162 S49
S0
G1 X226.289 S59
S0
G1 X226.416 S46
S0
G1 X226.543 S39
S0
G1 X226.670 S40
S0
G1 X226.797 S31
S0
G1 X226.924 S39
S0
G1 X227.051 S35
S0
G1 X227.178 S41
S0
G1 X227.305 S44
S0
G1 X227.432 S40
S0
G1 X227.559 S32
S0
G1 X227.686 S71
S0
G1 X227.813 S126
S0
G1 X227.940 S111
S0
G1 X228.067 S71
S0
G1 X228.194 S53
S0
G1 X228.321 S56
S0
G1 X228.448 S63
S0
G1 X228.575 S70
S0
G1 X228.702 S51
S0
G1 X228.829 S43
S0
G1 X228.956 S55
S0
G1 X229.083 S59
S0
G1 X229.210 S55
S0
G1 X229.337 S56
S0
G1 X229.464 S51
S0
G1 X229.718 S63
S0
G1 X229.845 S59
S0
G1 X229.972 S51
S0
G1 X230.099 S44
S0
G1 X230.226 S50
S0
G1 X230.353 S58
S0
G1 X230.480 S38
S0
G1 X230.607 S31
S0
G1 X230.734 S43
S0
G1 X230.861 S39
S0
G1 X230.988 S56
S0
G1 X231.115 S68
S0
G1 X231.242 S60
S0
G1 X231.369 S51
S0
G1 X231.496 S60
S0
G1 X231.623 S68
S0
G1 X231.750 S75
S0
G1 X231.877 S67
S0
G1 X232.004 S55
S0
G1 X232.131 S43
S0
G1 X232.258 S47
S0
G1 X232.385 S60
S0
G1 X232.512 S67
S0
G1 X232.639 S63
S0
G1 X232.766 S60
S0
G1 X232.893 S43
S0
G1 X233.020 S48
S0
G1 X233.147 S63
S0
G1 X233.274 S62
S0
G1 X233.401 S43
S0
G1 X233.528 S40
S0
G1 X233.655 S48
S0
G1 X233.782 S46
S0
G1 X233.909 S47
S0
G1 X234.036 S43
S0
G1 X234.163 S35
S0
G1 X234.290 S43
S0
G1 X234.417 S52
S0
G1 X234.544 S35
S0
G1 X234.671 S32
S0
G1 X234.798 S37
S0
G1 X234.925 S49
S0
G1 X235.052 S44
S0
G1 X235.179 S42
S0
G1 X235.306 S44
S0
G1 X235.433 S36
S0
G1 X235.560 S43
S0
G1 X235.687 S52
S0
G1 X235.814 S43
S0
G1 X236.068 S48
S0
G1 X236.195 S44
S0
G1 X236.322 S52
S0
G1 X236.449 S67
S0
G1 X236.576 S52
S0
G1 X236.703 S48
S0
G1 X236.830 S39
S0
G1 X236.957 S43
S0
G1 X237.084 S67
S0
G1 X237.465 S40
S0
G1 X237.592 S37
S0
G1 X237.719 S33
S0
G1 X237.973 S28
S0
G1 X238.100 S29
S0
G1 X238.227 S36
S0
G1 X238.354 S37
S0
G1 X238.481 S38
S0
G1 X238.608 S46
S0
G1 X238.735 S42
S0
G1 X238.862 S45
S0
G1 X238.989 S59
S0
G1 X239.116 S130
S0
G1 X239.243 S152
S0
G1 X239.370 S94
S0
G1 X239.497 S64
S0
G1 X239.624 S55
S0
G1 X239.751 S43
S0
G1 X239.878 S46
S0
G1 X240.005 S54
S0
G1 X240.132 S48
S0
G1 X240.259 S38
S0
G1 X240.386 S43
S0
G1 X240.767 S42
S0
G1 X241.021 S38
S0
G1 X241.148 S40
S0
G1 X241.656 S44
S0
G1 X241.783 S46
S0
G1 X242.037 S38
S0
G1 X242.164 S46
S0
G1 X242.291 S52
S0
G1 X242.545 S48
S0
G1 X242.672 S44
S0
G1 X242.799 S47
S0
G1 X242.926 S43
S0
G1 X243.053 S52
S0
G1 X243.180 S56
S0
G1 X243.307 S48
S0
G1 X243.434 S55
S0
G1 X243.561 S56
S0
G1 X243.688 S47
S0
G1 X243.815 S50
S0
G1 X243.942 S42
S0
G1 X244.069 S46
S0
G1 X244.196 S52
S0
G1 X244.450 S43
S0
G1 X244.577 S47
S0
G1 X244.704 S53
S0
G1 X244.958 S56
S0
G1 X245.212 S63
S0
G1 X245.339 S67
S0
G1 X245.466 S78
S0
G1 X245.593 S91
S0
G1 X245.720 S86
S0
G1 X245.847 S71
S0
G1 X245.974 S67
S0
G1 X246.101 S71
S0
G1 X246.228 S67
S0
G1 X246.355 S51
S0
G1 X246.482 S55
S0
G1 X246.609 S74
S0
G1 X246.736 S86
S0
G1 X246.863 S74
S0
G1 X246.990 S52
S0
G1 X247.117 S60
S0
G1 X247.244 S59
S0
G1 X247.371 S51
S0
G1 X247.498 S52
S0
G1 X247.625 S48
S0
G1 X247.752 S56
S0
G1 X247.879 S52
S0
G1 X248.006 S55
S0
G1 X248.133 S59
S0
G1 X248.387 S56
S0
G1 X248.514 S50
S0
G1 X248.641 S54
S0
G1 X248.768 S60
S0
G1 X248.895 S56
S0
G1 X249.022 S51
S0
G1 X249.149 S54
S0
G1 X249.276 S51
S0
G1 X249.403 S48
S0
G1 X249.530 S50
S0
G1 X249.657 S55
S0
G1 X249.784 S50
S0
G1 X249.911 S56
S0
G1 X250.038 S52
S0
G0 Y35.941
G0 X250.038 S0
G1 X249.911 S48
S0
G1 X249.784 S52
S0
G1 X249.657 S46
S0
G1 X249.403 S50
S0
G1 X249.276 S52
S0
G1 X249.149 S55
S0
G1 X249.022 S54
S0
G1 X248.895 S43
S0
G1 X248.768 S48
S0
G1 X248.641 S62
S0
G1 X248.514 S54
S0
G1 X248.387 S40
S0
G1 X248.133 S43
S0
G1 X248.006 S48
S0
G1 X247.879 S54
S0
G1 X247.752 S56
S0
G1 X247.625 S54
S0
G1 X247.498 S52
S0
G1 X247.244 S56
S0
G1 X247.117 S58
S0
G1 X246.990 S75
S0
G1 X246.863 S70
S0
G1 X246.736 S75
S0
G1 X246.609 S70
S0
G1 X246.482 S80
S0
G1 X246.355 S75
S0
G1 X246.101 S63
S0
G1 X245.974 S71
S0
G1 X245.847 S78
S0
G1 X245.720 S74
S0
G1 X245.593 S91
S0
G1 X245.466 S92
S0
G1 X245.339 S57
S0
G1 X245.212 S56
S0
G1 X245.085 S50
S0
G1 X244.958 S56
S0
G1 X244.831 S52
S0
G1 X244.704 S50
S0
G1 X244.577 S57
S0
G1 X244.450 S52
S0
G1 X244.196 S43
S0
G1 X244.069 S52
S0
G1 X243.942 S51
S0
G1 X243.815 S42
S0
G1 X243.688 S46
S0
G1 X243.561 S47
S0
G1 X243.434 S56
S0
G1 X243.307 S43
S0
G1 X243.180 S48
S0
G1 X243.053 S54
S0
G1 X242.799 S38
S0
G1 X242.672 S52
S0
G1 X242.418 S48
S0
G1 X242.291 S44
S0
G1 X242.164 S48
S0
G1 X242.037 S46
S0
G1 X241.783 S42
S0
G1 X241.656 S38
S0
G1 X241.529 S36
S0
G1 X241.275 S44
S0
G1 X241.148 S40
S0
G1 X241.021 S44
S0
G1 X240.894 S35
S0
G1 X240.767 S31
S0
G1 X240.640 S38
S0
G1 X240.513 S44
S0
G1 X240.132 S42
S0
G1 X239.878 S47
S0
G1 X239.751 S54
S0
G1 X239.624 S55
S0
G1 X239.497 S46
S0
G1 X239.370 S95
S0
G1 X239.243 S148
S0
G1 X239.116 S121
S0
G1 X238.989 S68
S0
G1 X238.862 S40
S0
G1 X238.735 S43
S0
G1 X238.608 S42
S0
G1 X238.481 S44
S0
G1 X238.354 S35
S0
G1 X238.227 S33
S0
G1 X238.100 S41
S0
G1 X237.973 S37
S0
G1 X237.846 S32
S0
G1 X237.719 S33
S0
G1 X237.592 S41
S0
G1 X237.465 S39
S0
G1 X237.338 S37
S0
G1 X237.211 S36
S0
G1 X237.084 S60
S0
G1 X236.957 S56
S0
G1 X236.830 S48
S0
G1 X236.703 S39
S0
G1 X236.576 S55
S0
G1 X236.449 S71
S0
G1 X236.322 S55
S0
G1 X236.195 S37
S0
G1 X236.068 S52
S0
G1 X235.941 S43
S0
G1 X235.814 S44
S0
G1 X235.687 S60
S0
G1 X235.560 S47
S0
G1 X235.433 S40
S0
G1 X235.306 S31
S0
G1 X235.179 S27
S0
G1 X235.052 S43
S0
G1 X234.925 S47
S0
G1 X234.798 S33
S0
G1 X234.671 S32
S0
G1 X234.544 S36
S0
G1 X234.417 S50
S0
G1 X234.290 S39
S0
G1 X234.163 S36
S0
G1 X234.036 S40
S0
G1 X233.909 S54
S0
G1 X233.782 S59
S0
G1 X233.655 S51
S0
G1 X233.528 S56
S0
G1 X233.401 S67
S0
G1 X233.274 S59
S0
G1 X233.147 S50
S0
G1 X233.020 S52
S0
G1 X232.893 S44
S0
G1 X232.766 S39
S0
G1 X232.639 S55
S0
G1 X232.512 S62
S0
G1 X232.385 S51
S0
G1 X232.258 S44
S0
G1 X232.131 S51
S0
G1 X232.004 S59
S0
G1 X231.877 S66
S0
G1 X231.750 S70
S0
G1 X231.623 S47
S0
G1 X231.496 S48
S0
G1 X231.369 S45
S0
G1 X231.242 S53
S0
G1 X231.115 S68
S0
G1 X230.988 S64
S0
G1 X230.861 S48
S0
G1 X230.734 S40
S0
G1 X230.607 S48
S0
G1 X230.480 S51
S0
G1 X230.353 S56
S0
G1 X230.226 S50
S0
G1 X230.099 S47
S0
G1 X229.972 S51
S0
G1 X229.718 S67
S0
G1 X229.591 S59
S0
G1 X229.464 S63
S0
G1 X229.337 S55
S0
G1 X229.210 S64
S0
G1 X229.083 S52
S0
G1 X228.956 S37
S0
G1 X228.829 S43
S0
G1 X228.702 S51
S0
G1 X228.575 S55
S0
G1 X228.448 S54
S0
G1 X228.321 S59
S0
G1 X228.194 S67
S0
G1 X228.067 S70
S0
G1 X227.940 S111
S0
G1 X227.813 S123
S0
G1 X227.686 S79
S0
G1 X227.559 S32
S0
G1 X227.432 S40
S0
G1 X227.305 S49
S0
G1 X227.051 S37
S0
G1 X226.670 S35
S0
G1 X226.416 S36
S0
G1 X226.289 S48
S0
G1 X226.162 S63
S0
G1 X226.035 S53
S0
G1 X225.908 S60
S0
G1 X225.781 S56
S0
G1 X225.654 S59
S0
G1 X225.527 S71
S0
G1 X225.400 S74
S0
G1 X225.146 S70
S0
G1 X225.019 S63
S0
G1 X224.892 S60
S0
G1 X224.765 S63
S0
G1 X224.638 S59
S0
G1 X224.511 S68
S0
G1 X224.257 S71
S0
G1 X224.130 S63
S0
G1 X224.003 S65
S0
G1 X223.876 S63
S0
G1 X223.749 S67
S0
G1 X223.495 S72
S0
G1 X223.368 S70
S0
G1 X223.241 S52
S0
G1 X223.114 S67
S0
G1 X222.860 S82
S0
G1 X222.733 S72
S0
G1 X222.606 S65
S0
G1 X222.479 S75
S0
G1 X222.225 S71
S0
G1 X222.098 S87
S0
G1 X221.971 S67
S0
G1 X221.844 S55
S0
G1 X221.717 S75
S0
G1 X221.590 S83
S0
G1 X221.463 S71
S0
G1 X221.336 S78
S0
G1 X221.209 S80
S0
G1 X221.082 S65
S0
G1 X220.955 S57
S0
G1 X220.828 S78
S0
G1 X220.701 S86
S0
G1 X220.574 S78
S0
G1 X220.447 S70
S0
G1 X220.320 S63
S0
G1 X220.193 S68
S0
G1 X220.066 S83
S0
G1 X219.939 S87
S0
G1 X219.812 S72
S0
G1 X219.685 S57
S0
G1 X219.558 S74
S0
G1 X219.431 S83
S0
G1 X219.304 S64
S0
G1 X219.177 S78
S0
G1 X219.050 S67
S0
G1 X218.923 S55
S0
G1 X218.796 S71
S0
G1 X218.669 S82
S0
G1 X218.542 S72
S0
G1 X218.415 S78
S0
G1 X218.288 S71
S0
G1 X218.161 S70
S0
G1 X218.034 S71
S0
G1 X217.907 S64
S0
G1 X217.780 S80
S0
G1 X217.653 S79
S0
G1 X217.526 S59
S0
G1 X217.399 S78
S0
G1 X217.272 S63
S0
G1 X217.145 S56
S0
G1 X217.018 S80
S0
G1 X216.891 S63
S0
G1 X216.764 S60
S0
G1 X216.637 S68
S0
G1 X216.510 S75
S0
G1 X216.383 S67
S0
G1 X216.256 S63
S0
G1 X216.002 S67
S0
G1 X215.875 S55
S0
G1 X215.748 S78
S0
G1 X215.621 S72
S0
G1 X215.494 S56
S0
G1 X215.367 S72
S0
G1 X215.240 S84
S0
G1 X215.113 S74
S0
G1 X214.986 S67
S0
G1 X214.859 S70
S0
G1 X214.732 S79
S0
G1 X214.605 S78
S0
G1 X214.478 S66
S0
G1 X214.351 S84
S0
G1 X214.224 S72
S0
G1 X214.097 S70
S0
G1 X213.970 S76
S0
G1 X213.716 S63
S0
G1 X213.589 S72
S0
G1 X213.462 S63
S0
G1 X213.335 S71
S0
G1 X213.208 S76
S0
G1 X213.081 S57
S0
G1 X212.954 S53
S0
G1 X212.827 S57
S0
G1 X212.700 S63
S0
G1 X212.573 S60
S0
G1 X212.446 S61
S0
G1 X212.319 S47
S0
G1 X212.192 S35
S0
G1 X212.065 S197
S0
G1 X211.938 S322
S0
G1 X211.811 S173
S0
G1 X211.684 S79
S0
G1 X211.557 S97
S0
G1 X211.430 S79
S0
G1 X211.303 S74
S0
G1 X211.176 S72
S0
G1 X211.049 S67
S0
G1 X210.922 S75
S0
G1 X210.795 S70
S0
G1 X210.668 S67
S0
G1 X210.541 S82
S0
G1 X210.287 S58
S0
G1 X210.160 S71
S0
G1 X210.033 S63
S0
G1 X209.906 S67
S0
G1 X209.779 S65
S0
G1 X209.652 S79
S0
G1 X209.525 S74
S0
G1 X209.398 S43
S0
G1 X209.271 S220
S0
G1 X209.144 S252
S0
G1 X209.017 S89
S0
G1 X208.890 S76
S0
G1 X208.636 S78
S0
G1 X208.509 S67
S0
G1 X208.255 S64
S0
G1 X208.001 S60
S0
G1 X207.747 S65
S0
G1 X207.493 S63
S0
G1 X207.366 S59
S0
G1 X207.239 S68
S0
G1 X207.112 S63
S0
G1 X206.731 S67
S0
G1 X206.604 S70
S0
G1 X206.477 S72
S0
G1 X206.350 S67
S0
G1 X206.223 S63
S0
G1 X205.715 S67
S0
G1 X205.588 S76
S0
G1 X205.461 S71
S0
G1 X205.334 S72
S0
G1 X205.207 S63
S0
G1 X205.080 S66
S0
G1 X204.953 S70
S0
G1 X204.826 S64
S0
G1 X204.699 S67
S0
G1 X204.572 S68
S0
G1 X204.445 S79
S0
G1 X204.318 S70
S0
G1 X204.191 S65
S0
G1 X204.064 S71
S0
G1 X203.937 S79
S0
G1 X203.810 S80
S0
G1 X203.683 S79
S0
G1 X203.556 S70
S0
G1 X203.429 S67
S0
G1 X203.302 S84
S0
G1 X203.175 S88
S0
G1 X203.048 S74
S0
G1 X202.921 S80
S0
G1 X202.794 S78
S0
G1 X202.667 S82
S0
G1 X202.413 S78
S0
G1 X202.159 S86
S0
G1 X202.032 S82
S0
G1 X201.905 S86
S0
G1 X201.778 S94
S0
G1 X201.524 S82
S0
G1 X201.397 S94
S0
G1 X201.270 S98
S0
G1 X201.016 S90
S0
G1 X200.889 S102
S0
G1 X200.635 S108
S0
G1 X200.381 S106
S0
G1 X200.254 S115
S0
G1 X200.127 S119
S0
G1 X200.000 S127
S0
G0 Y35.814
G0 X200.000 S0
G1 X200.127 S119
S0
G1 X200.381 S118
S0
G1 X200.508 S112
S0
G1 X200.635 S108
S0
G1 X200.889 S104
S0
G1 X201.016 S96
S0
G1 X201.270 S98
S0
G1 X201.397 S94
S0
G1 X201.651 S90
S0
G1 X201.778 S86
S0
G1 X201.905 S90
S0
G1 X202.032 S86
S0
G1 X202.159 S79
S0
G1 X202.286 S75
S0
G1 X202.540 S83
S0
G1 X203.048 S82
S0
G1 X203.302 S74
S0
G1 X203.429 S70
S0
G1 X203.556 S71
S0
G1 X203.683 S74
S0
G1 X203.937 S68
S0
G1 X204.064 S78
S0
G1 X204.191 S75
S0
G1 X204.318 S63
S0
G1 X204.445 S67
S0
G1 X204.572 S80
S0
G1 X204.699 S72
S0
G1 X204.826 S63
S0
G1 X204.953 S72
S0
G1 X205.080 S68
S0
G1 X205.207 S67
S0
G1 X205.334 S71
S0
G1 X205.461 S72
S0
G1 X205.588 S68
S0
G1 X205.715 S76
S0
G1 X205.969 S68
S0
G1 X206.096 S71
S0
G1 X206.223 S67
S0
G1 X206.350 S63
S0
G1 X206.477 S68
S0
G1 X206.858 S67
S0
G1 X206.985 S66
S0
G1 X207.112 S67
S0
G1 X207.239 S59
S0
G1 X207.366 S60
S0
G1 X207.620 S63
S0
G1 X207.747 S60
S0
G1 X207.874 S63
S0
G1 X208.001 S59
S0
G1 X208.128 S60
S0
G1 X208.255 S63
S0
G1 X208.382 S60
S0
G1 X208.509 S68
S0
G1 X208.636 S79
S0
G1 X208.890 S74
S0
G1 X209.017 S71
S0
G1 X209.144 S203
S0
G1 X209.271 S255
S0
G1 X209.398 S92
S0
G1 X209.525 S60
S0
G1 X209.652 S71
S0
G1 X209.906 S75
S0
G1 X210.160 S60
S0
G1 X210.414 S62
S0
G1 X210.541 S63
S0
G1 X210.668 S70
S0
G1 X210.795 S74
S0
G1 X211.049 S70
S0
G1 X211.176 S79
S0
G1 X211.303 S67
S0
G1 X211.430 S83
S0
G1 X211.557 S119
S0
G1 X211.684 S122
S0
G1 X211.811 S224
S0
G1 X211.938 S354
S0
G1 X212.065 S196
S0
G1 X212.192 S7
S0
G1 X212.319 S54
S0
G1 X212.446 S72
S0
G1 X212.573 S60
S0
G1 X212.827 S68
S0
G1 X212.954 S59
S0
G1 X213.081 S47
S0
G1 X213.208 S63
S0
G1 X213.335 S80
S0
G1 X213.462 S71
S0
G1 X213.716 S63
S0
G1 X213.843 S76
S0
G1 X213.970 S75
S0
G1 X214.097 S64
S0
G1 X214.224 S76
S0
G1 X214.351 S70
S0
G1 X214.478 S76
S0
G1 X214.605 S72
S0
G1 X214.732 S70
S0
G1 X214.859 S71
S0
G1 X214.986 S67
S0
G1 X215.113 S63
S0
G1 X215.240 S67
S0
G1 X215.367 S79
S0
G1 X215.494 S82
S0
G1 X215.621 S72
S0
G1 X215.748 S55
S0
G1 X215.875 S71
S0
G1 X216.002 S74
S0
G1 X216.129 S57
S0
G1 X216.256 S67
S0
G1 X216.383 S83
S0
G1 X216.510 S63
S0
G1 X216.637 S57
S0
G1 X216.764 S68
S0
G1 X216.891 S67
S0
G1 X217.018 S52
S0
G1 X217.145 S80
S0
G1 X217.272 S74
S0
G1 X217.399 S52
S0
G1 X217.526 S67
S0
G1 X217.653 S71
S0
G1 X217.780 S79
S0
G1 X217.907 S83
S0
G1 X218.034 S79
S0
G1 X218.161 S67
S0
G1 X218.288 S74
S0
G1 X218.415 S87
S0
G1 X218.542 S78
S0
G1 X218.669 S70
S0
G1 X218.796 S71
S0
G1 X218.923 S87
S0
G1 X219.050 S67
S0
G1 X219.177 S57
S0
G1 X219.304 S86
S0
G1 X219.431 S87
S0
G1 X219.558 S71
S0
G1 X219.685 S75
S0
G1 X219.812 S71
S0
G1 X219.939 S56
S0
G1 X220.066 S78
S0
G1 X220.193 S100
S0
G1 X220.320 S71
S0
G1 X220.574 S64
S0
G1 X220.701 S75
S0
G1 X220.828 S80
S0
G1 X220.955 S90
S0
G1 X221.082 S71
S0
G1 X221.209 S59
S0
G1 X221.463 S76
S0
G1 X221.717 S71
S0
G1 X221.844 S90
S0
G1 X221.971 S91
S0
G1 X222.098 S80
S0
G1 X222.225 S67
S0
G1 X222.352 S71
S0
G1 X222.479 S82
S0
G1 X222.606 S84
S0
G1 X222.733 S72
S0
G1 X222.987 S63
S0
G1 X223.114 S71
S0
G1 X223.368 S74
S0
G1 X223.495 S63
S0
G1 X223.622 S64
S0
G1 X223.749 S67
S0
G1 X223.876 S71
S0
G1 X224.003 S79
S0
G1 X224.130 S67
S0
G1 X224.257 S56
S0
G1 X224.384 S70
S0
G1 X224.511 S78
S0
G1 X224.638 S79
S0
G1 X224.765 S70
S0
G1 X224.892 S63
S0
G1 X225.019 S55
S0
G1 X225.146 S65
S0
G1 X225.273 S72
S0
G1 X225.400 S68
S0
G1 X225.527 S74
S0
G1 X225.654 S83
S0
G1 X225.781 S76
S0
G1 X225.908 S60
S0
G1 X226.035 S52
S0
G1 X226.162 S53
S0
G1 X226.416 S63
S0
G1 X226.543 S44
S0
G1 X226.670 S33
S0
G1 X226.797 S37
S0
G1 X226.924 S32
S0
G1 X227.178 S33
S0
G1 X227.305 S29
S0
G1 X227.432 S45
S0
G1 X227.559 S36
S0
G1 X227.686 S31
S0
G1 X227.813 S39
S0
G1 X227.940 S82
S0
G1 X228.067 S134
S0
G1 X228.194 S110
S0
G1 X228.321 S67
S0
G1 X228.448 S60
S0
G1 X228.575 S47
S0
G1 X228.702 S59
S0
G1 X228.829 S56
S0
G1 X228.956 S51
S0
G1 X229.083 S48
S0
G1 X229.210 S45
S0
G1 X229.337 S44
S0
G1 X229.464 S53
S0
G1 X229.591 S57
S0
G1 X229.718 S45
S0
G1 X229.845 S39
S0
G1 X229.972 S49
S0
G1 X230.099 S55
S0
G1 X230.226 S51
S0
G1 X230.353 S44
S0
G1 X230.480 S56
S0
G1 X230.607 S59
S0
G1 X230.734 S54
S0
G1 X230.861 S67
S0
G1 X230.988 S65
S0
G1 X231.115 S57
S0
G1 X231.242 S70
S0
G1 X231.369 S72
S0
G1 X231.623 S59
S0
G1 X231.750 S51
S0
G1 X231.877 S52
S0
G1 X232.004 S70
S0
G1 X232.131 S75
S0
G1 X232.258 S51
S0
G1 X232.639 S57
S0
G1 X232.766 S66
S0
G1 X232.893 S51
S0
G1 X233.147 S38
S0
G1 X233.274 S35
S0
G1 X233.401 S46
S0
G1 X233.528 S60
S0
G1 X233.655 S52
S0
G1 X233.782 S47
S0
G1 X233.909 S46
S0
G1 X234.036 S47
S0
G1 X234.163 S50
S0
G1 X234.290 S51
S0
G1 X234.417 S42
S0
G1 X234.544 S46
S0
G1 X234.671 S49
S0
G1 X234.798 S44
S0
G1 X235.052 S35
S0
G1 X235.179 S46
S0
G1 X235.306 S42
S0
G1 X235.433 S32
S0
G1 X235.560 S40
S0
G1 X235.687 S42
S0
G1 X235.814 S38
S0
G1 X235.941 S51
S0
G1 X236.068 S43
S0
G1 X236.195 S47
S0
G1 X236.322 S59
S0
G1 X236.449 S49
S0
G1 X236.576 S55
S0
G1 X236.703 S75
S0
G1 X236.830 S55
S0
G1 X236.957 S50
S0
G1 X237.084 S39
S0
G1 X237.211 S56
S0
G1 X237.338 S44
S0
G1 X237.592 S38
S0
G1 X237.719 S39
S0
G1 X237.846 S37
S0
G1 X238.100 S33
S0
G1 X238.227 S49
S0
G1 X238.354 S37
S0
G1 X238.481 S28
S0
G1 X238.608 S36
S0
G1 X238.735 S39
S0
G1 X238.862 S38
S0
G1 X238.989 S46
S0
G1 X239.116 S48
S0
G1 X239.243 S90
S0
G1 X239.370 S165
S0
G1 X239.497 S146
S0
G1 X239.624 S62
S0
G1 X239.751 S55
S0
G1 X239.878 S56
S0
G1 X240.005 S48
S0
G1 X240.132 S42
S0
G1 X240.259 S43
S0
G1 X240.386 S44
S0
G1 X240.513 S45
S0
G1 X240.640 S44
S0
G1 X240.767 S39
S0
G1 X240.894 S38
S0
G1 X241.148 S42
S0
G1 X241.275 S40
S0
G1 X241.529 S44
S0
G1 X241.656 S40
S0
G1 X241.783 S44
S0
G1 X242.037 S52
S0
G1 X242.164 S48
S0
G1 X242.291 S44
S0
G1 X242.418 S48
S0
G1 X242.672 S44
S0
G1 X242.799 S40
S0
G1 X242.926 S39
S0
G1 X243.053 S35
S0
G1 X243.180 S52
S0
G1 X243.307 S48
S0
G1 X243.434 S40
S0
G1 X243.561 S42
S0
G1 X243.688 S47
S0
G1 X243.815 S48
S0
G1 X243.942 S42
S0
G1 X244.069 S46
S0
G1 X244.196 S50
S0
G1 X244.323 S44
S0
G1 X244.450 S43
S0
G1 X244.577 S52
S0
G1 X244.704 S56
S0
G1 X244.831 S52
S0
G1 X244.958 S56
S0
G1 X245.212 S48
S0
G1 X245.339 S56
S0
G1 X245.593 S63
S0
G1 X245.720 S72
S0
G1 X245.847 S76
S0
G1 X245.974 S80
S0
G1 X246.101 S79
S0
G1 X246.228 S74
S0
G1 X246.355 S75
S0
G1 X246.482 S80
S0
G1 X246.609 S79
S0
G1 X246.736 S68
S0
G1 X246.863 S78
S0
G1 X246.990 S97
S0
G1 X247.117 S74
S0
G1 X247.244 S59
S0
G1 X247.371 S62
S0
G1 X247.498 S55
S0
G1 X247.625 S60
S0
G1 X247.752 S46
S0
G1 X248.006 S56
S0
G1 X248.260 S44
S0
G1 X248.387 S48
S0
G1 X248.514 S42
S0
G1 X248.641 S50
S0
G1 X248.768 S54
S0
G1 X248.895 S52
S0
G1 X249.022 S48
S0
G1 X249.276 S54
S0
G1 X249.403 S52
S0
G1 X249.530 S48
S0
G1 X249.657 S46
S0
G1 X249.784 S48
S0
G1 X250.038 S44
S0
G0 Y35.687
G0 X250.038 S0
G1 X249.784 S44
S0
G1 X249.657 S47
S0
G1 X249.403 S44
S0
G1 X249.276 S52
S0
G1 X249.022 S50
S0
G1 X248.895 S48
S0
G1 X248.768 S56
S0
G1 X248.514 S54
S0
G1 X248.387 S58
S0
G1 X248.133 S55
S0
G1 X248.006 S60
S0
G1 X247.752 S55
S0
G1 X247.625 S63
S0
G1 X247.498 S67
S0
G1 X247.371 S54
S0
G1 X247.244 S63
S0
G1 X247.117 S67
S0
G1 X246.990 S70
S0
G1 X246.863 S91
S0
G1 X246.736 S82
S0
G1 X246.609 S83
S0
G1 X246.355 S75
S0
G1 X246.101 S78
S0
G1 X245.974 S79
S0
G1 X245.847 S74
S0
G1 X245.720 S70
S0
G1 X245.593 S67
S0
G1 X245.466 S60
S0
G1 X245.339 S64
S0
G1 X245.212 S60
S0
G1 X245.085 S48
S0
G1 X244.704 S52
S0
G1 X244.577 S51
S0
G1 X244.450 S48
S0
G1 X244.323 S44
S0
G1 X244.196 S46
S0
G1 X244.069 S52
S0
G1 X243.942 S44
S0
G1 X243.688 S48
S0
G1 X243.561 S47
S0
G1 X243.434 S36
S0
G1 X243.307 S40
S0
G1 X243.180 S48
S0
G1 X243.053 S46
S0
G1 X242.799 S43
S0
G1 X242.545 S38
S0
G1 X242.291 S46
S0
G1 X242.037 S44
S0
G1 X241.910 S43
S0
G1 X241.402 S44
S0
G1 X241.275 S42
S0
G1 X241.021 S38
S0
G1 X240.894 S42
S0
G1 X240.767 S46
S0
G1 X240.640 S42
S0
G1 X240.513 S41
S0
G1 X240.386 S39
S0
G1 X240.259 S48
S0
G1 X240.005 S43
S0
G1 X239.751 S50
S0
G1 X239.624 S58
S0
G1 X239.497 S121
S0
G1 X239.370 S168
S0
G1 X239.243 S125
S0
G1 X239.116 S67
S0
G1 X238.989 S35
S0
G1 X238.862 S44
S0
G1 X238.735 S47
S0
G1 X238.608 S31
S0
G1 X238.481 S32
S0
G1 X238.100 S37
S0
G1 X237.973 S33
S0
G1 X237.846 S35
S0
G1 X237.592 S39
S0
G1 X237.465 S38
S0
G1 X237.338 S51
S0
G1 X237.211 S47
S0
G1 X237.084 S38
S0
G1 X236.957 S52
S0
G1 X236.830 S47
S0
G1 X236.703 S63
S0
G1 X236.576 S60
S0
G1 X236.449 S52
S0
G1 X236.322 S63
S0
G1 X236.195 S56
S0
G1 X236.068 S48
S0
G1 X235.941 S55
S0
G1 X235.814 S56
S0
G1 X235.687 S52
S0
G1 X235.560 S31
S0
G1 X235.433 S42
S0
G1 X235.306 S52
S0
G1 X235.179 S42
S0
G1 X235.052 S40
S0
G1 X234.925 S43
S0
G1 X234.798 S46
S0
G1 X234.671 S50
S0
G1 X234.544 S44
S0
G1 X234.417 S40
S0
G1 X234.290 S51
S0
G1 X234.163 S47
S0
G1 X234.036 S40
S0
G1 X233.909 S35
S0
G1 X233.782 S43
S0
G1 X233.528 S53
S0
G1 X233.401 S35
S0
G1 X233.274 S48
S0
G1 X233.147 S40
S0
G1 X233.020 S38
S0
G1 X232.893 S63
S0
G1 X232.766 S80
S0
G1 X232.639 S68
S0
G1 X232.512 S49
S0
G1 X232.385 S51
S0
G1 X232.258 S52
S0
G1 X232.131 S63
S0
G1 X232.004 S58
S0
G1 X231.877 S62
S0
G1 X231.750 S59
S0
G1 X231.623 S71
S0
G1 X231.496 S87
S0
G1 X231.369 S60
S0
G1 X231.115 S47
S0
G1 X230.988 S49
S0
G1 X230.861 S56
S0
G1 X230.734 S50
S0
G1 X230.480 S35
S0
G1 X230.353 S39
S0
G1 X230.099 S55
S0
G1 X229.972 S47
S0
G1 X229.718 S49
S0
G1 X229.591 S56
S0
G1 X229.464 S60
S0
G1 X229.337 S59
S0
G1 X229.210 S57
S0
G1 X229.083 S55
S0
G1 X228.956 S63
S0
G1 X228.829 S60
S0
G1 X228.702 S53
S0
G1 X228.575 S61
S0
G1 X228.448 S64
S0
G1 X228.321 S75
S0
G1 X228.194 S108
S0
G1 X228.067 S134
S0
G1 X227.940 S83
S0
G1 X227.813 S36
S0
G1 X227.686 S32
S0
G1 X227.559 S33
S0
G1 X227.432 S32
S0
G1 X227.305 S41
S0
G1 X227.051 S29
S0
G1 X226.924 S33
S0
G1 X226.797 S32
S0
G1 X226.670 S28
S0
G1 X226.543 S41
S0
G1 X226.416 S56
S0
G1 X226.289 S60
S0
G1 X226.162 S52
S0
G1 X226.035 S60
S0
G1 X225.908 S59
S0
G1 X225.781 S74
S0
G1 X225.654 S82
S0
G1 X225.527 S86
S0
G1 X225.400 S70
S0
G1 X225.273 S60
S0
G1 X225.146 S53
S0
G1 X225.019 S56
S0
G1 X224.892 S67
S0
G1 X224.765 S71
S0
G1 X224.638 S70
S0
G1 X224.511 S72
S0
G1 X224.384 S68
S0
G1 X224.257 S61
S0
G1 X224.003 S67
S0
G1 X223.876 S68
S0
G1 X223.749 S63
S0
G1 X223.622 S64
S0
G1 X223.495 S68
S0
G1 X223.368 S67
S0
G1 X223.241 S75
S0
G1 X223.114 S63
S0
G1 X222.987 S55
S0
G1 X222.860 S70
S0
G1 X222.733 S80
S0
G1 X222.606 S71
S0
G1 X222.479 S79
S0
G1 X222.352 S91
S0
G1 X222.098 S90
S0
G1 X221.971 S92
S0
G1 X221.844 S68
S0
G1 X221.717 S60
S0
G1 X221.590 S75
S0
G1 X221.463 S95
S0
G1 X221.336 S74
S0
G1 X221.209 S65
S0
G1 X221.082 S83
S0
G1 X220.955 S79
S0
G1 X220.828 S74
S0
G1 X220.701 S80
S0
G1 X220.574 S82
S0
G1 X220.447 S67
S0
G1 X220.320 S68
S0
G1 X220.066 S79
S0
G1 X219.939 S78
S0
G1 X219.812 S80
S0
G1 X219.685 S70
S0
G1 X219.558 S71
S0
G1 X219.431 S92
S0
G1 X219.304 S95
S0
G1 X219.050 S71
S0
G1 X218.923 S83
S0
G1 X218.796 S76
S0
G1 X218.669 S79
S0
G1 X218.542 S75
S0
G1 X218.415 S74
S0
G1 X218.288 S79
S0
G1 X218.161 S60
S0
G1 X218.034 S74
S0
G1 X217.907 S94
S0
G1 X217.780 S78
S0
G1 X217.653 S75
S0
G1 X217.526 S80
S0
G1 X217.399 S67
S0
G1 X217.272 S79
S0
G1 X217.145 S82
S0
G1 X216.891 S63
S0
G1 X216.764 S79
S0
G1 X216.637 S64
S0
G1 X216.510 S56
S0
G1 X216.383 S75
S0
G1 X216.256 S71
S0
G1 X216.129 S72
S0
G1 X216.002 S71
S0
G1 X215.875 S75
S0
G1 X215.748 S64
S0
G1 X215.621 S72
S0
G1 X215.494 S88
S0
G1 X215.367 S75
S0
G1 X215.240 S80
S0
G1 X215.113 S71
S0
G1 X214.986 S86
S0
G1 X214.859 S67
S0
G1 X214.732 S84
S0
G1 X214.605 S71
S0
G1 X214.478 S67
S0
G1 X214.351 S70
S0
G1 X214.224 S67
S0
G1 X214.097 S63
S0
G1 X213.970 S75
S0
G1 X213.843 S79
S0
G1 X213.716 S63
S0
G1 X213.589 S56
S0
G1 X213.462 S68
S0
G1 X213.335 S63
S0
G1 X213.208 S65
S0
G1 X213.081 S76
S0
G1 X212.954 S67
S0
G1 X212.827 S56
S0
G1 X212.700 S63
S0
G1 X212.573 S74
S0
G1 X212.446 S75
S0
G1 X212.319 S59
S0
G1 X212.065 S67
S0
G1 X211.938 S17
S0
G1 X211.811 S177
S0
G1 X211.684 S353
S0
G1 X211.557 S239
S0
G1 X211.430 S188
S0
G1 X211.303 S214
S0
G1 X211.176 S161
S0
G1 X211.049 S93
S0
G1 X210.922 S67
S0
G1 X210.795 S74
S0
G1 X210.668 S86
S0
G1 X210.541 S82
S0
G1 X210.414 S75
S0
G1 X210.287 S72
S0
G1 X210.160 S64
S0
G1 X209.906 S68
S0
G1 X209.779 S71
S0
G1 X209.652 S64
S0
G1 X209.525 S63
S0
G1 X209.398 S75
S0
G1 X209.271 S55
S0
G1 X209.144 S154
S0
G1 X209.017 S318
S0
G1 X208.890 S188
S0
G1 X208.763 S82
S0
G1 X208.509 S78
S0
G1 X208.382 S67
S0
G1 X208.255 S72
S0
G1 X208.128 S68
S0
G1 X207.747 S63
S0
G1 X207.620 S60
S0
G1 X207.366 S67
S0
G1 X207.239 S59
S0
G1 X206.985 S67
S0
G1 X206.858 S59
S0
G1 X206.604 S65
S0
G1 X206.223 S63
S0
G1 X205.969 S72
S0
G1 X205.842 S68
S0
G1 X205.715 S63
S0
G1 X205.207 S67
S0
G1 X205.080 S70
S0
G1 X204.826 S68
S0
G1 X204.572 S70
S0
G1 X204.445 S74
S0
G1 X204.318 S67
S0
G1 X204.191 S63
S0
G1 X204.064 S71
S0
G1 X203.937 S78
S0
G1 X203.810 S72
S0
G1 X203.683 S68
S0
G1 X203.556 S76
S0
G1 X203.429 S86
S0
G1 X203.302 S82
S0
G1 X203.175 S74
S0
G1 X202.921 S78
S0
G1 X202.794 S82
S0
G1 X202.667 S78
S0
G1 X202.540 S74
S0
G1 X202.413 S79
S0
G1 X202.286 S83
S0
G1 X202.159 S71
S0
G1 X202.032 S79
S0
G1 X201.905 S86
S0
G1 X201.651 S82
S0
G1 X201.270 S94
S0
G1 X201.143 S90
S0
G1 X201.016 S86
S0
G1 X200.889 S96
S0
G1 X200.762 S106
S0
G1 X200.635 S108
S0
G1 X200.508 S115
S0
G1 X200.381 S119
S0
G1 X200.127 S118
S0
G1 X200.000 S115
S0
G0 Y35.560
G0 X200.000 S0
G1 X200.127 S122
S0
G1 X200.254 S118
S0
G1 X200.381 S115
S0
G1 X200.508 S112
S0
G1 X200.635 S108
S0
G1 X200.762 S104
S0
G1 X200.889 S108
S0
G1 X201.016 S100
S0
G1 X201.143 S92
S0
G1 X201.270 S96
S0
G1 X201.397 S99
S0
G1 X201.524 S90
S0
G1 X201.651 S86
S0
G1 X201.778 S82
S0
G1 X201.905 S86
S0
G1 X202.032 S87
S0
G1 X202.159 S82
S0
G1 X202.286 S83
S0
G1 X202.413 S87
S0
G1 X202.540 S74
S0
G1 X202.667 S70
S0
G1 X202.794 S74
S0
G1 X202.921 S82
S0
G1 X203.048 S74
S0
G1 X203.175 S82
S0
G1 X203.302 S84
S0
G1 X203.429 S88
S0
G1 X203.556 S80
S0
G1 X203.810 S72
S0
G1 X203.937 S78
S0
G1 X204.064 S80
S0
G1 X204.191 S72
S0
G1 X204.318 S68
S0
G1 X204.445 S75
S0
G1 X204.572 S71
S0
G1 X204.699 S67
S0
G1 X204.826 S71
S0
G1 X204.953 S67
S0
G1 X205.080 S70
S0
G1 X205.207 S72
S0
G1 X205.334 S63
S0
G1 X205.461 S68
S0
G1 X205.588 S71
S0
G1 X205.715 S68
S0
G1 X205.842 S72
S0
G1 X205.969 S70
S0
G1 X206.096 S72
S0
G1 X206.223 S67
S0
G1 X206.350 S60
S0
G1 X206.477 S63
S0
G1 X206.604 S68
S0
G1 X206.731 S72
S0
G1 X206.985 S65
S0
G1 X207.112 S70
S0
G1 X207.239 S71
S0
G1 X207.493 S63
S0
G1 X207.620 S67
S0
G1 X207.747 S60
S0
G1 X208.128 S63
S0
G1 X208.255 S75
S0
G1 X208.382 S71
S0
G1 X208.509 S67
S0
G1 X208.636 S88
S0
G1 X208.763 S74
S0
G1 X208.890 S129
S0
G1 X209.017 S290
S0
G1 X209.144 S224
S0
G1 X209.271 S71
S0
G1 X209.398 S67
S0
G1 X209.525 S74
S0
G1 X209.652 S67
S0
G1 X209.779 S63
S0
G1 X209.906 S67
S0
G1 X210.033 S76
S0
G1 X210.160 S74
S0
G1 X210.287 S70
S0
G1 X210.414 S80
S0
G1 X210.541 S84
S0
G1 X210.668 S83
S0
G1 X210.795 S82
S0
G1 X210.922 S140
S0
G1 X211.049 S197
S0
G1 X211.176 S208
S0
G1 X211.303 S235
S0
G1 X211.430 S224
S0
G1 X211.557 S369
S0
G1 X211.684 S388
S0
G1 X211.811 S115
S0
G1 X211.938 S40
S0
G1 X212.065 S63
S0
G1 X212.192 S75
S0
G1 X212.319 S79
S0
G1 X212.446 S67
S0
G1 X212.573 S66
S0
G1 X212.700 S58
S0
G1 X212.827 S59
S0
G1 X212.954 S60
S0
G1 X213.081 S75
S0
G1 X213.208 S68
S0
G1 X213.335 S64
S0
G1 X213.462 S55
S0
G1 X213.589 S64
S0
G1 X213.716 S72
S0
G1 X213.843 S57
S0
G1 X213.970 S67
S0
G1 X214.097 S80
S0
G1 X214.351 S63
S0
G1 X214.478 S67
S0
G1 X214.605 S74
S0
G1 X214.732 S71
S0
G1 X214.859 S95
S0
G1 X214.986 S90
S0
G1 X215.113 S86
S0
G1 X215.240 S88
S0
G1 X215.367 S72
S0
G1 X215.494 S76
S0
G1 X215.621 S88
S0
G1 X215.748 S95
S0
G1 X215.875 S71
S0
G1 X216.002 S53
S0
G1 X216.129 S79
S0
G1 X216.256 S71
S0
G1 X216.383 S60
S0
G1 X216.510 S75
S0
G1 X216.637 S67
S0
G1 X216.764 S60
S0
G1 X216.891 S79
S0
G1 X217.018 S75
S0
G1 X217.145 S60
S0
G1 X217.272 S75
S0
G1 X217.399 S83
S0
G1 X217.526 S67
S0
G1 X217.653 S76
S0
G1 X217.780 S75
S0
G1 X217.907 S68
S0
G1 X218.034 S76
S0
G1 X218.161 S82
S0
G1 X218.415 S60
S0
G1 X218.542 S83
S0
G1 X218.669 S76
S0
G1 X218.796 S79
S0
G1 X218.923 S72
S0
G1 X219.050 S86
S0
G1 X219.177 S90
S0
G1 X219.304 S75
S0
G1 X219.431 S57
S0
G1 X219.558 S75
S0
G1 X219.812 S88
S0
G1 X219.939 S68
S0
G1 X220.066 S67
S0
G1 X220.193 S70
S0
G1 X220.320 S71
S0
G1 X220.447 S78
S0
G1 X220.574 S71
S0
G1 X220.701 S72
S0
G1 X220.828 S75
S0
G1 X220.955 S72
S0
G1 X221.082 S94
S0
G1 X221.209 S111
S0
G1 X221.336 S83
S0
G1 X221.463 S67
S0
G1 X221.590 S88
S0
G1 X221.717 S106
S0
G1 X221.844 S84
S0
G1 X221.971 S47
S0
G1 X222.098 S74
S0
G1 X222.225 S95
S0
G1 X222.352 S84
S0
G1 X222.479 S82
S0
G1 X222.606 S78
S0
G1 X222.733 S102
S0
G1 X222.860 S84
S0
G1 X222.987 S64
S0
G1 X223.114 S72
S0
G1 X223.241 S79
S0
G1 X223.368 S63
S0
G1 X223.495 S60
S0
G1 X223.622 S63
S0
G1 X223.749 S72
S0
G1 X223.876 S76
S0
G1 X224.003 S72
S0
G1 X224.130 S63
S0
G1 X224.257 S68
S0
G1 X224.384 S72
S0
G1 X224.511 S55
S0
G1 X224.892 S61
S0
G1 X225.019 S76
S0
G1 X225.146 S84
S0
G1 X225.273 S68
S0
G1 X225.400 S55
S0
G1 X225.654 S67
S0
G1 X225.781 S63
S0
G1 X226.162 S67
S0
G1 X226.289 S55
S0
G1 X226.416 S52
S0
G1 X226.543 S51
S0
G1 X226.670 S53
S0
G1 X226.924 S35
S0
G1 X227.051 S38
S0
G1 X227.178 S35
S0
G1 X227.305 S37
S0
G1 X227.432 S41
S0
G1 X227.559 S38
S0
G1 X227.686 S42
S0
G1 X227.813 S50
S0
G1 X227.940 S36
S0
G1 X228.067 S23
S0
G1 X228.194 S83
S0
G1 X228.321 S133
S0
G1 X228.448 S114
S0
G1 X228.575 S78
S0
G1 X228.702 S63
S0
G1 X228.829 S51
S0
G1 X228.956 S52
S0
G1 X229.083 S49
S0
G1 X229.210 S53
S0
G1 X229.337 S64
S0
G1 X229.464 S56
S0
G1 X229.591 S48
S0
G1 X229.718 S52
S0
G1 X229.972 S64
S0
G1 X230.099 S53
S0
G1 X230.226 S59
S0
G1 X230.353 S68
S0
G1 X230.480 S66
S0
G1 X230.607 S52
S0
G1 X230.734 S44
S0
G1 X230.861 S43
S0
G1 X230.988 S50
S0
G1 X231.115 S55
S0
G1 X231.242 S41
S0
G1 X231.369 S33
S0
G1 X231.496 S47
S0
G1 X231.623 S67
S0
G1 X231.750 S70
S0
G1 X231.877 S60
S0
G1 X232.004 S51
S0
G1 X232.131 S49
S0
G1 X232.385 S59
S0
G1 X232.512 S51
S0
G1 X232.639 S48
S0
G1 X232.766 S51
S0
G1 X232.893 S57
S0
G1 X233.020 S61
S0
G1 X233.147 S63
S0
G1 X233.274 S62
S0
G1 X233.401 S54
S0
G1 X233.528 S48
S0
G1 X233.655 S55
S0
G1 X233.782 S60
S0
G1 X233.909 S47
S0
G1 X234.036 S40
S0
G1 X234.163 S39
S0
G1 X234.290 S36
S0
G1 X234.417 S44
S0
G1 X234.544 S52
S0
G1 X234.671 S43
S0
G1 X234.798 S28
S0
G1 X234.925 S42
S0
G1 X235.052 S46
S0
G1 X235.179 S27
S0
G1 X235.306 S28
S0
G1 X235.433 S40
S0
G1 X235.560 S47
S0
G1 X235.687 S48
S0
G1 X235.814 S44
S0
G1 X235.941 S57
S0
G1 X236.068 S59
S0
G1 X236.195 S50
S0
G1 X236.322 S47
S0
G1 X236.449 S63
S0
G1 X236.576 S56
S0
G1 X236.703 S31
S0
G1 X236.830 S62
S0
G1 X236.957 S75
S0
G1 X237.084 S52
S0
G1 X237.211 S42
S0
G1 X237.338 S39
S0
G1 X237.465 S48
S0
G1 X237.592 S44
S0
G1 X237.719 S41
S0
G1 X237.846 S38
S0
G1 X237.973 S42
S0
G1 X238.100 S37
S0
G1 X238.227 S31
S0
G1 X238.354 S33
S0
G1 X238.481 S45
S0
G1 X238.608 S40
S0
G1 X238.735 S31
S0
G1 X238.862 S47
S0
G1 X238.989 S36
S0
G1 X239.116 S42
S0
G1 X239.243 S40
S0
